; generated by PrusaSlicer 2.3.1+win64 on 2022-09-03 at 14:09:36 UTC

; 

; external perimeters extrusion width = 0.60mm
; perimeters extrusion width = 0.50mm
; infill extrusion width = 0.50mm
; solid infill extrusion width = 0.50mm
; top infill extrusion width = 0.45mm
; first layer extrusion width = 0.42mm

M73 P0 R18
M73 Q0 S18
M201 X1000 Y1000 Z200 E5000 ; sets maximum accelerations, mm/sec^2
M203 X200 Y200 Z12 E120 ; sets maximum feedrates, mm/sec
M204 P1250 R1250 T1250 ; sets acceleration (P, T) and retract acceleration (R), mm/sec^2
M205 X8.00 Y8.00 Z0.40 E4.50 ; sets the jerk limits, mm/sec
M205 S0 T0 ; sets the minimum extruding and travel feed rate, mm/sec
M107
;TYPE:Custom
M862.3 P "MK3S" ; printer model check
M862.1 P0.4 ; nozzle diameter check
M115 U3.9.3 ; tell printer latest fw version
G90 ; use absolute coordinates
M83 ; extruder relative mode
M104 S205 ; set extruder temp
M140 S67 ; set bed temp
M190 S67 ; wait for bed temp
M109 S205 ; wait for extruder temp
G28 W ; home all without mesh bed level
G80 ; mesh bed leveling
G1 Y-3.0 F1000.0 ; go outside print area
G92 E0.0
G1 X60.0 E9.0 F1000.0 ; intro line
G1 X100.0 E12.5 F1000.0 ; intro line
G92 E0.0
M221 S95

; Don't change E values below. Excessive value can damage the printer.

M907 E538 ; set extruder motor current
G21 ; set units to millimeters
G90 ; use absolute coordinates
M83 ; use relative distances for extrusion
M900 K0.05 ; Filament gcode LA 1.5
M900 K30 ; Filament gcode LA 1.0
;LAYER_CHANGE
;Z:0.2
;HEIGHT:0.2
;BEFORE_LAYER_CHANGE
G92 E0.0
;0.2


G1 E-0.80000 F2100.000
G1 Z0.400 F10800.000
;AFTER_LAYER_CHANGE
;0.2
; printing object 10mm_hose_clamp.stl id:0 copy 0
G1 X168.130 Y52.979
G1 Z0.200
G1 E0.80000 F2100.000
M204 S1000
;TYPE:Perimeter
;WIDTH:0.42
G1 F1200.000
G1 X172.331 Y52.979 E0.13171
G1 X172.556 Y53.388 E0.01465
G1 X168.130 Y53.388 E0.13879
G1 X168.130 Y53.039 E0.01095
G1 X167.753 Y52.602 F10800.000
G1 F1200.000
G1 X172.568 Y52.602 E0.15098
G1 X172.744 Y52.970 E0.01279
G1 X173.105 Y53.567 E0.02188
G1 X173.261 Y53.765 E0.00791
G1 X167.753 Y53.765 E0.17270
G1 X167.753 Y52.662 E0.03460
G1 X167.376 Y52.225 F10800.000
G1 F1200.000
G1 X172.806 Y52.225 E0.17026
G1 X173.076 Y52.791 E0.01966
G1 X173.416 Y53.352 E0.02057
G1 X174.050 Y54.143 E0.03177
G1 X167.376 Y54.143 E0.20926
G1 X167.376 Y52.285 E0.05824
;WIPE_START
G1 F8640.000
G1 X170.667 Y52.249 E-0.76000
;WIPE_END
G1 E-0.04000 F2100.000
G1 Z0.600 F10800.000
G1 X185.120 Y53.388
G1 Z0.200
G1 E0.80000 F2100.000
G1 F1200.000
G1 X185.328 Y52.979 E0.01439
G1 X189.539 Y52.979 E0.13205
G1 X189.539 Y53.388 E0.01283
G1 X185.180 Y53.388 E0.13669
G1 X184.404 Y53.765 F10800.000
G1 F1200.000
G1 X184.759 Y53.265 E0.01923
G1 X185.096 Y52.602 E0.02332
G1 X189.916 Y52.602 E0.15112
G1 X189.916 Y53.765 E0.03648
G1 X184.464 Y53.765 E0.17094
M73 P1 R18
M73 Q1 S18
G1 X183.613 Y54.143 F10800.000
G1 F1200.000
G1 X183.890 Y53.839 E0.01289
G1 X184.436 Y53.070 E0.02957
G1 X184.864 Y52.225 E0.02970
G1 X190.293 Y52.225 E0.17022
G1 X190.293 Y54.143 E0.06012
G1 X183.673 Y54.143 E0.20758
G1 X183.708 Y54.520 F10800.000
G1 F1200.000
G1 X182.952 Y55.140 E0.03066
G1 X182.526 Y55.436 E0.01627
G1 X182.086 Y55.696 E0.01602
G1 X181.371 Y56.030 E0.02474
G1 X180.625 Y56.280 E0.02468
G1 X180.125 Y56.396 E0.01607
G1 X179.620 Y56.473 E0.01602
G1 X178.828 Y56.519 E0.02489
G1 X178.322 Y56.499 E0.01587
G1 X177.535 Y56.394 E0.02489
G1 X177.046 Y56.280 E0.01573
G1 X176.298 Y56.030 E0.02474
G1 X175.583 Y55.696 E0.02474
G1 X175.143 Y55.436 E0.01602
G1 X174.717 Y55.140 E0.01627
G1 X173.961 Y54.520 E0.03066
G1 X166.999 Y54.520 E0.21831
G1 X166.999 Y51.848 E0.08377
G1 X173.073 Y51.848 E0.19047
G1 X173.144 Y52.057 E0.00691
G1 X173.409 Y52.612 E0.01927
G1 X173.727 Y53.138 E0.01927
G1 X174.278 Y53.839 E0.02797
G1 X174.926 Y54.452 E0.02797
G1 X175.411 Y54.811 E0.01893
G1 X175.696 Y54.989 E0.01052
G1 X176.208 Y55.262 E0.01819
G1 X176.776 Y55.496 E0.01926
G1 X177.624 Y55.730 E0.02760
G1 X178.232 Y55.820 E0.01927
G1 X178.835 Y55.849 E0.01890
G1 X179.437 Y55.820 E0.01890
G1 X180.045 Y55.730 E0.01927
G1 X180.893 Y55.496 E0.02760
G1 X181.462 Y55.261 E0.01927
G1 X182.004 Y54.973 E0.01927
G1 X182.725 Y54.467 E0.02760
G1 X183.182 Y54.056 E0.01927
G1 X183.596 Y53.602 E0.01927
G1 X184.112 Y52.874 E0.02797
G1 X184.516 Y52.079 E0.02797
G1 X184.600 Y51.848 E0.00770
G1 X190.670 Y51.848 E0.19033
G1 X190.670 Y54.520 E0.08377
G1 X183.768 Y54.520 E0.21642
G1 X183.843 Y54.897 F10800.000
G1 F1200.000
G1 X183.179 Y55.441 E0.02689
G1 X182.730 Y55.754 E0.01719
G1 X182.262 Y56.030 E0.01703
G1 X181.511 Y56.381 E0.02598
G1 X180.727 Y56.643 E0.02592
G1 X180.197 Y56.766 E0.01709
G1 X179.660 Y56.849 E0.01703
G1 X178.831 Y56.896 E0.02602
G1 X178.289 Y56.875 E0.01699
G1 X177.467 Y56.765 E0.02602
G1 X176.943 Y56.644 E0.01686
G1 X176.158 Y56.381 E0.02598
G1 X175.407 Y56.030 E0.02598
G1 X174.939 Y55.754 E0.01703
G1 X174.490 Y55.441 E0.01719
G1 X173.826 Y54.897 E0.02689
G1 X166.622 Y54.897 E0.22590
G1 X166.622 Y51.471 E0.10741
G1 X173.345 Y51.471 E0.21080
G1 X173.494 Y51.915 E0.01469
G1 X173.741 Y52.432 E0.01797
G1 X174.037 Y52.923 E0.01797
G1 X174.557 Y53.584 E0.02638
G1 X175.168 Y54.163 E0.02638
G1 X175.624 Y54.499 E0.01776
G1 X175.885 Y54.663 E0.00965
G1 X176.368 Y54.920 E0.01718
G1 X176.898 Y55.138 E0.01797
G1 X177.702 Y55.360 E0.02615
G1 X178.269 Y55.444 E0.01797
G1 X178.835 Y55.472 E0.01774
G1 X179.400 Y55.444 E0.01774
G1 X179.967 Y55.360 E0.01797
G1 X180.771 Y55.138 E0.02615
G1 X181.301 Y54.920 E0.01797
G1 X181.807 Y54.651 E0.01797
G1 X182.490 Y54.172 E0.02615
G1 X182.915 Y53.788 E0.01797
G1 X183.302 Y53.365 E0.01797
G1 X183.788 Y52.678 E0.02638
G1 X184.170 Y51.928 E0.02638
G1 X184.336 Y51.471 E0.01526
G1 X191.047 Y51.471 E0.21044
G1 X191.047 Y54.897 E0.10741
G1 X183.903 Y54.897 E0.22402
G1 X183.977 Y55.274 F10800.000
;TYPE:External perimeter
G1 F1200.000
G1 X183.407 Y55.742 E0.02313
G1 X182.934 Y56.072 E0.01810
G1 X182.438 Y56.364 E0.01804
G1 X181.651 Y56.731 E0.02721
G1 X180.830 Y57.006 E0.02716
G1 X180.268 Y57.137 E0.01810
G1 X179.699 Y57.224 E0.01804
G1 X178.835 Y57.274 E0.02714
G1 X178.257 Y57.252 E0.01812
G1 X177.399 Y57.137 E0.02714
G1 X176.841 Y57.007 E0.01798
G1 X176.018 Y56.731 E0.02721
G1 X175.231 Y56.364 E0.02721
G1 X174.735 Y56.072 E0.01804
G1 X174.262 Y55.742 E0.01810
G1 X173.692 Y55.274 E0.02313
G1 X166.245 Y55.274 E0.23350
G1 X166.245 Y51.094 E0.13106
G1 X173.616 Y51.094 E0.23113
G1 X173.844 Y51.773 E0.02247
G1 X174.073 Y52.253 E0.01667
G1 X174.348 Y52.708 E0.01667
G1 X174.837 Y53.330 E0.02479
G1 X175.411 Y53.873 E0.02479
G1 X175.836 Y54.187 E0.01659
G1 X176.073 Y54.336 E0.00878
G1 X176.529 Y54.578 E0.01618
G1 X177.021 Y54.781 E0.01667
G1 X177.780 Y54.991 E0.02471
G1 X178.306 Y55.068 E0.01667
G1 X178.835 Y55.094 E0.01659
G1 X179.363 Y55.068 E0.01659
G1 X179.889 Y54.991 E0.01667
G1 X180.648 Y54.781 E0.02471
G1 X181.140 Y54.578 E0.01667
G1 X181.609 Y54.329 E0.01667
G1 X182.254 Y53.876 E0.02471
G1 X182.649 Y53.520 E0.01667
G1 X183.007 Y53.128 E0.01667
G1 X183.465 Y52.483 E0.02479
G1 X183.823 Y51.778 E0.02479
G1 X184.054 Y51.094 E0.02264
G1 X191.425 Y51.094 E0.23110
G1 X191.425 Y55.274 E0.13106
G1 X184.037 Y55.274 E0.23162
G1 X183.612 Y55.111 F10800.000
;WIPE_START
G1 F8640.000
G1 X183.407 Y55.742 E-0.18123
G1 X182.934 Y56.072 E-0.13329
G1 X182.438 Y56.364 E-0.13288
G1 X181.651 Y56.731 E-0.20042
G1 X181.191 Y56.886 E-0.11217
;WIPE_END
G1 E-0.04000 F2100.000
G1 Z0.600 F10800.000
G1 X183.393 Y54.331
G1 Z0.200
M73 Q2 S18
G1 E0.80000 F2100.000
;TYPE:Gap fill
;WIDTH:0.346353
G1 F1200.000
G1 X182.939 Y54.721 E0.01511
;WIDTH:0.329494
G1 X182.342 Y55.150 E0.01750
M73 P2 R18
G1 X181.928 Y55.396 E0.01148
G1 X181.595 Y55.562 E0.00885
G1 X180.992 Y55.810 E0.01555
G1 X180.122 Y56.054 E0.02153
G1 X179.585 Y56.138 E0.01295
G1 X178.827 Y56.184 E0.01809
G1 X178.351 Y56.163 E0.01137
G1 X177.595 Y56.064 E0.01816
G1 X177.139 Y55.951 E0.01119
G1 X176.661 Y55.804 E0.01192
G1 X176.074 Y55.562 E0.01513
G1 X175.741 Y55.396 E0.00886
G1 X175.228 Y55.089 E0.01424
G1 X174.719 Y54.712 E0.01509
G1 X174.286 Y54.331 E0.01376
;WIPE_START
G1 F8640.000
G1 X174.719 Y54.712 E-0.13331
G1 X175.228 Y55.089 E-0.14622
G1 X175.741 Y55.396 E-0.13797
G1 X176.074 Y55.562 E-0.08585
G1 X176.661 Y55.804 E-0.14666
G1 X177.116 Y55.944 E-0.10999
;WIPE_END
G1 E-0.04000 F2100.000
G1 Z0.600 F10800.000
G1 X172.341 Y46.388
G1 Z0.200
G1 E0.80000 F2100.000
;TYPE:Perimeter
;WIDTH:0.42
G1 F1200.000
G1 X168.130 Y46.388 E0.13205
G1 X168.130 Y45.979 E0.01283
G1 X172.549 Y45.979 E0.13857
G1 X172.369 Y46.335 E0.01251
G1 X172.573 Y46.765 F10800.000
G1 F1200.000
G1 X167.753 Y46.765 E0.15112
G1 X167.753 Y45.602 E0.03648
G1 X173.250 Y45.602 E0.17235
M73 P2 R17
G1 X172.900 Y46.121 E0.01962
G1 X172.600 Y46.712 E0.02078
G1 X172.806 Y47.139 F10800.000
G1 F1200.000
G1 X167.376 Y47.143 E0.17026
G1 X167.376 Y45.225 E0.06012
G1 X174.050 Y45.225 E0.20927
G1 X173.592 Y45.769 E0.02228
G1 X173.226 Y46.313 E0.02056
G1 X172.833 Y47.085 E0.02717
;WIPE_START
G1 F8640.000
G1 X169.542 Y47.120 E-0.76000
;WIPE_END
G1 E-0.04000 F2100.000
G1 Z0.600 F10800.000
G1 X185.120 Y45.979
G1 Z0.200
G1 E0.80000 F2100.000
G1 F1200.000
G1 X189.539 Y45.979 E0.13857
G1 X189.539 Y46.388 E0.01283
G1 X185.328 Y46.388 E0.13205
G1 X185.147 Y46.033 E0.01251
G1 X185.096 Y46.765 F10800.000
G1 F1200.000
G1 X184.759 Y46.102 E0.02332
G1 X184.404 Y45.602 E0.01923
G1 X189.916 Y45.602 E0.17282
G1 X189.916 Y46.765 E0.03648
G1 X185.156 Y46.765 E0.14924
G1 X184.864 Y47.143 F10800.000
G1 F1200.000
G1 X184.436 Y46.298 E0.02970
G1 X183.890 Y45.529 E0.02957
G1 X183.613 Y45.225 E0.01289
G1 X190.293 Y45.225 E0.20946
G1 X190.293 Y47.143 E0.06012
M73 Q2 S17
G1 X184.924 Y47.143 E0.16834
G1 X184.600 Y47.520 F10800.000
G1 F1200.000
G1 X184.516 Y47.289 E0.00770
G1 X184.112 Y46.494 E0.02797
G1 X183.596 Y45.766 E0.02797
G1 X183.182 Y45.312 E0.01927
G1 X182.734 Y44.908 E0.01890
G1 X182.258 Y44.557 E0.01856
G1 X181.973 Y44.378 E0.01052
G1 X181.461 Y44.106 E0.01819
G1 X180.904 Y43.876 E0.01889
G1 X180.338 Y43.705 E0.01856
G1 X180.010 Y43.632 E0.01052
G1 X179.436 Y43.548 E0.01819
G1 X178.835 Y43.518 E0.01889
G1 X178.232 Y43.548 E0.01890
G1 X177.624 Y43.638 E0.01927
G1 X176.764 Y43.875 E0.02797
G1 X175.948 Y44.235 E0.02797
G1 X175.420 Y44.550 E0.01927
G1 X174.935 Y44.908 E0.01890
G1 X174.496 Y45.304 E0.01856
G1 X174.264 Y45.547 E0.01052
G1 X173.895 Y45.994 E0.01819
G1 X173.552 Y46.504 E0.01926
G1 X173.153 Y47.289 E0.02760
G1 X173.069 Y47.520 E0.00770
G1 X166.999 Y47.520 E0.19033
G1 X166.999 Y44.848 E0.08377
G1 X173.961 Y44.848 E0.21831
G1 X174.710 Y44.234 E0.03037
G1 X175.365 Y43.796 E0.02471
G1 X176.065 Y43.435 E0.02469
G1 X176.532 Y43.248 E0.01577
G1 X177.297 Y43.024 E0.02497
G1 X177.800 Y42.927 E0.01608
G1 X178.308 Y42.869 E0.01602
G1 X179.102 Y42.854 E0.02490
G1 X179.611 Y42.893 E0.01602
G1 X180.118 Y42.971 E0.01608
G1 X180.890 Y43.165 E0.02496
G1 X181.363 Y43.334 E0.01573
G1 X182.086 Y43.672 E0.02503
G1 X182.526 Y43.931 E0.01602
G1 X182.952 Y44.228 E0.01627
G1 X183.708 Y44.848 E0.03066
G1 X190.670 Y44.848 E0.21831
G1 X190.670 Y47.520 E0.08377
G1 X184.660 Y47.520 E0.18845
G1 X184.336 Y47.897 F10800.000
G1 F1200.000
G1 X184.170 Y47.439 E0.01526
G1 X183.788 Y46.689 E0.02638
G1 X183.302 Y46.003 E0.02638
G1 X182.915 Y45.579 E0.01797
G1 X182.495 Y45.201 E0.01774
G1 X182.045 Y44.868 E0.01754
G1 X181.785 Y44.705 E0.00965
G1 X181.301 Y44.448 E0.01718
G1 X180.778 Y44.232 E0.01774
G1 X180.242 Y44.070 E0.01754
G1 X179.942 Y44.003 E0.00965
G1 X179.400 Y43.924 E0.01718
G1 X178.835 Y43.896 E0.01774
G1 X178.269 Y43.924 E0.01774
G1 X177.702 Y44.007 E0.01797
G1 X176.891 Y44.231 E0.02638
G1 X176.121 Y44.571 E0.02638
G1 X175.629 Y44.864 E0.01797
G1 X175.174 Y45.201 E0.01774
G1 X174.759 Y45.575 E0.01754
G1 X174.546 Y45.798 E0.00965
G1 X174.197 Y46.220 E0.01718
G1 X173.877 Y46.696 E0.01797
G1 X173.499 Y47.439 E0.02615
G1 X173.333 Y47.897 E0.01526
G1 X166.622 Y47.897 E0.21044
G1 X166.622 Y44.471 E0.10741
G1 X173.826 Y44.471 E0.22590
G1 X174.485 Y43.931 E0.02672
G1 X175.173 Y43.470 E0.02596
G1 X175.909 Y43.092 E0.02593
G1 X176.409 Y42.892 E0.01690
G1 X177.208 Y42.657 E0.02609
G1 X177.743 Y42.554 E0.01709
G1 X178.283 Y42.493 E0.01703
G1 X179.112 Y42.477 E0.02602
G1 X179.654 Y42.518 E0.01703
G1 X180.193 Y42.601 E0.01709
G1 X181.000 Y42.804 E0.02609
M73 Q3 S17
G1 X181.506 Y42.985 E0.01686
G1 X182.262 Y43.338 E0.02615
G1 X182.730 Y43.614 E0.01703
G1 X183.179 Y43.927 E0.01719
M73 P3 R17
G1 X183.843 Y44.471 E0.02689
G1 X191.047 Y44.471 E0.22590
G1 X191.047 Y47.897 E0.10741
G1 X184.396 Y47.897 E0.20856
G1 X184.054 Y48.274 F10800.000
;TYPE:External perimeter
G1 F1200.000
G1 X183.823 Y47.589 E0.02264
G1 X183.465 Y46.885 E0.02479
G1 X183.007 Y46.240 E0.02479
G1 X182.649 Y45.847 E0.01667
G1 X182.256 Y45.493 E0.01659
G1 X181.833 Y45.180 E0.01651
G1 X181.596 Y45.031 E0.00878
G1 X181.140 Y44.789 E0.01618
G1 X180.651 Y44.587 E0.01659
G1 X180.147 Y44.435 E0.01651
G1 X179.873 Y44.375 E0.00878
G1 X179.363 Y44.299 E0.01618
G1 X178.835 Y44.273 E0.01659
G1 X178.306 Y44.299 E0.01659
G1 X177.780 Y44.377 E0.01667
G1 X177.018 Y44.587 E0.02479
G1 X176.295 Y44.906 E0.02479
G1 X175.838 Y45.179 E0.01667
G1 X175.413 Y45.493 E0.01659
G1 X175.022 Y45.846 E0.01651
G1 X174.828 Y46.048 E0.00878
G1 X174.500 Y46.446 E0.01618
G1 X174.203 Y46.887 E0.01667
G1 X173.846 Y47.589 E0.02471
G1 X173.615 Y48.274 E0.02264
G1 X166.245 Y48.274 E0.23110
G1 X166.245 Y44.094 E0.13106
G1 X173.692 Y44.094 E0.23350
G1 X174.260 Y43.627 E0.02306
G1 X174.982 Y43.145 E0.02721
G1 X175.752 Y42.748 E0.02717
G1 X176.286 Y42.535 E0.01803
G1 X177.119 Y42.291 E0.02722
G1 X177.686 Y42.181 E0.01810
G1 X178.258 Y42.116 E0.01804
G1 X179.123 Y42.100 E0.02714
G1 X179.697 Y42.143 E0.01804
G1 X180.268 Y42.231 E0.01811
G1 X181.109 Y42.443 E0.02721
G1 X181.650 Y42.635 E0.01798
G1 X182.438 Y43.004 E0.02728
G1 X182.934 Y43.296 E0.01804
G1 X183.407 Y43.626 E0.01810
G1 X183.977 Y44.094 E0.02313
G1 X191.425 Y44.094 E0.23350
G1 X191.425 Y48.274 E0.13106
G1 X184.114 Y48.274 E0.22922
G1 X184.108 Y47.877 F10800.000
;WIPE_START
G1 F8640.000
G1 X183.823 Y47.589 E-0.17167
G1 X183.465 Y46.885 E-0.18255
G1 X183.007 Y46.240 E-0.18255
G1 X182.649 Y45.847 E-0.12274
G1 X182.326 Y45.556 E-0.10049
;WIPE_END
G1 E-0.04000 F2100.000
G1 Z0.600 F10800.000
G1 X183.393 Y45.036
G1 Z0.200
G1 E0.80000 F2100.000
;TYPE:Gap fill
;WIDTH:0.346359
G1 F1200.000
G1 X182.949 Y44.655 E0.01475
;WIDTH:0.329937
G1 X182.441 Y44.278 E0.01511
G1 X181.928 Y43.971 E0.01426
G1 X181.234 Y43.647 E0.01828
G1 X180.792 Y43.489 E0.01121
G1 X180.066 Y43.302 E0.01789
G1 X179.573 Y43.228 E0.01189
G1 X179.092 Y43.193 E0.01151
G1 X178.330 Y43.206 E0.01819
G1 X177.851 Y43.262 E0.01151
G1 X177.376 Y43.354 E0.01154
G1 X176.642 Y43.564 E0.01823
G1 X176.207 Y43.747 E0.01125
G1 X175.790 Y43.947 E0.01106
G1 X175.232 Y44.280 E0.01549
G1 X174.731 Y44.646 E0.01483
G1 X174.276 Y45.036 E0.01429
; stop printing object 10mm_hose_clamp.stl id:0 copy 0
M106 S84.15
;LAYER_CHANGE
;Z:0.5
;HEIGHT:0.3
;BEFORE_LAYER_CHANGE
G92 E0.0
;0.5


;WIPE_START
G1 F8640.000
G1 X174.731 Y44.646 E-0.13822
G1 X175.232 Y44.280 E-0.14346
G1 X175.790 Y43.947 E-0.14989
G1 X176.207 Y43.747 E-0.10700
G1 X176.642 Y43.564 E-0.10889
G1 X177.111 Y43.430 E-0.11255
;WIPE_END
G1 E-0.04000 F2100.000
G1 Z0.600 F10800.000
;AFTER_LAYER_CHANGE
;0.5
M104 S200 ; set temperature
M140 S64 ; set bed temperature
; printing object 10mm_hose_clamp.stl id:0 copy 0
G1 X172.922 Y45.776
G1 Z0.500
G1 E0.80000 F2100.000
M204 S800
;TYPE:Perimeter
;WIDTH:0.5
G1 F1800.000
G1 X172.763 Y46.013 E0.01553
G1 X172.451 Y46.591 E0.03568
G1 X167.927 Y46.591 E0.24579
G1 X167.927 Y45.776 E0.04428
G1 X172.862 Y45.776 E0.26815
M204 S1000
;WIPE_START
G1 F8640.000
G1 X172.763 Y46.013 E-0.05940
G1 X172.451 Y46.591 E-0.15163
G1 X170.073 Y46.591 E-0.54898
;WIPE_END
G1 E-0.04000 F2100.000
G1 Z0.900 F10800.000
G1 X173.796 Y45.341
G1 Z0.500
G1 E0.80000 F2100.000
M204 S800
G1 F1800.000
G1 X173.500 Y45.699 E0.02525
G1 X173.136 Y46.239 E0.03538
G1 X172.827 Y46.812 E0.03538
G1 X172.737 Y47.027 E0.01266
G1 X167.491 Y47.027 E0.28499
G1 X167.491 Y45.341 E0.09162
G1 X173.736 Y45.341 E0.33927
M204 S1000
;WIPE_START
G1 F8640.000
