; generated by PrusaSlicer 2.3.1+win64 on 2022-07-03 at 17:53:42 UTC

; 

; external perimeters extrusion width = 0.45mm
; perimeters extrusion width = 0.45mm
; infill extrusion width = 0.45mm
; solid infill extrusion width = 0.45mm
; top infill extrusion width = 0.40mm
; first layer extrusion width = 0.42mm

M73 P0 R62
M73 Q0 S63
M201 X1000 Y1000 Z200 E5000 ; sets maximum accelerations, mm/sec^2
M203 X200 Y200 Z12 E120 ; sets maximum feedrates, mm/sec
M204 P1250 R1250 T1250 ; sets acceleration (P, T) and retract acceleration (R), mm/sec^2
M205 X8.00 Y8.00 Z0.40 E4.50 ; sets the jerk limits, mm/sec
M205 S0 T0 ; sets the minimum extruding and travel feed rate, mm/sec
M107
;TYPE:Custom
M862.3 P "MK3S" ; printer model check
M862.1 P0.4 ; nozzle diameter check
M115 U3.9.3 ; tell printer latest fw version
G90 ; use absolute coordinates
M83 ; extruder relative mode
M104 S215 ; set extruder temp
M140 S67 ; set bed temp
M190 S67 ; wait for bed temp
M109 S215 ; wait for extruder temp
G28 W ; home all without mesh bed level
G80 ; mesh bed leveling
G1 Y-3.0 F1000.0 ; go outside print area
G92 E0.0
G1 X60.0 E9.0 F1000.0 ; intro line
G1 X100.0 E12.5 F1000.0 ; intro line
G92 E0.0
M221 S95

; Don't change E values below. Excessive value can damage the printer.

M907 E538 ; set extruder motor current
G21 ; set units to millimeters
G90 ; use absolute coordinates
M83 ; use relative distances for extrusion
M900 K0.05 ; Filament gcode LA 1.5
M900 K30 ; Filament gcode LA 1.0
;LAYER_CHANGE
;Z:0.2
;HEIGHT:0.2
;BEFORE_LAYER_CHANGE
G92 E0.0
;0.2


G1 E-0.80000 F2100.000
G1 Z0.400 F10800.000
;AFTER_LAYER_CHANGE
;0.2
; printing object four_three_top.stl id:1 copy 0
G1 X147.764 Y90.255
G1 Z0.200
G1 E0.80000 F2100.000
M204 S1000
;TYPE:External perimeter
;WIDTH:0.42
G1 F1200.000
G1 X149.079 Y90.174 E0.04133
G1 X150.080 Y90.170 E0.03137
G1 X163.003 Y90.170 E0.40519
G1 X164.875 Y90.197 E0.05870
G1 X164.901 Y91.578 E0.04333
G1 X164.902 Y95.990 E0.13834
M73 Q0 S62
G1 X147.682 Y95.990 E0.53993
G1 X147.685 Y92.076 E0.12274
G1 X147.761 Y90.315 E0.05524
G1 X147.749 Y89.856 F10800.000
G1 X147.346 Y90.071
G1 F1200.000
G1 X147.378 Y90.316 E0.00775
G1 X147.374 Y90.743 E0.01339
G1 X147.333 Y91.076 E0.01051
G1 X147.256 Y91.313 E0.00780
G1 X147.074 Y91.620 E0.01121
G1 X146.823 Y91.880 E0.01134
G1 X146.517 Y92.074 E0.01134
G1 X146.179 Y92.196 E0.01128
G1 X145.822 Y92.241 E0.01127
G1 X145.464 Y92.209 E0.01127
G1 X145.126 Y92.102 E0.01114
G1 X144.907 Y91.986 E0.00775
G1 X144.628 Y91.766 E0.01114
G1 X144.402 Y91.490 E0.01116
G1 X144.278 Y91.262 E0.00814
G1 X144.170 Y90.937 E0.01074
G1 X144.131 Y90.580 E0.01125
G1 X144.169 Y90.226 E0.01116
G1 X144.245 Y89.978 E0.00814
G1 X144.401 Y89.673 E0.01074
G1 X144.626 Y89.398 E0.01113
G1 X144.814 Y89.238 E0.00775
G1 X145.122 Y89.060 E0.01114
G1 X145.461 Y88.953 E0.01116
G1 X145.719 Y88.921 E0.00814
G1 X146.057 Y88.941 E0.01063
G1 X146.298 Y88.998 E0.00775
G1 X146.620 Y89.141 E0.01104
G1 X146.824 Y89.281 E0.00778
G1 X147.075 Y89.532 E0.01113
G1 X147.210 Y89.742 E0.00783
G1 X147.323 Y90.016 E0.00927
G1 X147.583 Y90.140 F10800.000
;WIPE_START
G1 F8640.000
G1 X147.378 Y90.316 E-0.07058
G1 X147.374 Y90.743 E-0.09859
G1 X147.333 Y91.076 E-0.07742
G1 X147.256 Y91.313 E-0.05745
G1 X147.074 Y91.620 E-0.08256
G1 X146.823 Y91.880 E-0.08350
G1 X146.517 Y92.074 E-0.08349
G1 X146.179 Y92.196 E-0.08310
G1 X145.822 Y92.241 E-0.08299
G1 X145.648 Y92.226 E-0.04033
;WIPE_END
G1 E-0.04000 F2100.000
G1 Z0.600 F10800.000
G1 X146.553 Y93.264
G1 Z0.200
G1 E0.80000 F2100.000
;TYPE:Perimeter
G1 F1200.000
G1 X146.550 Y97.122 E0.12096
G1 X166.034 Y97.122 E0.61090
G1 X166.033 Y93.227 E0.12211
G1 X166.340 Y93.325 E0.01010
G1 X166.943 Y93.379 E0.01898
G1 X167.543 Y93.303 E0.01898
G1 X167.752 Y93.228 E0.00695
G1 X167.751 Y98.539 E0.16652
G1 X127.633 Y98.539 E1.25786
G1 X127.633 Y93.196 E0.16754
G1 X128.040 Y93.325 E0.01337
G1 X128.643 Y93.379 E0.01899
G1 X129.244 Y93.303 E0.01901
G1 X129.353 Y93.264 E0.00361
G1 X129.350 Y97.122 E0.12096
G1 X144.833 Y97.122 E0.48547
G1 X144.833 Y93.196 E0.12309
G1 X145.240 Y93.325 E0.01337
G1 X145.843 Y93.379 E0.01899
G1 X146.496 Y93.284 E0.02070
;WIPE_START
G1 F8640.000
G1 X146.542 Y96.575 E-0.76000
;WIPE_END
G1 E-0.04000 F2100.000
G1 Z0.600 F10800.000
G1 X129.727 Y96.744
G1 Z0.200
G1 E0.80000 F2100.000
G1 F1200.000
G1 X144.456 Y96.744 E0.46182
G1 X144.456 Y92.591 E0.13024
G1 X144.833 Y92.800 E0.01350
G1 X145.315 Y92.953 E0.01586
G1 X145.836 Y93.000 E0.01641
G1 X146.356 Y92.934 E0.01643
G1 X146.851 Y92.756 E0.01651
G1 X146.930 Y92.706 E0.00293
G1 X146.927 Y96.744 E0.12663
G1 X165.657 Y96.744 E0.58724
G1 X165.655 Y92.644 E0.12856
G1 X165.916 Y92.794 E0.00943
G1 X166.415 Y92.953 E0.01641
G1 X166.936 Y93.000 E0.01641
G1 X167.455 Y92.934 E0.01641
G1 X167.948 Y92.758 E0.01642
G1 X168.129 Y92.644 E0.00670
G1 X168.128 Y98.916 E0.19665
G1 X127.256 Y98.916 E1.28151
G1 X127.256 Y92.591 E0.19833
G1 X127.633 Y92.800 E0.01350
G1 X128.115 Y92.953 E0.01586
G1 X128.636 Y93.000 E0.01641
G1 X129.156 Y92.934 E0.01643
G1 X129.651 Y92.756 E0.01651
G1 X129.730 Y92.706 E0.00293
G1 X129.727 Y96.684 E0.12475
G1 X130.105 Y96.367 F10800.000
G1 F1200.000
G1 X144.079 Y96.367 E0.43816
G1 X144.079 Y91.685 E0.14681
G1 X144.362 Y92.036 E0.01414
G1 X144.700 Y92.303 E0.01350
G1 X144.979 Y92.451 E0.00989
G1 X145.390 Y92.581 E0.01350
G1 X145.829 Y92.621 E0.01384
G1 X146.267 Y92.565 E0.01385
G1 X146.684 Y92.415 E0.01390
G1 X147.063 Y92.174 E0.01406
G1 X147.314 Y91.914 E0.01136
G1 X147.305 Y96.367 E0.13964
G1 X165.279 Y96.367 E0.56359
G1 X165.278 Y91.809 E0.14294
G1 X165.455 Y92.026 E0.00878
G1 X165.695 Y92.232 E0.00992
G1 X166.069 Y92.447 E0.01353
G1 X166.489 Y92.581 E0.01384
G1 X166.929 Y92.621 E0.01384
G1 X167.367 Y92.565 E0.01384
G1 X167.783 Y92.416 E0.01384
G1 X168.148 Y92.187 E0.01353
G1 X168.381 Y91.972 E0.00995
G1 X168.506 Y91.806 E0.00652
G1 X168.505 Y99.293 E0.23476
G1 X126.879 Y99.293 E1.30515
G1 X126.879 Y91.688 E0.23846
G1 X127.162 Y92.036 E0.01407
G1 X127.500 Y92.303 E0.01350
G1 X127.779 Y92.451 E0.00989
G1 X128.190 Y92.581 E0.01350
G1 X128.629 Y92.621 E0.01384
G1 X129.067 Y92.565 E0.01385
G1 X129.484 Y92.415 E0.01390
G1 X129.863 Y92.174 E0.01406
G1 X130.114 Y91.914 E0.01136
G1 X130.105 Y96.307 E0.13776
G1 X130.482 Y95.990 F10800.000
;TYPE:External perimeter
G1 F1200.000
G1 X130.485 Y92.076 E0.12274
G1 X130.564 Y90.255 E0.05712
G1 X131.877 Y90.174 E0.04126
G1 X143.702 Y90.170 E0.37076
G1 X143.702 Y95.990 E0.18248
G1 X130.542 Y95.990 E0.41263
G1 X130.086 Y96.045 F10800.000
;WIPE_START
G1 F8640.000
G1 X130.494 Y92.699 E-0.76000
;WIPE_END
G1 E-0.04000 F2100.000
G1 Z0.600 F10800.000
G1 X129.157 Y92.132
G1 Z0.200
G1 E0.80000 F2100.000
G1 F1200.000
G1 X128.979 Y92.196 E0.00595
G1 X128.622 Y92.241 E0.01127
G1 X128.264 Y92.209 E0.01126
G1 X127.926 Y92.102 E0.01114
G1 X127.707 Y91.986 E0.00775
G1 X127.428 Y91.766 E0.01114
G1 X127.200 Y91.488 E0.01126
G1 X127.039 Y91.170 E0.01116
G1 X126.967 Y90.921 E0.00814
G1 X126.931 Y90.580 E0.01074
G1 X126.969 Y90.227 E0.01113
G1 X127.040 Y89.990 E0.00775
G1 X127.200 Y89.673 E0.01114
G1 X127.426 Y89.398 E0.01114
G1 X127.614 Y89.238 E0.00775
G1 X127.922 Y89.060 E0.01114
G1 X128.261 Y88.953 E0.01116
G1 X128.519 Y88.921 E0.00814
G1 X128.857 Y88.941 E0.01063
G1 X129.098 Y88.998 E0.00775
G1 X129.420 Y89.141 E0.01104
G1 X129.624 Y89.281 E0.00778
G1 X129.875 Y89.532 E0.01113
G1 X130.010 Y89.742 E0.00783
G1 X130.146 Y90.071 E0.01115
G1 X130.178 Y90.316 E0.00775
G1 X130.174 Y90.743 E0.01339
G1 X130.133 Y91.076 E0.01051
G1 X130.056 Y91.313 E0.00780
G1 X129.874 Y91.620 E0.01121
G1 X129.623 Y91.880 E0.01134
G1 X129.317 Y92.074 E0.01134
G1 X129.214 Y92.112 E0.00345
G1 X129.133 Y92.320 F10800.000
;WIPE_START
G1 F8640.000
G1 X128.979 Y92.196 E-0.05767
G1 X128.622 Y92.241 E-0.08299
G1 X128.264 Y92.209 E-0.08296
G1 X127.926 Y92.102 E-0.08207
G1 X127.707 Y91.986 E-0.05710
G1 X127.428 Y91.766 E-0.08207
G1 X127.200 Y91.488 E-0.08295
G1 X127.039 Y91.170 E-0.08221
G1 X126.967 Y90.921 E-0.05996
G1 X126.931 Y90.580 E-0.07913
G1 X126.936 Y90.533 E-0.01089
;WIPE_END
G1 E-0.04000 F2100.000
G1 Z0.600 F10800.000
G1 X165.277 Y90.932
G1 Z0.200
G1 E0.80000 F2100.000
G1 F1200.000
G1 X165.257 Y90.352 E0.01821
G1 X165.307 Y90.109 E0.00778
G1 X165.439 Y89.779 E0.01114
G1 X165.646 Y89.483 E0.01130
G1 X165.911 Y89.240 E0.01127
G1 X166.222 Y89.060 E0.01127
G1 X166.561 Y88.953 E0.01116
G1 X166.819 Y88.921 E0.00814
G1 X167.161 Y88.941 E0.01074
G1 X167.507 Y89.037 E0.01126
G1 X167.821 Y89.204 E0.01115
G1 X168.015 Y89.357 E0.00776
G1 X168.250 Y89.626 E0.01119
G1 X168.417 Y89.939 E0.01113
G1 X168.494 Y90.176 E0.00781
G1 X168.529 Y90.523 E0.01092
G1 X168.515 Y90.866 E0.01078
G1 X168.459 Y91.108 E0.00776
G1 X168.314 Y91.433 E0.01118
G1 X168.101 Y91.718 E0.01117
G1 X167.918 Y91.886 E0.00777
G1 X167.617 Y92.075 E0.01115
G1 X167.279 Y92.196 E0.01127
G1 X166.922 Y92.241 E0.01126
G1 X166.564 Y92.209 E0.01126
G1 X166.222 Y92.100 E0.01127
G1 X165.914 Y91.922 E0.01115
G1 X165.726 Y91.762 E0.00776
G1 X165.503 Y91.487 E0.01107
G1 X165.388 Y91.269 E0.00775
G1 X165.296 Y90.989 E0.00923
G1 X164.905 Y90.787 F10800.000
;WIPE_START
G1 F8640.000
G1 X165.257 Y90.352 E-0.14744
G1 X165.307 Y90.109 E-0.05730
G1 X165.439 Y89.779 E-0.08205
G1 X165.646 Y89.483 E-0.08324
G1 X165.911 Y89.240 E-0.08301
G1 X166.222 Y89.060 E-0.08302
G1 X166.561 Y88.953 E-0.08222
G1 X166.819 Y88.921 E-0.05996
G1 X167.161 Y88.941 E-0.07913
G1 X167.172 Y88.944 E-0.00263
;WIPE_END
G1 E-0.04000 F2100.000
G1 Z0.600 F10800.000
G1 X164.561 Y89.061
G1 Z0.200
G1 E0.80000 F2100.000
;TYPE:Perimeter
G1 F1200.000
G1 X163.011 Y89.039 E0.04860
G1 X150.077 Y89.039 E0.40551
G1 X149.042 Y89.043 E0.03246
G1 X148.141 Y89.099 E0.02830
G1 X147.962 Y88.819 E0.01042
G1 X147.551 Y88.407 E0.01824
G1 X147.173 Y88.148 E0.01435
G1 X146.661 Y87.922 E0.01757
G1 X146.223 Y87.817 E0.01413
G1 X145.683 Y87.786 E0.01695
G1 X145.220 Y87.842 E0.01462
G1 X144.663 Y88.019 E0.01834
G1 X144.160 Y88.309 E0.01821
G1 X143.815 Y88.602 E0.01418
G1 X143.457 Y89.039 E0.01771
G1 X131.840 Y89.043 E0.36425
G1 X130.941 Y89.099 E0.02824
G1 X130.762 Y88.819 E0.01042
G1 X130.351 Y88.407 E0.01824
G1 X129.973 Y88.148 E0.01435
G1 X129.461 Y87.922 E0.01757
G1 X129.023 Y87.817 E0.01413
G1 X128.483 Y87.786 E0.01695
G1 X128.020 Y87.842 E0.01462
G1 X127.633 Y87.965 E0.01273
G1 X127.633 Y82.622 E0.16754
G1 X167.751 Y82.622 E1.25786
G1 X167.751 Y87.931 E0.16646
G1 X167.347 Y87.818 E0.01314
G1 X166.783 Y87.786 E0.01771
G1 X166.320 Y87.842 E0.01462
G1 X165.763 Y88.019 E0.01834
M73 Q1 S62
G1 X165.237 Y88.323 E0.01904
G1 X164.790 Y88.734 E0.01905
G1 X164.595 Y89.012 E0.01064
G1 X164.771 Y89.418 F10800.000
G1 F1200.000
G1 X164.762 Y89.441 E0.00077
G1 X163.008 Y89.416 E0.05500
M73 P1 R62
G1 X149.054 Y89.420 E0.43750
G1 X147.922 Y89.490 E0.03558
G1 X147.881 Y89.392 E0.00331
G1 X147.666 Y89.057 E0.01250
G1 X147.309 Y88.699 E0.01587
G1 X146.989 Y88.479 E0.01216
G1 X146.540 Y88.281 E0.01539
G1 X146.168 Y88.192 E0.01200
G1 X145.695 Y88.165 E0.01484
G1 X145.301 Y88.212 E0.01246
G1 X144.816 Y88.366 E0.01595
G1 X144.378 Y88.619 E0.01586
G1 X144.085 Y88.867 E0.01203
G1 X143.766 Y89.258 E0.01581
G1 X143.685 Y89.416 E0.00558
G1 X131.852 Y89.420 E0.37100
G1 X130.722 Y89.490 E0.03552
G1 X130.681 Y89.392 E0.00331
G1 X130.466 Y89.057 E0.01250
G1 X130.109 Y88.699 E0.01587
G1 X129.789 Y88.479 E0.01216
G1 X129.340 Y88.281 E0.01539
G1 X128.968 Y88.192 E0.01200
G1 X128.495 Y88.165 E0.01484
G1 X128.101 Y88.212 E0.01246
G1 X127.616 Y88.366 E0.01595
G1 X127.256 Y88.574 E0.01302
G1 X127.256 Y82.244 E0.19845
G1 X168.128 Y82.244 E1.28150
G1 X168.128 Y88.513 E0.19653
G1 X167.788 Y88.332 E0.01207
G1 X167.285 Y88.193 E0.01637
G1 X166.795 Y88.165 E0.01539
G1 X166.401 Y88.212 E0.01246
G1 X165.916 Y88.366 E0.01595
G1 X165.461 Y88.628 E0.01645
G1 X165.075 Y88.983 E0.01646
G1 X164.806 Y89.369 E0.01474
G1 X165.016 Y89.822 F10800.000
G1 F1200.000
G1 X163.005 Y89.793 E0.06305
G1 X150.079 Y89.793 E0.40530
G1 X149.067 Y89.797 E0.03173
G1 X147.676 Y89.883 E0.04370
G1 X147.546 Y89.567 E0.01071
G1 X147.371 Y89.294 E0.01017
G1 X147.066 Y88.990 E0.01350
G1 X146.804 Y88.810 E0.00997
G1 X146.419 Y88.639 E0.01322
G1 X146.113 Y88.566 E0.00987
G1 X145.707 Y88.543 E0.01273
G1 X145.381 Y88.582 E0.01030
G1 X144.969 Y88.713 E0.01356
G1 X144.596 Y88.928 E0.01350
G1 X144.355 Y89.133 E0.00989
G1 X144.083 Y89.465 E0.01347
G1 X143.916 Y89.793 E0.01155
G1 X131.865 Y89.797 E0.37784
G1 X130.476 Y89.883 E0.04363
G1 X130.346 Y89.567 E0.01071
G1 X130.171 Y89.294 E0.01017
G1 X129.866 Y88.990 E0.01350
G1 X129.604 Y88.810 E0.00997
G1 X129.219 Y88.639 E0.01322
G1 X128.913 Y88.566 E0.00987
G1 X128.507 Y88.543 E0.01273
G1 X128.181 Y88.582 E0.01030
G1 X127.769 Y88.713 E0.01356
G1 X127.396 Y88.928 E0.01350
G1 X127.155 Y89.133 E0.00989
G1 X126.879 Y89.473 E0.01374
G1 X126.879 Y81.867 E0.23846
M73 P1 R61
G1 X168.505 Y81.867 E1.30515
G1 X168.514 Y89.355 E0.23476
G1 X168.276 Y89.083 E0.01131
G1 X168.029 Y88.887 E0.00992
G1 X167.648 Y88.685 E0.01352
G1 X167.223 Y88.567 E0.01381
G1 X166.807 Y88.543 E0.01307
G1 X166.481 Y88.582 E0.01030
G1 X166.069 Y88.713 E0.01356
G1 X165.686 Y88.934 E0.01386
G1 X165.360 Y89.233 E0.01386
G1 X165.105 Y89.598 E0.01396
G1 X165.038 Y89.766 E0.00566
;WIPE_START
G1 F8640.000
G1 X163.005 Y89.793 E-0.46945
G1 X161.747 Y89.793 E-0.29055
;WIPE_END
G1 E-0.04000 F2100.000
G1 Z0.600 F10800.000
G1 X168.882 Y81.490
G1 Z0.200
G1 E0.80000 F2100.000
;TYPE:External perimeter
G1 F1200.000
G1 X168.882 Y88.582 E0.22234
G1 X168.905 Y90.579 E0.06264
G1 X168.883 Y91.578 E0.03132
G1 X168.882 Y99.670 E0.25373
G1 X126.502 Y99.670 E1.32880
G1 X126.502 Y81.490 E0.57002
G1 X168.822 Y81.490 E1.32691
G1 X168.731 Y81.860 F10800.000
;WIPE_START
G1 F8640.000
G1 X168.850 Y84.782 E-0.76000
;WIPE_END
G1 E-0.04000 F2100.000
G1 Z0.600 F10800.000
G1 X167.638 Y83.501
G1 Z0.200
G1 E0.80000 F2100.000
;TYPE:Solid infill
;WIDTH:0.422142
G1 F1200.000
G1 X167.041 Y82.904 E0.02663
G1 X166.504 Y82.904 E0.01691
G1 X167.468 Y83.868 E0.04298
G1 X167.468 Y84.404 E0.01691
G1 X165.968 Y82.904 E0.06689
G1 X165.432 Y82.904 E0.01691
G1 X167.468 Y84.941 E0.09081
G1 X167.468 Y85.477 E0.01691
G1 X164.895 Y82.904 E0.11472
G1 X164.359 Y82.904 E0.01691
G1 X167.468 Y86.013 E0.13864
G1 X167.468 Y86.550 E0.01691
G1 X163.823 Y82.904 E0.16255
G1 X163.287 Y82.904 E0.01691
G1 X167.468 Y87.086 E0.18647
G1 X167.468 Y87.559 E0.01491
G1 X167.383 Y87.537 E0.00276
G1 X162.750 Y82.904 E0.20660
G1 X162.214 Y82.904 E0.01691
G1 X166.814 Y87.505 E0.20515
G1 X166.330 Y87.556 E0.01537
G1 X161.678 Y82.904 E0.20745
G1 X161.141 Y82.904 E0.01691
G1 X165.912 Y87.675 E0.21274
G1 X165.648 Y87.759 E0.00874
G1 X165.528 Y87.828 E0.00435
G1 X160.605 Y82.904 E0.21955
G1 X160.069 Y82.904 E0.01691
G1 X165.189 Y88.024 E0.22831
G1 X165.069 Y88.093 E0.00437
G1 X164.888 Y88.260 E0.00774
G1 X159.532 Y82.904 E0.23881
G1 X158.996 Y82.904 E0.01691
G1 X164.608 Y88.516 E0.25026
G1 X164.415 Y88.776 E0.01021
G1 X164.330 Y88.775 E0.00266
G1 X158.460 Y82.904 E0.26179
G1 X157.924 Y82.904 E0.01691
G1 X163.786 Y88.767 E0.26145
G1 X163.243 Y88.760 E0.01715
G1 X157.387 Y82.904 E0.26111
G1 X156.851 Y82.904 E0.01691
G1 X162.703 Y88.756 E0.26096
G1 X162.167 Y88.756 E0.01691
G1 X156.315 Y82.904 E0.26096
G1 X155.778 Y82.904 E0.01691
G1 X161.630 Y88.756 E0.26096
G1 X161.094 Y88.756 E0.01691
G1 X155.242 Y82.904 E0.26096
G1 X154.706 Y82.904 E0.01691
G1 X160.558 Y88.756 E0.26096
G1 X160.021 Y88.756 E0.01691
G1 X154.169 Y82.904 E0.26096
G1 X153.633 Y82.904 E0.01691
G1 X159.485 Y88.756 E0.26096
G1 X158.949 Y88.756 E0.01691
G1 X153.097 Y82.904 E0.26096
G1 X152.561 Y82.904 E0.01691
G1 X158.413 Y88.756 E0.26096
G1 X157.876 Y88.756 E0.01691
G1 X152.024 Y82.904 E0.26096
G1 X151.488 Y82.904 E0.01691
G1 X157.340 Y88.756 E0.26096
G1 X156.804 Y88.756 E0.01691
G1 X150.952 Y82.904 E0.26096
G1 X150.415 Y82.904 E0.01691
G1 X156.267 Y88.756 E0.26096
G1 X155.731 Y88.756 E0.01691
G1 X149.879 Y82.904 E0.26096
G1 X149.343 Y82.904 E0.01691
G1 X155.195 Y88.756 E0.26096
G1 X154.658 Y88.756 E0.01691
G1 X148.806 Y82.904 E0.26096
G1 X148.270 Y82.904 E0.01691
G1 X154.122 Y88.756 E0.26096
G1 X153.586 Y88.756 E0.01691
M73 Q1 S61
