; generated by PrusaSlicer 2.3.1+win64 on 2023-07-25 at 15:49:04 UTC

; 

; external perimeters extrusion width = 0.60mm
; perimeters extrusion width = 0.50mm
; infill extrusion width = 0.50mm
; solid infill extrusion width = 0.50mm
; top infill extrusion width = 0.45mm
; support material extrusion width = 0.38mm
; first layer extrusion width = 0.42mm

M73 P0 R198
M73 Q0 S200
M201 X1000 Y1000 Z200 E5000 ; sets maximum accelerations, mm/sec^2
M203 X200 Y200 Z12 E120 ; sets maximum feedrates, mm/sec
M204 P1250 R1250 T1250 ; sets acceleration (P, T) and retract acceleration (R), mm/sec^2
M205 X8.00 Y8.00 Z0.40 E4.50 ; sets the jerk limits, mm/sec
M205 S0 T0 ; sets the minimum extruding and travel feed rate, mm/sec
M107
;TYPE:Custom
M862.3 P "MK3S" ; printer model check
M862.1 P0.4 ; nozzle diameter check
M115 U3.9.3 ; tell printer latest fw version
G90 ; use absolute coordinates
M83 ; extruder relative mode
M104 S215 ; set extruder temp
M140 S67 ; set bed temp
M190 S67 ; wait for bed temp
M109 S215 ; wait for extruder temp
G28 W ; home all without mesh bed level
G80 ; mesh bed leveling
G1 Y-3.0 F1000.0 ; go outside print area
G92 E0.0
G1 X60.0 E9.0 F1000.0 ; intro line
G1 X100.0 E12.5 F1000.0 ; intro line
G92 E0.0
M221 S95

; Don't change E values below. Excessive value can damage the printer.

M907 E538 ; set extruder motor current
G21 ; set units to millimeters
G90 ; use absolute coordinates
M83 ; use relative distances for extrusion
M900 K0.05 ; Filament gcode LA 1.5
M900 K30 ; Filament gcode LA 1.0
;LAYER_CHANGE
;Z:0.2
;HEIGHT:0.2
;BEFORE_LAYER_CHANGE
G92 E0.0
;0.2


G1 E-0.80000 F2100.000
G1 Z0.400 F10800.000
;AFTER_LAYER_CHANGE
;0.2
G1 X169.417 Y68.900
G1 Z0.200
G1 E0.80000 F2100.000
M204 S1000
;TYPE:Skirt
;WIDTH:0.42
G1 F1200.000
G1 X206.185 Y68.900 E1.15284
G1 X207.581 Y69.369 E0.04619
G1 X208.034 Y69.719 E0.01793
G1 X208.766 Y70.519 E0.03399
G1 X209.065 Y71.093 E0.02030
G1 X209.312 Y72.044 E0.03082
G1 X209.312 Y92.858 E0.65260
G1 X208.845 Y94.251 E0.04607
G1 X208.517 Y94.682 E0.01695
G1 X207.987 Y95.212 E0.02350
G1 X207.140 Y95.732 E0.03119
G1 X206.168 Y95.985 E0.03149
G1 X105.275 Y95.985 E3.16343
G1 X103.882 Y95.518 E0.04607
G1 X103.451 Y95.191 E0.01695
G1 X102.921 Y94.661 E0.02350
G1 X102.400 Y93.813 E0.03119
G1 X102.148 Y92.841 E0.03149
G1 X102.148 Y72.027 E0.65260
G1 X102.615 Y70.634 E0.04607
G1 X102.942 Y70.204 E0.01695
G1 X103.472 Y69.674 E0.02350
G1 X104.320 Y69.153 E0.03119
G1 X105.292 Y68.900 E0.03149
G1 X142.043 Y68.900 E1.15230
G1 X142.043 Y40.114 E0.90255
G1 X142.504 Y38.649 E0.04816
G1 X142.832 Y38.187 E0.01777
G1 X143.488 Y37.522 E0.02930
G1 X144.546 Y36.935 E0.03793
G1 X144.965 Y36.111 E0.02900
G1 X145.733 Y35.269 E0.03572
G1 X146.346 Y34.850 E0.02328
G1 X147.330 Y34.492 E0.03282
G1 X163.945 Y34.458 E0.52098
G1 X164.738 Y34.678 E0.02578
G1 X165.559 Y35.134 E0.02946
G1 X166.413 Y35.995 E0.03803
G1 X166.909 Y36.930 E0.03317
G1 X167.670 Y37.306 E0.02663
G1 X168.468 Y37.997 E0.03308
G1 X169.074 Y38.899 E0.03406
G1 X169.401 Y40.006 E0.03621
G1 X169.417 Y51.388 E0.35687
G1 X169.391 Y51.586 E0.00625
G1 X169.417 Y51.783 E0.00625
G1 X169.417 Y68.840 E0.53480
;WIPE_START
G1 F8640.000
G1 X172.708 Y68.845 E-0.76000
;WIPE_END
G1 E-0.04000 F2100.000
G1 Z0.600 F10800.000
G1 X166.602 Y37.243
G1 Z0.200
G1 E0.80000 F2100.000
G1 F1200.000
G1 X166.822 Y37.307 E0.00719
G1 X167.443 Y37.608 E0.02162
G1 X168.203 Y38.266 E0.03151
G1 X168.721 Y39.033 E0.02903
G1 X169.032 Y40.087 E0.03444
G1 X169.040 Y51.374 E0.35390
G1 X169.011 Y51.586 E0.00669
G1 X169.040 Y51.797 E0.00669
G1 X169.040 Y69.277 E0.54807
G1 X206.154 Y69.277 E1.16370
G1 X207.377 Y69.688 E0.04045
G1 X207.769 Y69.987 E0.01546
G1 X208.445 Y70.718 E0.03121
G1 X208.707 Y71.212 E0.01752
G1 X208.935 Y72.069 E0.02783
G1 X208.935 Y92.827 E0.65085
M73 Q0 S199
G1 X208.525 Y94.049 E0.04038
G1 X208.241 Y94.424 E0.01477
G1 X207.736 Y94.930 E0.02241
G1 X207.015 Y95.376 E0.02658
G1 X206.143 Y95.608 E0.02831
G1 X105.305 Y95.608 E3.16168
G1 X104.084 Y95.199 E0.04038
G1 X103.709 Y94.915 E0.01477
G1 X103.203 Y94.409 E0.02241
G1 X102.757 Y93.688 E0.02658
G1 X102.525 Y92.816 E0.02831
G1 X102.525 Y72.058 E0.65085
G1 X102.934 Y70.837 E0.04038
G1 X103.218 Y70.461 E0.01477
G1 X103.724 Y69.956 E0.02241
G1 X104.445 Y69.510 E0.02658
G1 X105.317 Y69.277 E0.02831
G1 X142.420 Y69.277 E1.16333
G1 X142.420 Y40.143 E0.91347
G1 X142.829 Y38.842 E0.04276
G1 X143.112 Y38.441 E0.01540
G1 X143.737 Y37.807 E0.02792
G1 X144.672 Y37.296 E0.03340
G1 X144.862 Y37.239 E0.00622
G1 X144.931 Y37.005 E0.00766
G1 X145.263 Y36.344 E0.02318
G1 X145.967 Y35.565 E0.03291
G1 X146.498 Y35.195 E0.02030
G1 X147.428 Y34.858 E0.03100
G1 X163.872 Y34.829 E0.51559
G1 X164.578 Y35.020 E0.02294
G1 X165.311 Y35.420 E0.02619
G1 X166.125 Y36.240 E0.03623
G1 X166.543 Y37.044 E0.02841
G1 X166.585 Y37.185 E0.00461
G1 X166.288 Y37.551 F10800.000
G1 F1200.000
G1 X166.676 Y37.655 E0.01259
G1 X167.255 Y37.936 E0.02019
G1 X167.936 Y38.533 E0.02839
G1 X168.367 Y39.169 E0.02408
G1 X168.663 Y40.168 E0.03266
G1 X168.663 Y51.359 E0.35090
G1 X168.629 Y51.586 E0.00717
G1 X168.663 Y51.812 E0.00717
G1 X168.663 Y69.654 E0.55943
G1 X206.124 Y69.654 E1.17456
M73 P0 R197
G1 X207.174 Y70.007 E0.03476
G1 X207.505 Y70.258 E0.01301
G1 X208.126 Y70.920 E0.02845
G1 X208.349 Y71.333 E0.01474
G1 X208.558 Y72.095 E0.02477
G1 X208.558 Y92.797 E0.64908
G1 X208.206 Y93.847 E0.03472
G1 X207.965 Y94.167 E0.01257
G1 X207.484 Y94.648 E0.02132
G1 X206.888 Y95.020 E0.02203
G1 X206.117 Y95.231 E0.02508
G1 X105.336 Y95.231 E3.15990
G1 X104.286 Y94.879 E0.03472
G1 X103.966 Y94.638 E0.01257
G1 X103.485 Y94.158 E0.02132
G1 X103.113 Y93.561 E0.02203
G1 X102.902 Y92.790 E0.02508
G1 X102.902 Y72.088 E0.64908
G1 X103.254 Y71.039 E0.03472
G1 X103.495 Y70.718 E0.01257
G1 X103.975 Y70.237 E0.02132
G1 X104.571 Y69.866 E0.02203
G1 X105.343 Y69.654 E0.02508
G1 X142.797 Y69.654 E1.17434
G1 X142.797 Y40.172 E0.92439
G1 X143.155 Y39.034 E0.03740
G1 X143.392 Y38.694 E0.01300
G1 X143.985 Y38.092 E0.02649
G1 X144.824 Y37.642 E0.02986
G1 X145.169 Y37.557 E0.01112
G1 X145.278 Y37.155 E0.01306
G1 X145.588 Y36.536 E0.02171
G1 X146.202 Y35.860 E0.02864
G1 X146.652 Y35.541 E0.01729
G1 X147.526 Y35.223 E0.02915
G1 X163.800 Y35.200 E0.51027
G1 X164.421 Y35.363 E0.02014
G1 X165.066 Y35.708 E0.02293
G1 X165.804 Y36.441 E0.03261
G1 X166.197 Y37.196 E0.02668
G1 X166.273 Y37.493 E0.00962
G1 X165.971 Y37.860 F10800.000
G1 F1200.000
G1 X166.529 Y38.003 E0.01807
G1 X167.066 Y38.264 E0.01872
G1 X167.668 Y38.799 E0.02525
G1 X168.016 Y39.307 E0.01929
G1 X168.286 Y40.196 E0.02915
G1 X168.286 Y51.343 E0.34951
G1 X168.247 Y51.586 E0.00769
G1 X168.286 Y51.828 E0.00769
G1 X168.286 Y70.031 E0.57075
G1 X206.093 Y70.031 E1.18542
G1 X206.973 Y70.327 E0.02912
G1 X207.244 Y70.529 E0.01059
G1 X207.808 Y71.125 E0.02573
G1 X207.993 Y71.459 E0.01196
G1 X208.181 Y72.122 E0.02162
G1 X208.181 Y92.766 E0.64728
G1 X207.885 Y93.646 E0.02911
G1 X207.688 Y93.911 E0.01034
G1 X207.232 Y94.367 E0.02022
G1 X206.758 Y94.665 E0.01755
G1 X206.090 Y94.854 E0.02179
G1 X105.367 Y94.854 E3.15810
G1 X104.487 Y94.558 E0.02911
G1 X104.222 Y94.362 E0.01034
G1 X103.766 Y93.906 E0.02022
G1 X103.468 Y93.432 E0.01755
G1 X103.279 Y92.763 E0.02179
G1 X103.279 Y72.119 E0.64728
G1 X103.575 Y71.239 E0.02911
G1 X103.771 Y70.974 E0.01034
G1 X104.227 Y70.518 E0.02022
G1 X104.701 Y70.221 E0.01755
G1 X105.370 Y70.031 E0.02179
G1 X143.174 Y70.031 E1.18533
G1 X143.174 Y40.201 E0.93531
G1 X143.481 Y39.224 E0.03211
G1 X143.672 Y38.946 E0.01056
G1 X144.232 Y38.378 E0.02501
G1 X144.974 Y37.989 E0.02627
G1 X145.477 Y37.878 E0.01614
G1 X145.624 Y37.305 E0.01854
G1 X145.913 Y36.729 E0.02021
G1 X146.441 Y36.153 E0.02448
G1 X146.807 Y35.886 E0.01423
G1 X147.624 Y35.589 E0.02724
G1 X163.730 Y35.571 E0.50501
G1 X164.268 Y35.708 E0.01740
G1 X164.824 Y35.998 E0.01967
G1 X165.484 Y36.642 E0.02890
G1 X165.850 Y37.347 E0.02491
G1 X165.957 Y37.802 E0.01464
G1 X165.594 Y38.251 F10800.000
G1 F1200.000
G1 X166.026 Y38.263 E0.01357
G1 X166.383 Y38.352 E0.01152
G1 X166.877 Y38.591 E0.01721
G1 X167.398 Y39.064 E0.02208
G1 X167.665 Y39.448 E0.01466
G1 X167.908 Y40.226 E0.02555
G1 X167.908 Y51.326 E0.34804
G1 X167.864 Y51.586 E0.00825
G1 X167.908 Y51.845 E0.00825
G1 X167.908 Y69.894 E0.56592
G1 X167.758 Y70.408 E0.01679
G1 X206.062 Y70.408 E1.20099
G1 X206.774 Y70.648 E0.02355
G1 X206.984 Y70.803 E0.00819
G1 X207.493 Y71.333 E0.02305
G1 X207.638 Y71.588 E0.00919
G1 X207.804 Y72.150 E0.01838
G1 X207.804 Y92.735 E0.64543
G1 X207.564 Y93.447 E0.02354
G1 X207.411 Y93.655 E0.00808
G1 X206.980 Y94.086 E0.01911
G1 X206.625 Y94.311 E0.01318
G1 X206.062 Y94.477 E0.01842
G1 X105.398 Y94.477 E3.15625
G1 X104.686 Y94.237 E0.02354
G1 X104.478 Y94.084 E0.00808
G1 X104.047 Y93.653 E0.01911
G1 X103.822 Y93.299 E0.01318
G1 X103.656 Y92.735 E0.01842
G1 X103.656 Y72.150 E0.64543
G1 X103.896 Y71.438 E0.02354
G1 X104.048 Y71.231 E0.00808
G1 X104.480 Y70.799 E0.01911
G1 X104.834 Y70.574 E0.01318
G1 X105.398 Y70.408 E0.01842
G1 X143.657 Y70.408 E1.19959
G1 X143.551 Y69.855 E0.01765
G1 X143.551 Y40.230 E0.92890
G1 X143.809 Y39.412 E0.02688
G1 X143.956 Y39.195 E0.00822
G1 X144.435 Y38.698 E0.02165
G1 X145.124 Y38.336 E0.02440
G1 X145.535 Y38.253 E0.01314
G1 X145.871 Y38.245 E0.01053
G1 X145.887 Y37.767 E0.01499
G1 X145.970 Y37.457 E0.01006
G1 X146.238 Y36.922 E0.01877
G1 X146.682 Y36.443 E0.02048
G1 X146.964 Y36.230 E0.01108
G1 X147.721 Y35.954 E0.02527
G1 X163.662 Y35.942 E0.49982
M73 Q0 S198
G1 X164.118 Y36.055 E0.01473
G1 X164.586 Y36.291 E0.01642
G1 X165.164 Y36.844 E0.02509
G1 X165.503 Y37.497 E0.02308
G1 X165.585 Y37.868 E0.01188
G1 X165.592 Y38.192 E0.01016
G1 X165.215 Y38.629 F10800.000
G1 F1200.000
G1 X165.959 Y38.635 E0.02333
G1 X166.272 Y38.713 E0.01011
G1 X166.684 Y38.916 E0.01442
G1 X167.128 Y39.327 E0.01896
G1 X167.316 Y39.593 E0.01022
G1 X167.531 Y40.257 E0.02187
G1 X167.531 Y51.308 E0.34650
G1 X167.480 Y51.586 E0.00886
G1 X167.531 Y51.864 E0.00886
G1 X167.531 Y69.862 E0.56432
G1 X167.232 Y70.785 E0.03045
G1 X206.031 Y70.785 E1.21653
G1 X206.576 Y70.971 E0.01806
G1 X206.726 Y71.079 E0.00580
G1 X207.181 Y71.546 E0.02044
G1 X207.286 Y71.723 E0.00643
G1 X207.427 Y72.180 E0.01500
G1 X207.427 Y92.704 E0.64353
G1 X207.241 Y93.250 E0.01806
G1 X207.133 Y93.399 E0.00579
G1 X206.727 Y93.805 E0.01800
G1 X206.488 Y93.959 E0.00892
G1 X206.032 Y94.100 E0.01496
G1 X105.429 Y94.100 E3.15435
G1 X104.883 Y93.915 E0.01806
G1 X104.734 Y93.807 E0.00579
G1 X104.328 Y93.401 E0.01800
G1 X104.174 Y93.161 E0.00892
G1 X104.033 Y92.705 E0.01496
G1 X104.033 Y72.181 E0.64353
G1 X104.218 Y71.636 E0.01806
G1 X104.326 Y71.486 E0.00579
G1 X104.732 Y71.080 E0.01800
G1 X104.972 Y70.926 E0.00892
G1 X105.427 Y70.785 E0.01496
G1 X144.271 Y70.785 E1.21792
G1 X144.001 Y70.192 E0.02044
G1 X143.928 Y69.836 E0.01141
G1 X143.928 Y40.259 E0.92736
G1 X144.138 Y39.598 E0.02173
G1 X144.243 Y39.440 E0.00597
G1 X144.643 Y39.014 E0.01830
G1 X145.227 Y38.700 E0.02082
G1 X145.590 Y38.626 E0.01159
G1 X146.245 Y38.626 E0.02054
G1 X146.258 Y37.840 E0.02464
G1 X146.330 Y37.572 E0.00872
G1 X146.534 Y37.158 E0.01446
G1 X146.946 Y36.712 E0.01904
G1 X147.165 Y36.550 E0.00853
G1 X147.816 Y36.321 E0.02164
G1 X163.598 Y36.314 E0.49484
M73 P0 R196
G1 X163.969 Y36.402 E0.01196
G1 X164.389 Y36.615 E0.01476
G1 X164.878 Y37.092 E0.02143
G1 X165.140 Y37.602 E0.01798
G1 X165.212 Y37.927 E0.01045
G1 X165.215 Y38.569 E0.02012
G1 X164.840 Y39.003 F10800.000
G1 F1200.000
G1 X165.933 Y39.012 E0.03428
G1 X166.128 Y39.062 E0.00633
G1 X166.450 Y39.214 E0.01116
G1 X166.859 Y39.592 E0.01747
G1 X166.969 Y39.744 E0.00587
G1 X167.154 Y40.289 E0.01805
G1 X167.154 Y51.288 E0.34487
G1 X167.095 Y51.586 E0.00952
G1 X167.154 Y51.883 E0.00952
G1 X167.154 Y69.829 E0.56268
G1 X166.969 Y70.374 E0.01805
G1 X166.858 Y70.527 E0.00592
G1 X166.194 Y71.162 E0.02881
G1 X205.999 Y71.162 E1.24806
G1 X206.382 Y71.294 E0.01270
G1 X206.471 Y71.357 E0.00343
G1 X206.874 Y71.764 E0.01795
G1 X206.936 Y71.865 E0.00371
G1 X207.050 Y72.211 E0.01144
G1 X207.050 Y92.672 E0.64154
G1 X206.918 Y93.055 E0.01270
G1 X206.854 Y93.145 E0.00345
G1 X206.474 Y93.525 E0.01686
G1 X206.345 Y93.610 E0.00484
G1 X206.001 Y93.723 E0.01136
G1 X105.461 Y93.723 E3.15236
G1 X105.078 Y93.591 E0.01270
G1 X104.988 Y93.528 E0.00345
G1 X104.608 Y93.147 E0.01686
G1 X104.523 Y93.018 E0.00484
G1 X104.410 Y92.674 E0.01136
G1 X104.410 Y72.213 E0.64154
G1 X104.542 Y71.830 E0.01270
G1 X104.605 Y71.740 E0.00345
G1 X104.986 Y71.360 E0.01686
G1 X105.115 Y71.275 E0.00484
G1 X105.459 Y71.162 E0.01136
G1 X145.241 Y71.162 E1.24734
G1 X144.516 Y70.411 E0.03275
G1 X144.364 Y70.090 E0.01113
G1 X144.305 Y69.815 E0.00882
G1 X144.305 Y40.288 E0.92578
M73 P1 R196
G1 X144.468 Y39.781 E0.01671
G1 X144.531 Y39.684 E0.00361
G1 X144.895 Y39.296 E0.01668
G1 X145.374 Y39.048 E0.01694
G1 X145.607 Y39.003 E0.00742
G1 X146.621 Y39.003 E0.03179
G1 X146.630 Y37.909 E0.03430
G1 X146.679 Y37.714 E0.00633
G1 X146.831 Y37.392 E0.01116
G1 X147.210 Y36.983 E0.01747
G1 X147.361 Y36.873 E0.00587
G1 X147.906 Y36.688 E0.01805
G1 X163.576 Y36.691 E0.49130
M73 Q1 S198
G1 X163.819 Y36.749 E0.00782
G1 X164.191 Y36.937 E0.01308
G1 X164.589 Y37.335 E0.01767
G1 X164.779 Y37.710 E0.01314
G1 X164.835 Y37.951 E0.00778
G1 X164.839 Y38.943 E0.03110
G1 X164.462 Y39.380 F10800.000
G1 F1200.000
G1 X165.869 Y39.384 E0.04414
G1 X165.987 Y39.412 E0.00378
G1 X166.260 Y39.541 E0.00949
G1 X166.583 Y39.850 E0.01401
G1 X166.645 Y39.938 E0.00338
G1 X166.777 Y40.321 E0.01270
G1 X166.777 Y51.274 E0.34343
G1 X166.758 Y51.386 E0.00357
G1 X166.675 Y51.586 E0.00677
G1 X166.758 Y51.785 E0.00677
G1 X166.777 Y51.897 E0.00357
G1 X166.777 Y69.798 E0.56125
G1 X166.645 Y70.180 E0.01270
G1 X166.583 Y70.268 E0.00338
G1 X166.260 Y70.577 E0.01401
G1 X165.987 Y70.707 E0.00949
G1 X165.869 Y70.734 E0.00378
G1 X164.458 Y70.738 E0.04425
G1 X164.453 Y71.539 E0.02512
G1 X205.965 Y71.539 E1.30160
G1 X206.193 Y71.621 E0.00757
G1 X206.573 Y71.992 E0.01666
G1 X206.673 Y72.247 E0.00856
G1 X206.673 Y92.639 E0.63938
G1 X206.573 Y92.893 E0.00856
G1 X206.220 Y93.246 E0.01566
G1 X205.965 Y93.346 E0.00856
G1 X105.494 Y93.346 E3.15020
G1 X105.240 Y93.246 E0.00856
G1 X104.887 Y92.893 E0.01566
G1 X104.787 Y92.639 E0.00856
G1 X104.787 Y72.247 E0.63938
G1 X104.887 Y71.992 E0.00856
G1 X105.240 Y71.639 E0.01566
G1 X105.494 Y71.539 E0.00856
G1 X147.007 Y71.539 E1.30160
G1 X147.002 Y70.738 E0.02512
G1 X145.590 Y70.734 E0.04425
G1 X145.473 Y70.707 E0.00378
G1 X145.201 Y70.578 E0.00942
G1 X144.842 Y70.219 E0.01593
G1 X144.715 Y69.949 E0.00935
G1 X144.682 Y69.796 E0.00492
G1 X144.682 Y40.319 E0.92421
G1 X144.802 Y39.958 E0.01194
G1 X145.145 Y39.581 E0.01599
G1 X145.513 Y39.399 E0.01288
G1 X145.621 Y39.380 E0.00343
G1 X146.998 Y39.380 E0.04315
G1 X147.002 Y37.973 E0.04414
G1 X147.029 Y37.855 E0.00378
G1 X147.159 Y37.582 E0.00949
G1 X147.467 Y37.259 E0.01401
G1 X147.555 Y37.197 E0.00338
G1 X147.938 Y37.065 E0.01269
G1 X163.554 Y37.068 E0.48962
G1 X163.669 Y37.095 E0.00369
G1 X163.994 Y37.260 E0.01144
G1 X164.266 Y37.532 E0.01208
G1 X164.430 Y37.856 E0.01136
G1 X164.462 Y38.007 E0.00484
G1 X164.462 Y39.320 E0.04117
G1 X164.085 Y39.758 F10800.000
G1 F1200.000
G1 X165.849 Y39.764 E0.05534
G1 X166.068 Y39.867 E0.00757
G1 X166.301 Y40.100 E0.01032
G1 X166.400 Y40.354 E0.00856
G1 X166.400 Y51.253 E0.34173
G1 X166.259 Y51.586 E0.01133
G1 X166.400 Y51.918 E0.01133
G1 X166.400 Y69.764 E0.55954
G1 X166.301 Y70.018 E0.00856
G1 X166.068 Y70.251 E0.01032
G1 X165.849 Y70.354 E0.00757
G1 X164.083 Y70.361 E0.05538
G1 X164.073 Y71.917 E0.04879
G1 X205.924 Y71.917 E1.31218
G1 X205.993 Y71.945 E0.00235
G1 X206.267 Y72.219 E0.01215
G1 X206.295 Y72.288 E0.00235
G1 X206.295 Y92.597 E0.63675
G1 X206.267 Y92.666 E0.00235
G1 X205.993 Y92.940 E0.01215
G1 X205.924 Y92.969 E0.00235
G1 X105.536 Y92.969 E3.14758
G1 X105.467 Y92.940 E0.00235
G1 X105.193 Y92.666 E0.01215
G1 X105.164 Y92.597 E0.00235
G1 X105.164 Y72.288 E0.63675
G1 X105.193 Y72.219 E0.00235
G1 X105.467 Y71.945 E0.01215
G1 X105.536 Y71.917 E0.00235
G1 X147.386 Y71.917 E1.31218
M73 Q1 S197
G1 X147.376 Y70.361 E0.04879
G1 X145.610 Y70.354 E0.05538
G1 X145.392 Y70.251 E0.00757
