; generated by PrusaSlicer 2.3.1+win64 on 2022-06-19 at 13:05:17 UTC

; 

; external perimeters extrusion width = 0.60mm
; perimeters extrusion width = 0.50mm
; infill extrusion width = 0.50mm
; solid infill extrusion width = 0.50mm
; top infill extrusion width = 0.45mm
; first layer extrusion width = 0.42mm

M73 P0 R11
M73 Q0 S11
M201 X1000 Y1000 Z200 E5000 ; sets maximum accelerations, mm/sec^2
M203 X200 Y200 Z12 E120 ; sets maximum feedrates, mm/sec
M204 P1250 R1250 T1250 ; sets acceleration (P, T) and retract acceleration (R), mm/sec^2
M205 X8.00 Y8.00 Z0.40 E4.50 ; sets the jerk limits, mm/sec
M205 S0 T0 ; sets the minimum extruding and travel feed rate, mm/sec
M107
;TYPE:Custom
M862.3 P "MK3S" ; printer model check
M862.1 P0.4 ; nozzle diameter check
M115 U3.9.3 ; tell printer latest fw version
G90 ; use absolute coordinates
M83 ; extruder relative mode
M104 S215 ; set extruder temp
M140 S67 ; set bed temp
M190 S67 ; wait for bed temp
M109 S215 ; wait for extruder temp
G28 W ; home all without mesh bed level
G80 ; mesh bed leveling
G1 Y-3.0 F1000.0 ; go outside print area
G92 E0.0
G1 X60.0 E9.0 F1000.0 ; intro line
G1 X100.0 E12.5 F1000.0 ; intro line
G92 E0.0
M221 S95

; Don't change E values below. Excessive value can damage the printer.

M907 E538 ; set extruder motor current
G21 ; set units to millimeters
G90 ; use absolute coordinates
M83 ; use relative distances for extrusion
M900 K0.05 ; Filament gcode LA 1.5
M900 K30 ; Filament gcode LA 1.0
;LAYER_CHANGE
;Z:0.2
;HEIGHT:0.2
;BEFORE_LAYER_CHANGE
G92 E0.0
;0.2


G1 E-0.80000 F2100.000
G1 Z0.400 F10800.000
;AFTER_LAYER_CHANGE
;0.2
; printing object washers.stl id:1 copy 0
G1 X181.776 Y59.873
M73 P1 R11
M73 Q1 S11
G1 Z0.200
G1 E0.80000 F2100.000
M204 S1000
;TYPE:Perimeter
;WIDTH:0.42
G1 F1200.000
G1 X181.896 Y59.522 E0.01164
G1 X182.183 Y58.908 E0.02125
G1 X182.377 Y58.592 E0.01164
G1 X182.791 Y58.055 E0.02125
G1 X183.048 Y57.788 E0.01164
G1 X183.569 Y57.355 E0.02125
G1 X183.879 Y57.150 E0.01164
G1 X184.481 Y56.840 E0.02125
G1 X184.828 Y56.707 E0.01164
G1 X185.494 Y56.533 E0.02158
G1 X186.189 Y56.457 E0.02192
G1 X186.877 Y56.482 E0.02158
G1 X187.244 Y56.536 E0.01164
G1 X187.900 Y56.707 E0.02125
G1 X188.236 Y56.836 E0.01130
G1 X188.563 Y56.989 E0.01130
G1 X189.150 Y57.348 E0.02158
G1 X189.679 Y57.788 E0.02158
G1 X189.937 Y58.055 E0.01164
G1 X190.358 Y58.600 E0.02158
G1 X190.700 Y59.210 E0.02192
G1 X190.946 Y59.853 E0.02158
G1 X191.037 Y60.201 E0.01130
G1 X191.102 Y60.556 E0.01129
G1 X191.152 Y61.224 E0.02102
G1 X191.102 Y61.939 E0.02246
G1 X190.952 Y62.612 E0.02161
G1 X190.832 Y62.963 E0.01164
G1 X190.540 Y63.586 E0.02158
G1 X190.160 Y64.160 E0.02158
G1 X189.923 Y64.446 E0.01164
G1 X189.435 Y64.916 E0.02125
G1 X189.141 Y65.143 E0.01164
G1 X188.563 Y65.496 E0.02125
G1 X188.236 Y65.649 E0.01130
G1 X187.900 Y65.777 E0.01130
G1 X187.234 Y65.952 E0.02158
G1 X186.549 Y66.027 E0.02158
G1 X186.178 Y66.027 E0.01164
G1 X185.494 Y65.952 E0.02158
G1 X184.828 Y65.777 E0.02158
G1 X184.482 Y65.645 E0.01163
G1 X183.885 Y65.339 E0.02102
G1 X183.310 Y64.930 E0.02212
G1 X183.033 Y64.682 E0.01167
G1 X182.574 Y64.169 E0.02158
G1 X182.188 Y63.586 E0.02191
G1 X181.903 Y62.980 E0.02101
G1 X181.776 Y62.613 E0.01218
G1 X181.628 Y61.950 E0.02128
G1 X181.588 Y61.582 E0.01163
G1 X181.587 Y60.922 E0.02068
G1 X181.628 Y60.536 E0.01218
G1 X181.763 Y59.932 E0.01940
G1 X182.131 Y60.014 F10800.000
;TYPE:External perimeter
G1 F1200.000
G1 X182.246 Y59.663 E0.01157
G1 X182.516 Y59.087 E0.01995
G1 X182.688 Y58.806 E0.01034
G1 X183.076 Y58.302 E0.01995
G1 X183.305 Y58.065 E0.01034
G1 X183.794 Y57.658 E0.01995
G1 X184.070 Y57.476 E0.01034
G1 X184.635 Y57.185 E0.01995
G1 X184.943 Y57.067 E0.01034
G1 X185.563 Y56.905 E0.02007
G1 X186.203 Y56.835 E0.02019
G1 X186.842 Y56.858 E0.02007
G1 X187.169 Y56.906 E0.01034
G1 X187.784 Y57.067 E0.01995
G1 X188.384 Y57.322 E0.02043
G1 X188.930 Y57.655 E0.02007
G1 X189.422 Y58.065 E0.02007
G1 X189.651 Y58.302 E0.01034
G1 X190.042 Y58.809 E0.02007
G1 X190.357 Y59.370 E0.02019
G1 X190.586 Y59.968 E0.02007
G1 X190.669 Y60.284 E0.01022
G1 X190.728 Y60.604 E0.01022
G1 X190.774 Y61.225 E0.01953
G1 X190.728 Y61.884 E0.02072
G1 X190.588 Y62.509 E0.02008
G1 X190.482 Y62.822 E0.01034
G1 X190.210 Y63.401 E0.02007
G1 X189.857 Y63.935 E0.02007
G1 X189.646 Y64.188 E0.01034
G1 X189.188 Y64.630 E0.01995
G1 X188.927 Y64.832 E0.01034
G1 X188.384 Y65.163 E0.01995
G1 X187.784 Y65.418 E0.02043
G1 X187.165 Y65.580 E0.02007
G1 X186.529 Y65.650 E0.02007
G1 X186.199 Y65.650 E0.01034
G1 X185.563 Y65.580 E0.02007
G1 X184.943 Y65.418 E0.02007
G1 X184.635 Y65.300 E0.01034
G1 X184.081 Y65.016 E0.01953
G1 X183.546 Y64.635 E0.02060
G1 X183.300 Y64.415 E0.01035
G1 X182.873 Y63.938 E0.02007
G1 X182.518 Y63.401 E0.02019
G1 X182.253 Y62.838 E0.01952
G1 X182.139 Y62.510 E0.01088
G1 X182.001 Y61.888 E0.01996
G1 X181.965 Y61.561 E0.01034
G1 X181.964 Y60.942 E0.01940
G1 X182.001 Y60.597 E0.01088
G1 X182.118 Y60.072 E0.01685
G1 X181.872 Y59.751 F10800.000
;WIPE_START
G1 F8640.000
G1 X182.246 Y59.663 E-0.09899
G1 X182.516 Y59.087 E-0.14690
G1 X182.688 Y58.806 E-0.07616
G1 X183.076 Y58.302 E-0.14690
G1 X183.305 Y58.065 E-0.07616
G1 X183.794 Y57.658 E-0.14690
G1 X184.040 Y57.495 E-0.06798
;WIPE_END
G1 E-0.04000 F2100.000
G1 Z0.600 F10800.000
G1 X181.660 Y64.072
G1 Z0.200
G1 E0.80000 F2100.000
;TYPE:Perimeter
G1 F1200.000
G1 X181.491 Y63.207 E0.02763
G1 X181.245 Y62.226 E0.03172
G1 X181.197 Y61.933 E0.00932
G1 X181.152 Y61.309 E0.01960
G1 X181.156 Y61.020 E0.00908
G1 X181.220 Y60.401 E0.01950
G1 X181.355 Y59.802 E0.01926
G1 X181.810 Y58.502 E0.04317
G1 X181.873 Y58.224 E0.00895
G1 X182.102 Y57.892 E0.01265
G1 X182.365 Y57.598 E0.01237
G1 X182.612 Y57.472 E0.00869
G1 X183.464 Y56.909 E0.03204
G1 X183.997 Y56.599 E0.01931
G1 X184.544 Y56.358 E0.01874
G1 X185.475 Y56.064 E0.03062
G1 X186.286 Y55.750 E0.02729
G1 X187.134 Y56.048 E0.02817
G1 X188.109 Y56.331 E0.03183
G1 X188.694 Y56.580 E0.01993
G1 X188.952 Y56.718 E0.00919
G1 X189.474 Y57.060 E0.01955
G1 X190.255 Y57.719 E0.03206
G1 X190.985 Y58.264 E0.02855
G1 X191.082 Y58.780 E0.01646
G1 X191.360 Y59.749 E0.03161
G1 X191.499 Y60.351 E0.01938
G1 X191.567 Y60.944 E0.01873
G1 X191.567 Y61.549 E0.01897
G1 X191.543 Y61.829 E0.00882
G1 X191.440 Y62.427 E0.01902
G1 X191.168 Y63.367 E0.03068
G1 X190.978 Y64.232 E0.02777
G1 X190.553 Y64.530 E0.01626
G1 X189.504 Y65.403 E0.04279
G1 X188.994 Y65.743 E0.01921
G1 X188.743 Y65.880 E0.00899
G1 X188.176 Y66.129 E0.01939
G1 X187.222 Y66.432 E0.03138
G1 X186.424 Y66.724 E0.02667
G1 X185.621 Y66.450 E0.02658
G1 X184.661 Y66.169 E0.03137
G1 X184.098 Y65.936 E0.01910
G1 X183.566 Y65.640 E0.01909
G1 X183.317 Y65.472 E0.00943
G1 X183.081 Y65.291 E0.00931
G1 X182.338 Y64.620 E0.03139
G1 X181.707 Y64.110 E0.02545
;WIPE_START
G1 F8640.000
G1 X181.491 Y63.207 E-0.21425
G1 X181.245 Y62.226 E-0.23356
G1 X181.197 Y61.933 E-0.06864
G1 X181.152 Y61.309 E-0.14431
G1 X181.156 Y61.020 E-0.06688
G1 X181.171 Y60.880 E-0.03236
;WIPE_END
G1 E-0.04000 F2100.000
G1 Z0.600 F10800.000
G1 X191.351 Y64.291
G1 Z0.200
G1 E0.80000 F2100.000
;TYPE:External perimeter
G1 F1200.000
G1 X191.534 Y63.460 E0.02666
G1 X191.808 Y62.512 E0.03094
G1 X191.917 Y61.878 E0.02018
G1 X191.944 Y61.565 E0.00983
G1 X191.944 Y60.923 E0.02015
G1 X191.871 Y60.287 E0.02007
G1 X191.725 Y59.654 E0.02035
G1 X191.449 Y58.693 E0.03137
G1 X191.357 Y58.203 E0.01561
G1 X191.995 Y57.701 E0.02545
G1 X192.394 Y57.914 E0.01417
G1 X193.387 Y58.523 E0.03652
G1 X193.631 Y58.647 E0.00858
G1 X193.882 Y58.755 E0.00856
G1 X194.703 Y59.028 E0.02715
G1 X195.175 Y59.217 E0.01594
G1 X195.175 Y63.168 E0.12390
G1 X194.700 Y63.357 E0.01605
M73 Q2 S11
G1 X193.869 Y63.635 E0.02745
G1 X193.619 Y63.743 E0.00854
G1 X193.119 Y64.019 E0.01792
G1 X192.373 Y64.495 E0.02774
G1 X191.980 Y64.709 E0.01403
G1 X191.401 Y64.324 E0.02179
M73 P2 R11
G1 X190.960 Y64.207 F10800.000
;WIPE_START
G1 F8640.000
G1 X191.534 Y63.460 E-0.20178
G1 X191.808 Y62.512 E-0.22789
G1 X191.917 Y61.878 E-0.14858
G1 X191.944 Y61.565 E-0.07242
G1 X191.944 Y61.092 E-0.10933
;WIPE_END
G1 E-0.04000 F2100.000
G1 Z0.600 F10800.000
G1 X191.204 Y57.957
G1 Z0.200
G1 E0.80000 F2100.000
G1 F1200.000
G1 X190.490 Y57.423 E0.02795
G1 X189.699 Y56.757 E0.03242
G1 X189.145 Y56.394 E0.02078
G1 X188.857 Y56.240 E0.01024
G1 X188.236 Y55.976 E0.02117
G1 X187.249 Y55.689 E0.03220
G1 X186.419 Y55.397 E0.02759
G1 X186.419 Y54.588 E0.02536
G1 X187.240 Y54.298 E0.02730
G1 X188.214 Y54.017 E0.03177
G1 X188.828 Y53.760 E0.02089
G1 X189.113 Y53.609 E0.01010
G1 X189.665 Y53.254 E0.02057
G1 X190.475 Y52.611 E0.03243
G1 X190.771 Y52.419 E0.01108
G1 X191.139 Y52.085 E0.01557
G1 X191.781 Y52.531 E0.02452
G1 X191.606 Y52.927 E0.01358
G1 X191.572 Y53.221 E0.00929
G1 X191.369 Y54.056 E0.02695
G1 X191.289 Y54.595 E0.01709
G1 X191.279 Y55.138 E0.01702
G1 X191.300 Y55.400 E0.00823
G1 X191.396 Y55.938 E0.01714
G1 X191.642 Y56.754 E0.02673
G1 X191.824 Y57.470 E0.02315
G1 X191.251 Y57.920 E0.02284
G1 X190.997 Y58.299 F10800.000
;WIPE_START
G1 F8640.000
G1 X190.490 Y57.423 E-0.20988
G1 X189.699 Y56.757 E-0.23876
G1 X189.145 Y56.394 E-0.15304
G1 X188.857 Y56.240 E-0.07543
G1 X188.527 Y56.099 E-0.08288
;WIPE_END
G1 E-0.04000 F2100.000
G1 Z0.600 F10800.000
G1 X192.738 Y56.925
G1 Z0.200
G1 E0.80000 F2100.000
;TYPE:Perimeter
G1 F1200.000
G1 X192.426 Y56.420 E0.01861
G1 X192.293 Y56.118 E0.01036
G1 X192.138 Y55.579 E0.01759
G1 X192.090 Y55.248 E0.01049
G1 X192.075 Y54.929 E0.01000
G1 X192.130 Y54.338 E0.01861
G1 X192.296 Y53.754 E0.01904
G1 X192.567 Y53.211 E0.01903
G1 X192.933 Y52.726 E0.01903
G1 X193.381 Y52.317 E0.01903
G1 X193.897 Y51.998 E0.01904
G1 X194.451 Y51.783 E0.01861
G1 X194.772 Y51.708 E0.01036
G1 X195.331 Y51.655 E0.01759
G1 X195.665 Y51.668 E0.01049
G1 X195.981 Y51.712 E0.01000
G1 X196.552 Y51.875 E0.01861
G1 X197.096 Y52.145 E0.01903
G1 X197.580 Y52.511 E0.01903
G1 X197.980 Y52.950 E0.01861
G1 X198.167 Y53.222 E0.01036
G1 X198.418 Y53.724 E0.01759
G1 X198.526 Y54.041 E0.01049
G1 X198.599 Y54.352 E0.01000
G1 X198.654 Y54.942 E0.01861
G1 X198.598 Y55.547 E0.01903
G1 X198.435 Y56.118 E0.01861
G1 X198.302 Y56.420 E0.01038
G1 X197.989 Y56.925 E0.01861
G1 X197.580 Y57.374 E0.01903
G1 X197.096 Y57.740 E0.01903
G1 X196.552 Y58.010 E0.01903
G1 X195.968 Y58.176 E0.01903
G1 X195.364 Y58.232 E0.01903
G1 X194.759 Y58.176 E0.01903
G1 X194.175 Y58.010 E0.01903
G1 X193.632 Y57.740 E0.01903
G1 X193.147 Y57.374 E0.01903
G1 X192.779 Y56.969 E0.01715
G1 X193.058 Y56.715 F10800.000
;TYPE:External perimeter
G1 F1200.000
G1 X192.760 Y56.244 E0.01746
G1 X192.648 Y55.990 E0.00873
G1 X192.508 Y55.499 E0.01599
G1 X192.466 Y55.212 E0.00912
G1 X192.453 Y54.938 E0.00860
G1 X192.502 Y54.408 E0.01669
G1 X192.649 Y53.891 E0.01684
G1 X192.889 Y53.410 E0.01684
G1 X193.212 Y52.981 E0.01684
G1 X193.609 Y52.619 E0.01684
G1 X194.066 Y52.337 E0.01684
G1 X194.563 Y52.144 E0.01669
G1 X194.834 Y52.081 E0.00873
G1 X195.341 Y52.033 E0.01599
G1 X195.632 Y52.044 E0.00912
G1 X195.903 Y52.082 E0.00860
G1 X196.415 Y52.228 E0.01669
G1 X196.896 Y52.467 E0.01684
G1 X197.325 Y52.791 E0.01684
G1 X197.684 Y53.185 E0.01669
G1 X197.841 Y53.414 E0.00873
G1 X198.069 Y53.870 E0.01599
G1 X198.163 Y54.145 E0.00912
G1 X198.226 Y54.412 E0.00860
G1 X198.275 Y54.942 E0.01669
G1 X198.225 Y55.477 E0.01684
G1 X198.080 Y55.989 E0.01669
G1 X197.967 Y56.244 E0.00873
G1 X197.687 Y56.697 E0.01669
G1 X197.325 Y57.094 E0.01684
G1 X196.896 Y57.418 E0.01684
G1 X196.415 Y57.657 E0.01684
G1 X195.899 Y57.804 E0.01684
G1 X195.364 Y57.854 E0.01684
G1 X194.829 Y57.804 E0.01684
G1 X194.312 Y57.657 E0.01684
G1 X193.831 Y57.418 E0.01684
G1 X193.403 Y57.094 E0.01684
G1 X193.098 Y56.760 E0.01418
G1 X192.661 Y56.767 F10800.000
;WIPE_START
G1 F8640.000
G1 X192.760 Y56.244 E-0.14227
G1 X192.648 Y55.990 E-0.06428
G1 X192.508 Y55.499 E-0.11774
G1 X192.466 Y55.212 E-0.06713
G1 X192.453 Y54.938 E-0.06334
G1 X192.502 Y54.408 E-0.12292
G1 X192.649 Y53.891 E-0.12404
G1 X192.762 Y53.665 E-0.05828
;WIPE_END
G1 E-0.04000 F2100.000
G1 Z0.600 F10800.000
G1 X192.190 Y57.378
G1 Z0.200
G1 E0.80000 F2100.000
;TYPE:Perimeter
G1 F1200.000
G1 X192.006 Y56.653 E0.02344
G1 X191.764 Y55.850 E0.02631
G1 X191.674 Y55.351 E0.01588
G1 X191.656 Y55.126 E0.00707
G1 X191.666 Y54.621 E0.01585
G1 X191.738 Y54.134 E0.01543
G1 X191.944 Y53.287 E0.02732
G1 X191.974 Y53.027 E0.00822
G1 X192.129 Y52.675 E0.01207
G1 X192.408 Y52.418 E0.01186
G1 X192.658 Y52.289 E0.00884
G1 X193.400 Y51.791 E0.02802
G1 X193.873 Y51.543 E0.01674
G1 X194.096 Y51.454 E0.00752
G1 X194.595 Y51.312 E0.01628
G1 X195.112 Y51.239 E0.01638
G1 X195.352 Y51.230 E0.00751
G1 X195.870 Y51.266 E0.01628
G1 X196.381 Y51.372 E0.01638
G1 X196.609 Y51.445 E0.00751
G1 X197.093 Y51.658 E0.01659
G1 X197.302 Y51.776 E0.00751
G1 X197.724 Y52.078 E0.01628
G1 X198.103 Y52.437 E0.01638
G1 X198.259 Y52.619 E0.00751
G1 X198.554 Y53.046 E0.01628
G1 X198.790 Y53.513 E0.01638
G1 X198.875 Y53.736 E0.00751
G1 X199.008 Y54.238 E0.01628
G1 X199.071 Y54.757 E0.01638
G1 X199.076 Y54.996 E0.00751
G1 X199.031 Y55.513 E0.01628
G1 X198.918 Y56.013 E0.01606
G1 X198.736 Y56.492 E0.01606
G1 X198.491 Y56.942 E0.01606
G1 X198.186 Y57.353 E0.01606
G1 X197.824 Y57.721 E0.01617
G1 X197.421 Y58.032 E0.01596
G1 X196.975 Y58.286 E0.01612
G1 X196.477 Y58.489 E0.01685
G1 X195.909 Y58.670 E0.01868
G1 X195.363 Y58.886 E0.01842
G1 X194.833 Y58.674 E0.01789
G1 X194.016 Y58.402 E0.02699
G1 X193.791 Y58.306 E0.00768
G1 X193.571 Y58.194 E0.00773
G1 X192.582 Y57.586 E0.03640
G1 X192.243 Y57.406 E0.01204
;WIPE_START
G1 F8640.000
G1 X192.006 Y56.653 E-0.18225
G1 X191.764 Y55.850 E-0.19376
G1 X191.674 Y55.351 E-0.11697
G1 X191.656 Y55.126 E-0.05203
G1 X191.666 Y54.621 E-0.11675
G1 X191.728 Y54.200 E-0.09824
;WIPE_END
G1 E-0.04000 F2100.000
G1 Z0.600 F10800.000
G1 X193.897 Y64.498
G1 Z0.200
G1 E0.80000 F2100.000
G1 F1200.000
G1 X194.451 Y64.283 E0.01861
G1 X194.772 Y64.208 E0.01036
G1 X195.331 Y64.155 E0.01759
G1 X195.665 Y64.168 E0.01049
G1 X195.981 Y64.212 E0.01000
G1 X196.552 Y64.375 E0.01861
G1 X197.096 Y64.645 E0.01903
G1 X197.580 Y65.011 E0.01903
G1 X197.980 Y65.450 E0.01861
G1 X198.167 Y65.723 E0.01038
G1 X198.431 Y66.254 E0.01861
G1 X198.598 Y66.838 E0.01903
G1 X198.654 Y67.442 E0.01903
G1 X198.598 Y68.047 E0.01903
G1 X198.435 Y68.618 E0.01861
G1 X198.302 Y68.920 E0.01038
G1 X197.989 Y69.425 E0.01861
G1 X197.580 Y69.874 E0.01903
G1 X197.096 Y70.240 E0.01903
G1 X196.552 Y70.510 E0.01903
G1 X195.968 Y70.676 E0.01903
G1 X195.364 Y70.732 E0.01903
G1 X194.759 Y70.676 E0.01903
G1 X194.175 Y70.510 E0.01903
M73 Q3 S11
G1 X193.644 Y70.246 E0.01861
G1 X193.372 Y70.059 E0.01036
G1 X192.956 Y69.681 E0.01759
G1 X192.741 Y69.425 E0.01049
G1 X192.561 Y69.162 E0.01000
G1 X192.296 Y68.631 E0.01861
G1 X192.130 Y68.047 E0.01903
G1 X192.074 Y67.442 E0.01903
G1 X192.130 Y66.838 E0.01903
M73 P3 R11
G1 X192.296 Y66.254 E0.01903
G1 X192.567 Y65.711 E0.01903
G1 X192.933 Y65.226 E0.01903
G1 X193.381 Y64.817 E0.01903
G1 X193.846 Y64.529 E0.01715
G1 X194.045 Y64.850 F10800.000
;TYPE:External perimeter
G1 F1200.000
G1 X194.563 Y64.644 E0.01746
G1 X194.834 Y64.581 E0.00873
G1 X195.341 Y64.533 E0.01599
G1 X195.632 Y64.544 E0.00912
G1 X195.903 Y64.582 E0.00860
G1 X196.415 Y64.728 E0.01669
G1 X196.896 Y64.967 E0.01684
G1 X197.325 Y65.291 E0.01684
G1 X197.684 Y65.685 E0.01669
G1 X197.841 Y65.914 E0.00873
G1 X198.078 Y66.391 E0.01669
G1 X198.225 Y66.908 E0.01684
G1 X198.275 Y67.442 E0.01684
G1 X198.225 Y67.977 E0.01684
G1 X198.080 Y68.489 E0.01669
G1 X197.967 Y68.744 E0.00873
G1 X197.687 Y69.197 E0.01669
G1 X197.325 Y69.594 E0.01684
G1 X196.896 Y69.918 E0.01684
G1 X196.415 Y70.157 E0.01684
G1 X195.899 Y70.304 E0.01684
G1 X195.364 Y70.354 E0.01684
G1 X194.829 Y70.304 E0.01684
G1 X194.312 Y70.157 E0.01684
G1 X193.836 Y69.920 E0.01669
G1 X193.606 Y69.762 E0.00873
G1 X193.229 Y69.419 E0.01599
G1 X193.042 Y69.197 E0.00912
G1 X192.887 Y68.971 E0.00860
G1 X192.649 Y68.494 E0.01669
G1 X192.502 Y67.977 E0.01684
G1 X192.453 Y67.442 E0.01684
G1 X192.502 Y66.908 E0.01684
G1 X192.649 Y66.391 E0.01684
G1 X192.889 Y65.910 E0.01684
G1 X193.212 Y65.481 E0.01684
G1 X193.609 Y65.119 E0.01684
