; generated by PrusaSlicer 2.3.1+win64 on 2022-06-19 at 13:28:02 UTC

; 

; external perimeters extrusion width = 0.60mm
; perimeters extrusion width = 0.50mm
; infill extrusion width = 0.50mm
; solid infill extrusion width = 0.50mm
; top infill extrusion width = 0.45mm
; first layer extrusion width = 0.42mm

M73 P0 R11
M73 Q0 S11
M201 X1000 Y1000 Z200 E5000 ; sets maximum accelerations, mm/sec^2
M203 X200 Y200 Z12 E120 ; sets maximum feedrates, mm/sec
M204 P1250 R1250 T1250 ; sets acceleration (P, T) and retract acceleration (R), mm/sec^2
M205 X8.00 Y8.00 Z0.40 E4.50 ; sets the jerk limits, mm/sec
M205 S0 T0 ; sets the minimum extruding and travel feed rate, mm/sec
M107
;TYPE:Custom
M862.3 P "MK3S" ; printer model check
M862.1 P0.4 ; nozzle diameter check
M115 U3.9.3 ; tell printer latest fw version
G90 ; use absolute coordinates
M83 ; extruder relative mode
M104 S215 ; set extruder temp
M140 S67 ; set bed temp
M190 S67 ; wait for bed temp
M109 S215 ; wait for extruder temp
G28 W ; home all without mesh bed level
G80 ; mesh bed leveling
G1 Y-3.0 F1000.0 ; go outside print area
G92 E0.0
G1 X60.0 E9.0 F1000.0 ; intro line
G1 X100.0 E12.5 F1000.0 ; intro line
G92 E0.0
M221 S95

; Don't change E values below. Excessive value can damage the printer.

M907 E538 ; set extruder motor current
G21 ; set units to millimeters
G90 ; use absolute coordinates
M83 ; use relative distances for extrusion
M900 K0.05 ; Filament gcode LA 1.5
M900 K30 ; Filament gcode LA 1.0
;LAYER_CHANGE
;Z:0.2
;HEIGHT:0.2
;BEFORE_LAYER_CHANGE
G92 E0.0
;0.2


G1 E-0.80000 F2100.000
G1 Z0.400 F10800.000
;AFTER_LAYER_CHANGE
;0.2
; printing object washers.5.stl id:1 copy 0
G1 X187.560 Y62.859
M73 P1 R11
M73 Q1 S11
G1 Z0.200
G1 E0.80000 F2100.000
M204 S1000
;TYPE:Perimeter
;WIDTH:0.42
G1 F1200.000
G1 X187.695 Y62.489 E0.01234
G1 X188.005 Y61.860 E0.02199
G1 X188.390 Y61.297 E0.02139
G1 X188.644 Y60.996 E0.01233
G1 X189.132 Y60.533 E0.02110
G1 X189.436 Y60.299 E0.01202
G1 X189.742 Y60.097 E0.01151
G1 X190.365 Y59.776 E0.02196
G1 X191.026 Y59.545 E0.02196
G1 X191.382 Y59.462 E0.01147
G1 X191.743 Y59.404 E0.01146
G1 X192.425 Y59.367 E0.02140
G1 X193.150 Y59.429 E0.02282
G1 X193.816 Y59.584 E0.02142
G1 X194.178 Y59.709 E0.01202
G1 X194.515 Y59.854 E0.01151
G1 X195.117 Y60.192 E0.02164
G1 X195.424 Y60.410 E0.01180
G1 X195.948 Y60.873 E0.02196
G1 X196.403 Y61.406 E0.02196
G1 X196.615 Y61.717 E0.01180
G1 X196.947 Y62.333 E0.02195
G1 X197.184 Y62.973 E0.02139
G1 X197.279 Y63.345 E0.01202
G1 X197.344 Y63.706 E0.01151
G1 X197.393 Y64.404 E0.02195
G1 X197.345 Y65.085 E0.02139
G1 X197.280 Y65.463 E0.01202
G1 X197.190 Y65.818 E0.01150
G1 X196.955 Y66.459 E0.02140
G1 X196.611 Y67.101 E0.02283
G1 X196.195 Y67.665 E0.02199
G1 X195.948 Y67.935 E0.01147
G1 X195.682 Y68.187 E0.01146
G1 X195.141 Y68.602 E0.02140
G1 X194.507 Y68.961 E0.02283
G1 X193.853 Y69.215 E0.02199
G1 X193.490 Y69.313 E0.01179
G1 X192.827 Y69.420 E0.02107
G1 X192.444 Y69.442 E0.01202
G1 X192.077 Y69.435 E0.01151
G1 X191.393 Y69.350 E0.02164
G1 X191.026 Y69.264 E0.01180
G1 X190.365 Y69.034 E0.02196
G1 X189.733 Y68.708 E0.02229
G1 X189.162 Y68.302 E0.02196
G1 X188.880 Y68.053 E0.01180
G1 X188.414 Y67.544 E0.02164
G1 X188.197 Y67.249 E0.01147
G1 X188.001 Y66.940 E0.01147
G1 X187.695 Y66.322 E0.02164
G1 X187.565 Y65.969 E0.01180
G1 X187.394 Y65.289 E0.02196
G1 X187.320 Y64.593 E0.02196
G1 X187.320 Y64.217 E0.01180
G1 X187.394 Y63.520 E0.02195
G1 X187.545 Y62.917 E0.01951
G1 X187.766 Y63.587 F10800.000
;TYPE:External perimeter
G1 F1200.000
G1 X187.921 Y62.969 E0.01995
G1 X188.042 Y62.637 E0.01108
G1 X188.332 Y62.051 E0.02051
G1 X188.691 Y61.525 E0.01995
G1 X188.919 Y61.256 E0.01108
G1 X189.378 Y60.819 E0.01985
G1 X189.655 Y60.606 E0.01097
G1 X189.933 Y60.423 E0.01044
G1 X190.514 Y60.123 E0.02050
G1 X191.131 Y59.908 E0.02050
G1 X191.784 Y59.779 E0.02084
G1 X192.419 Y59.745 E0.01996
G1 X193.091 Y59.803 E0.02115
G1 X193.711 Y59.947 E0.01996
G1 X194.042 Y60.061 E0.01097
G1 X194.348 Y60.192 E0.01044
G1 X194.915 Y60.511 E0.02038
G1 X195.189 Y60.705 E0.01055
G1 X195.679 Y61.138 E0.02050
G1 X196.103 Y61.636 E0.02050
G1 X196.293 Y61.913 E0.01055
G1 X196.603 Y62.489 E0.02050
G1 X196.824 Y63.086 E0.01995
G1 X196.910 Y63.425 E0.01097
G1 X196.969 Y63.753 E0.01044
G1 X197.015 Y64.405 E0.02050
G1 X196.971 Y65.039 E0.01995
G1 X196.910 Y65.384 E0.01097
G1 X196.829 Y65.707 E0.01044
G1 X196.610 Y66.304 E0.01996
G1 X196.291 Y66.899 E0.02115
G1 X195.903 Y67.425 E0.02051
G1 X195.679 Y67.671 E0.01043
G1 X195.437 Y67.900 E0.01043
G1 X194.932 Y68.287 E0.01996
G1 X194.345 Y68.619 E0.02115
G1 X193.735 Y68.856 E0.02051
G1 X193.411 Y68.944 E0.01054
G1 X192.786 Y69.044 E0.01984
G1 X192.437 Y69.064 E0.01097
G1 X192.104 Y69.058 E0.01044
G1 X191.459 Y68.978 E0.02038
G1 X191.131 Y68.902 E0.01055
G1 X190.514 Y68.687 E0.02050
G1 X189.930 Y68.385 E0.02062
G1 X189.397 Y68.006 E0.02050
G1 X189.145 Y67.784 E0.01055
G1 X188.706 Y67.304 E0.02038
G1 X188.508 Y67.036 E0.01043
G1 X188.330 Y66.755 E0.01043
G1 X188.042 Y66.173 E0.02038
G1 X187.926 Y65.857 E0.01055
G1 X187.766 Y65.223 E0.02050
G1 X187.697 Y64.573 E0.02050
G1 X187.697 Y64.237 E0.01055
G1 X187.760 Y63.646 E0.01861
G1 X187.463 Y63.325 F10800.000
;WIPE_START
G1 F8640.000
G1 X187.921 Y62.969 E-0.16067
G1 X188.042 Y62.637 E-0.08162
G1 X188.332 Y62.051 E-0.15103
G1 X188.691 Y61.525 E-0.14694
G1 X188.919 Y61.256 E-0.08160
G1 X189.353 Y60.843 E-0.13815
;WIPE_END
G1 E-0.04000 F2100.000
G1 Z0.600 F10800.000
G1 X187.651 Y67.234
G1 Z0.200
G1 E0.80000 F2100.000
;TYPE:Perimeter
G1 F1200.000
G1 X187.482 Y66.370 E0.02763
G1 X187.235 Y65.388 E0.03172
G1 X187.188 Y65.095 E0.00932
G1 X187.142 Y64.472 E0.01960
G1 X187.147 Y64.182 E0.00908
G1 X187.211 Y63.563 E0.01950
G1 X187.345 Y62.964 E0.01926
G1 X187.800 Y61.665 E0.04317
G1 X187.864 Y61.386 E0.00895
G1 X188.093 Y61.054 E0.01265
G1 X188.355 Y60.760 E0.01237
G1 X188.602 Y60.635 E0.00869
G1 X189.455 Y60.071 E0.03204
G1 X189.987 Y59.761 E0.01931
G1 X190.534 Y59.521 E0.01874
G1 X191.465 Y59.226 E0.03062
G1 X192.277 Y58.912 E0.02729
G1 X193.124 Y59.211 E0.02817
G1 X194.099 Y59.494 E0.03183
G1 X194.684 Y59.742 E0.01993
G1 X194.943 Y59.881 E0.00919
G1 X195.464 Y60.222 E0.01955
G1 X196.246 Y60.881 E0.03206
G1 X196.975 Y61.426 E0.02855
G1 X197.072 Y61.942 E0.01646
G1 X197.350 Y62.911 E0.03161
G1 X197.489 Y63.513 E0.01938
G1 X197.558 Y64.107 E0.01873
G1 X197.558 Y64.711 E0.01896
G1 X197.533 Y64.992 E0.00882
G1 X197.430 Y65.589 E0.01902
G1 X197.158 Y66.529 E0.03068
G1 X196.968 Y67.394 E0.02777
G1 X196.543 Y67.692 E0.01626
G1 X195.494 Y68.565 E0.04279
G1 X194.984 Y68.905 E0.01921
G1 X194.733 Y69.043 E0.00899
G1 X194.167 Y69.292 E0.01939
G1 X193.213 Y69.594 E0.03138
G1 X192.414 Y69.887 E0.02667
G1 X191.612 Y69.612 E0.02658
G1 X190.651 Y69.331 E0.03137
G1 X190.088 Y69.098 E0.01910
G1 X189.556 Y68.802 E0.01909
G1 X189.307 Y68.634 E0.00943
G1 X189.071 Y68.454 E0.00931
G1 X188.328 Y67.783 E0.03139
G1 X187.697 Y67.272 E0.02545
;WIPE_START
G1 F8640.000
G1 X187.482 Y66.370 E-0.21425
G1 X187.235 Y65.388 E-0.23356
G1 X187.188 Y65.095 E-0.06864
G1 X187.142 Y64.472 E-0.14431
G1 X187.147 Y64.182 E-0.06688
G1 X187.161 Y64.043 E-0.03236
;WIPE_END
G1 E-0.04000 F2100.000
G1 Z0.600 F10800.000
G1 X197.341 Y67.453
G1 Z0.200
G1 E0.80000 F2100.000
;TYPE:External perimeter
G1 F1200.000
G1 X197.524 Y66.622 E0.02666
G1 X197.798 Y65.674 E0.03094
G1 X197.908 Y65.040 E0.02018
M73 Q2 S11
G1 X197.935 Y64.728 E0.00984
G1 X197.935 Y64.085 E0.02015
G1 X197.862 Y63.449 E0.02007
G1 X197.716 Y62.816 E0.02035
G1 X197.439 Y61.855 E0.03137
G1 X197.348 Y61.365 E0.01561
G1 X197.986 Y60.864 E0.02545
M73 P2 R11
G1 X198.385 Y61.076 E0.01417
G1 X199.377 Y61.686 E0.03652
G1 X199.621 Y61.809 E0.00858
G1 X199.872 Y61.918 E0.00856
G1 X200.694 Y62.190 E0.02715
G1 X201.166 Y62.379 E0.01594
G1 X201.166 Y66.331 E0.12390
G1 X200.690 Y66.520 E0.01605
G1 X199.860 Y66.797 E0.02745
G1 X199.610 Y66.906 E0.00854
G1 X199.109 Y67.182 E0.01792
G1 X198.364 Y67.658 E0.02774
G1 X197.970 Y67.871 E0.01403
G1 X197.391 Y67.486 E0.02179
G1 X196.950 Y67.369 F10800.000
;WIPE_START
G1 F8640.000
G1 X197.524 Y66.622 E-0.20178
G1 X197.798 Y65.674 E-0.22789
G1 X197.908 Y65.040 E-0.14858
G1 X197.935 Y64.728 E-0.07245
G1 X197.935 Y64.254 E-0.10930
;WIPE_END
G1 E-0.04000 F2100.000
G1 Z0.600 F10800.000
G1 X197.195 Y61.119
G1 Z0.200
G1 E0.80000 F2100.000
G1 F1200.000
G1 X196.480 Y60.586 E0.02795
G1 X195.690 Y59.919 E0.03242
G1 X195.135 Y59.556 E0.02078
G1 X194.847 Y59.402 E0.01024
G1 X194.226 Y59.138 E0.02117
G1 X193.240 Y58.851 E0.03220
G1 X192.410 Y58.559 E0.02759
G1 X192.410 Y57.750 E0.02536
G1 X193.231 Y57.461 E0.02730
G1 X194.204 Y57.179 E0.03177
G1 X194.819 Y56.922 E0.02089
G1 X195.104 Y56.771 E0.01010
G1 X195.655 Y56.416 E0.02057
G1 X196.465 Y55.773 E0.03243
G1 X196.762 Y55.581 E0.01108
G1 X197.129 Y55.247 E0.01557
G1 X197.771 Y55.693 E0.02452
G1 X197.596 Y56.089 E0.01358
G1 X197.562 Y56.383 E0.00929
G1 X197.360 Y57.219 E0.02695
G1 X197.279 Y57.758 E0.01709
G1 X197.269 Y58.300 E0.01702
G1 X197.290 Y58.562 E0.00823
G1 X197.387 Y59.100 E0.01714
G1 X197.633 Y59.916 E0.02673
G1 X197.815 Y60.632 E0.02315
G1 X197.242 Y61.082 E0.02284
G1 X196.988 Y61.461 F10800.000
;WIPE_START
G1 F8640.000
G1 X196.480 Y60.586 E-0.20988
G1 X195.690 Y59.919 E-0.23876
G1 X195.135 Y59.556 E-0.15304
G1 X194.847 Y59.402 E-0.07543
G1 X194.517 Y59.261 E-0.08288
;WIPE_END
G1 E-0.04000 F2100.000
G1 Z0.600 F10800.000
G1 X198.538 Y60.242
G1 Z0.200
G1 E0.80000 F2100.000
;TYPE:Perimeter
G1 F1200.000
G1 X198.233 Y59.771 E0.01758
G1 X198.088 Y59.465 E0.01062
G1 X197.910 Y58.912 E0.01822
G1 X197.848 Y58.575 E0.01077
G1 X197.819 Y58.248 E0.01027
G1 X197.846 Y57.636 E0.01921
G1 X197.983 Y57.026 E0.01962
G1 X198.221 Y56.461 E0.01921
G1 X198.392 Y56.169 E0.01063
G1 X198.770 Y55.686 E0.01921
G1 X199.236 Y55.269 E0.01962
G1 X199.768 Y54.940 E0.01962
G1 X200.338 Y54.715 E0.01921
G1 X200.667 Y54.634 E0.01062
G1 X201.244 Y54.569 E0.01822
G1 X201.587 Y54.574 E0.01077
G1 X201.913 Y54.611 E0.01027
G1 X202.507 Y54.758 E0.01921
G1 X203.079 Y55.014 E0.01962
G1 X203.596 Y55.366 E0.01962
G1 X204.043 Y55.803 E0.01962
G1 X204.407 Y56.312 E0.01962
G1 X204.669 Y56.866 E0.01921
G1 X204.772 Y57.189 E0.01063
G1 X204.880 Y57.792 E0.01921
G1 X204.880 Y58.418 E0.01962
G1 X204.772 Y59.021 E0.01921
G1 X204.669 Y59.343 E0.01063
G1 X204.407 Y59.897 E0.01921
G1 X204.043 Y60.406 E0.01962
G1 X203.596 Y60.844 E0.01962
G1 X203.089 Y61.189 E0.01921
G1 X202.786 Y61.340 E0.01063
G1 X202.207 Y61.540 E0.01921
G1 X201.589 Y61.637 E0.01962
G1 X200.964 Y61.623 E0.01962
G1 X200.350 Y61.499 E0.01962
G1 X199.768 Y61.269 E0.01962
G1 X199.247 Y60.947 E0.01921
G1 X198.985 Y60.733 E0.01063
G1 X198.572 Y60.291 E0.01895
G1 X198.864 Y60.052 F10800.000
;TYPE:External perimeter
G1 F1200.000
G1 X198.563 Y59.587 E0.01737
G1 X198.439 Y59.326 E0.00905
G1 X198.276 Y58.820 E0.01668
G1 X198.222 Y58.524 E0.00945
G1 X198.197 Y58.240 E0.00893
G1 X198.221 Y57.686 E0.01737
G1 X198.344 Y57.141 E0.01752
G1 X198.559 Y56.631 E0.01737
G1 X198.705 Y56.381 E0.00906
G1 X199.046 Y55.945 E0.01737
G1 X199.462 Y55.572 E0.01752
G1 X199.938 Y55.279 E0.01752
G1 X200.453 Y55.075 E0.01737
G1 X200.734 Y55.006 E0.00905
G1 X201.262 Y54.946 E0.01668
G1 X201.563 Y54.951 E0.00945
G1 X201.846 Y54.983 E0.00893
G1 X202.384 Y55.116 E0.01737
G1 X202.894 Y55.344 E0.01752
G1 X203.356 Y55.658 E0.01752
G1 X203.756 Y56.049 E0.01752
G1 X204.080 Y56.504 E0.01752
G1 X204.317 Y57.005 E0.01737
G1 X204.405 Y57.280 E0.00906
G1 X204.503 Y57.825 E0.01737
G1 X204.503 Y58.384 E0.01752
G1 X204.405 Y58.930 E0.01737
G1 X204.317 Y59.205 E0.00906
G1 X204.080 Y59.705 E0.01737
G1 X203.756 Y60.160 E0.01752
G1 X203.356 Y60.551 E0.01752
G1 X202.898 Y60.863 E0.01737
G1 X202.640 Y60.992 E0.00906
G1 X202.116 Y61.173 E0.01737
G1 X201.564 Y61.259 E0.01752
G1 X201.005 Y61.246 E0.01752
G1 X200.458 Y61.136 E0.01752
G1 X199.938 Y60.931 E0.01752
G1 X199.466 Y60.640 E0.01737
G1 X199.243 Y60.457 E0.00906
G1 X198.905 Y60.096 E0.01549
G1 X198.467 Y60.102 F10800.000
G1 X198.180 Y60.540
;TYPE:Perimeter
G1 F1200.000
G1 X197.996 Y59.815 E0.02344
G1 X197.754 Y59.012 E0.02631
G1 X197.665 Y58.513 E0.01588
G1 X197.647 Y58.289 E0.00707
G1 X197.656 Y57.783 E0.01585
G1 X197.729 Y57.297 E0.01543
G1 X197.934 Y56.450 E0.02732
G1 X197.964 Y56.189 E0.00822
G1 X198.120 Y55.837 E0.01207
G1 X198.398 Y55.581 E0.01186
G1 X198.649 Y55.452 E0.00884
G1 X199.391 Y54.953 E0.02802
G1 X199.863 Y54.705 E0.01674
G1 X200.086 Y54.616 E0.00752
G1 X200.585 Y54.474 E0.01628
G1 X201.103 Y54.401 E0.01638
G1 X201.342 Y54.393 E0.00751
G1 X201.860 Y54.428 E0.01628
G1 X202.371 Y54.535 E0.01638
G1 X202.599 Y54.608 E0.00751
G1 X203.084 Y54.820 E0.01659
G1 X203.292 Y54.939 E0.00751
G1 X203.715 Y55.240 E0.01628
G1 X204.094 Y55.600 E0.01638
G1 X204.249 Y55.782 E0.00751
G1 X204.545 Y56.209 E0.01628
G1 X204.780 Y56.675 E0.01638
G1 X204.865 Y56.899 E0.00751
G1 X204.998 Y57.401 E0.01628
G1 X205.062 Y57.919 E0.01638
G1 X205.066 Y58.158 E0.00751
G1 X205.022 Y58.676 E0.01628
G1 X204.908 Y59.175 E0.01606
G1 X204.727 Y59.654 E0.01606
G1 X204.481 Y60.104 E0.01606
G1 X204.176 Y60.515 E0.01606
G1 X203.815 Y60.883 E0.01617
G1 X203.412 Y61.194 E0.01596
G1 X202.965 Y61.449 E0.01612
G1 X202.467 Y61.651 E0.01685
G1 X201.900 Y61.832 E0.01868
G1 X201.353 Y62.048 E0.01842
G1 X200.823 Y61.836 E0.01789
G1 X200.006 Y61.565 E0.02699
G1 X199.781 Y61.468 E0.00768
G1 X199.561 Y61.356 E0.00773
G1 X198.572 Y60.749 E0.03640
G1 X198.233 Y60.568 E0.01204
;WIPE_START
G1 F8640.000
G1 X197.996 Y59.815 E-0.18225
G1 X197.754 Y59.012 E-0.19376
G1 X197.665 Y58.513 E-0.11697
G1 X197.647 Y58.289 E-0.05203
G1 X197.656 Y57.783 E-0.11675
G1 X197.719 Y57.362 E-0.09824
;WIPE_END
G1 E-0.04000 F2100.000
G1 Z0.600 F10800.000
G1 X199.768 Y67.440
G1 Z0.200
G1 E0.80000 F2100.000
G1 F1200.000
G1 X200.338 Y67.215 E0.01921
M73 Q3 S11
G1 X200.667 Y67.134 E0.01062
G1 X201.244 Y67.069 E0.01822
G1 X201.587 Y67.075 E0.01077
G1 X201.913 Y67.111 E0.01027
G1 X202.507 Y67.258 E0.01921
G1 X203.079 Y67.514 E0.01962
G1 X203.596 Y67.866 E0.01962
G1 X204.043 Y68.303 E0.01962
G1 X204.407 Y68.812 E0.01962
G1 X204.674 Y69.378 E0.01962
M73 P3 R11
G1 X204.835 Y69.969 E0.01921
G1 X204.880 Y70.305 E0.01063
G1 X204.880 Y70.904 E0.01880
G1 X204.835 Y71.240 E0.01062
G1 X204.684 Y71.801 E0.01822
G1 X204.552 Y72.118 E0.01077
G1 X204.399 Y72.408 E0.01027
G1 X204.051 Y72.896 E0.01880
G1 X203.819 Y73.143 E0.01062
G1 X203.370 Y73.512 E0.01822
G1 X203.079 Y73.694 E0.01077
G1 X202.786 Y73.840 E0.01027
G1 X202.207 Y74.040 E0.01921
G1 X201.589 Y74.137 E0.01962
G1 X200.964 Y74.123 E0.01962
G1 X200.363 Y74.002 E0.01921
G1 X200.042 Y73.891 E0.01063
G1 X199.495 Y73.617 E0.01921
G1 X198.994 Y73.242 E0.01962
G1 X198.566 Y72.785 E0.01962
G1 X198.233 Y72.271 E0.01921
G1 X198.088 Y71.965 E0.01062
G1 X197.910 Y71.412 E0.01822
G1 X197.848 Y71.075 E0.01077
G1 X197.819 Y70.748 E0.01027
G1 X197.846 Y70.136 E0.01921
G1 X197.983 Y69.526 E0.01962
G1 X198.221 Y68.961 E0.01921
G1 X198.392 Y68.669 E0.01063
G1 X198.770 Y68.186 E0.01921
G1 X199.236 Y67.769 E0.01962
G1 X199.717 Y67.472 E0.01774
G1 X199.915 Y67.793 F10800.000
;TYPE:External perimeter
G1 F1200.000
G1 X200.453 Y67.575 E0.01819
G1 X200.734 Y67.506 E0.00905
G1 X201.262 Y67.446 E0.01668
G1 X201.563 Y67.451 E0.00945
G1 X201.846 Y67.483 E0.00893
G1 X202.384 Y67.616 E0.01737
G1 X202.894 Y67.844 E0.01752
G1 X203.356 Y68.158 E0.01752
G1 X203.756 Y68.549 E0.01752
G1 X204.080 Y69.004 E0.01752
G1 X204.319 Y69.509 E0.01752
G1 X204.465 Y70.044 E0.01737
G1 X204.503 Y70.330 E0.00906
G1 X204.503 Y70.879 E0.01723
G1 X204.465 Y71.166 E0.00905
G1 X204.326 Y71.679 E0.01668
G1 X204.211 Y71.957 E0.00945
G1 X204.077 Y72.209 E0.00893
G1 X203.758 Y72.657 E0.01723
G1 X203.561 Y72.867 E0.00905
G1 X203.150 Y73.205 E0.01668
G1 X202.894 Y73.364 E0.00945
G1 X202.640 Y73.492 E0.00893
G1 X202.116 Y73.673 E0.01737
G1 X201.564 Y73.759 E0.01752
G1 X201.005 Y73.746 E0.01752
G1 X200.462 Y73.637 E0.01737
G1 X200.189 Y73.543 E0.00906
G1 X199.694 Y73.294 E0.01737
G1 X199.246 Y72.960 E0.01752
G1 X198.864 Y72.552 E0.01752
G1 X198.563 Y72.087 E0.01737
G1 X198.439 Y71.826 E0.00905
G1 X198.276 Y71.320 E0.01668
