; generated by PrusaSlicer 2.3.1+win64 on 2023-07-25 at 15:43:09 UTC

; 

; external perimeters extrusion width = 0.60mm
; perimeters extrusion width = 0.50mm
; infill extrusion width = 0.50mm
; solid infill extrusion width = 0.50mm
; top infill extrusion width = 0.45mm
; first layer extrusion width = 0.42mm

M73 P0 R11
M73 Q0 S11
M201 X1000 Y1000 Z200 E5000 ; sets maximum accelerations, mm/sec^2
M203 X200 Y200 Z12 E120 ; sets maximum feedrates, mm/sec
M204 P1250 R1250 T1250 ; sets acceleration (P, T) and retract acceleration (R), mm/sec^2
M205 X8.00 Y8.00 Z0.40 E4.50 ; sets the jerk limits, mm/sec
M205 S0 T0 ; sets the minimum extruding and travel feed rate, mm/sec
M107
;TYPE:Custom
M862.3 P "MK3S" ; printer model check
M862.1 P0.4 ; nozzle diameter check
M115 U3.9.3 ; tell printer latest fw version
G90 ; use absolute coordinates
M83 ; extruder relative mode
M104 S215 ; set extruder temp
M140 S67 ; set bed temp
M190 S67 ; wait for bed temp
M109 S215 ; wait for extruder temp
G28 W ; home all without mesh bed level
G80 ; mesh bed leveling
G1 Y-3.0 F1000.0 ; go outside print area
G92 E0.0
G1 X60.0 E9.0 F1000.0 ; intro line
G1 X100.0 E12.5 F1000.0 ; intro line
G92 E0.0
M221 S95

; Don't change E values below. Excessive value can damage the printer.

M907 E538 ; set extruder motor current
G21 ; set units to millimeters
G90 ; use absolute coordinates
M83 ; use relative distances for extrusion
M900 K0.05 ; Filament gcode LA 1.5
M900 K30 ; Filament gcode LA 1.0
;LAYER_CHANGE
;Z:0.2
;HEIGHT:0.2
;BEFORE_LAYER_CHANGE
G92 E0.0
;0.2


G1 E-0.80000 F2100.000
G1 Z0.400 F10800.000
;AFTER_LAYER_CHANGE
;0.2
; printing object washers.stl id:1 copy 0
G1 X184.550 Y69.482
M73 P1 R11
M73 Q1 S11
G1 Z0.200
G1 E0.80000 F2100.000
M204 S1000
;TYPE:Perimeter
;WIDTH:0.42
G1 F1200.000
G1 X184.860 Y68.853 E0.02199
G1 X185.245 Y68.290 E0.02139
G1 X185.499 Y67.990 E0.01233
G1 X185.987 Y67.526 E0.02110
G1 X186.291 Y67.292 E0.01202
G1 X186.597 Y67.090 E0.01151
G1 X187.219 Y66.769 E0.02196
G1 X187.881 Y66.538 E0.02196
G1 X188.237 Y66.455 E0.01147
G1 X188.598 Y66.397 E0.01146
G1 X189.280 Y66.360 E0.02140
G1 X190.005 Y66.423 E0.02282
G1 X190.670 Y66.577 E0.02142
G1 X191.033 Y66.702 E0.01202
G1 X191.370 Y66.847 E0.01151
G1 X191.972 Y67.185 E0.02164
G1 X192.278 Y67.403 E0.01180
G1 X192.803 Y67.867 E0.02196
G1 X193.258 Y68.400 E0.02196
G1 X193.470 Y68.710 E0.01180
G1 X193.802 Y69.327 E0.02195
G1 X194.039 Y69.967 E0.02139
G1 X194.134 Y70.338 E0.01202
G1 X194.198 Y70.699 E0.01151
G1 X194.248 Y71.398 E0.02195
G1 X194.200 Y72.078 E0.02139
G1 X194.134 Y72.456 E0.01202
G1 X194.045 Y72.812 E0.01150
G1 X193.809 Y73.452 E0.02140
G1 X193.466 Y74.094 E0.02283
G1 X193.050 Y74.659 E0.02199
G1 X192.803 Y74.929 E0.01147
G1 X192.537 Y75.180 E0.01146
G1 X191.996 Y75.595 E0.02140
G1 X191.362 Y75.954 E0.02283
G1 X190.708 Y76.208 E0.02199
G1 X190.345 Y76.306 E0.01179
G1 X189.682 Y76.413 E0.02107
G1 X189.299 Y76.435 E0.01202
G1 X188.932 Y76.428 E0.01151
G1 X188.247 Y76.343 E0.02164
G1 X187.881 Y76.258 E0.01180
G1 X187.219 Y76.027 E0.02196
G1 X186.588 Y75.701 E0.02229
G1 X186.017 Y75.295 E0.02196
G1 X185.735 Y75.046 E0.01180
G1 X185.269 Y74.537 E0.02164
G1 X185.052 Y74.243 E0.01147
G1 X184.856 Y73.934 E0.01147
G1 X184.550 Y73.315 E0.02164
G1 X184.420 Y72.962 E0.01180
G1 X184.249 Y72.283 E0.02196
G1 X184.175 Y71.586 E0.02196
G1 X184.175 Y71.210 E0.01180
G1 X184.249 Y70.514 E0.02195
G1 X184.415 Y69.852 E0.02139
G1 X184.529 Y69.538 E0.01046
G1 X184.883 Y69.667 F10800.000
;TYPE:External perimeter
G1 F1200.000
G1 X185.187 Y69.044 E0.02173
G1 X185.545 Y68.519 E0.01995
G1 X185.774 Y68.249 E0.01108
G1 X186.233 Y67.813 E0.01985
G1 X186.510 Y67.599 E0.01097
G1 X186.788 Y67.416 E0.01044
G1 X187.369 Y67.116 E0.02050
G1 X187.986 Y66.901 E0.02050
G1 X188.310 Y66.825 E0.01043
G1 X188.638 Y66.773 E0.01043
G1 X189.274 Y66.738 E0.01996
G1 X189.946 Y66.796 E0.02115
G1 X190.566 Y66.940 E0.01996
G1 X190.897 Y67.054 E0.01097
G1 X191.203 Y67.186 E0.01044
G1 X191.770 Y67.504 E0.02038
G1 X192.044 Y67.699 E0.01055
G1 X192.534 Y68.132 E0.02050
G1 X192.958 Y68.629 E0.02050
G1 X193.148 Y68.907 E0.01055
G1 X193.458 Y69.482 E0.02050
G1 X193.678 Y70.079 E0.01995
G1 X193.765 Y70.418 E0.01097
G1 X193.824 Y70.746 E0.01044
G1 X193.870 Y71.398 E0.02050
G1 X193.826 Y72.033 E0.01995
G1 X193.765 Y72.377 E0.01097
G1 X193.684 Y72.700 E0.01044
G1 X193.465 Y73.298 E0.01996
G1 X193.146 Y73.892 E0.02115
G1 X192.758 Y74.419 E0.02051
G1 X192.533 Y74.664 E0.01043
G1 X192.292 Y74.893 E0.01043
G1 X191.787 Y75.280 E0.01996
G1 X191.200 Y75.612 E0.02115
G1 X190.590 Y75.849 E0.02051
G1 X190.266 Y75.937 E0.01054
G1 X189.641 Y76.038 E0.01984
G1 X189.292 Y76.058 E0.01097
G1 X188.959 Y76.052 E0.01044
G1 X188.314 Y75.972 E0.02038
G1 X187.986 Y75.895 E0.01055
G1 X187.369 Y75.680 E0.02050
G1 X186.784 Y75.378 E0.02062
G1 X186.252 Y75.000 E0.02050
G1 X185.999 Y74.777 E0.01055
G1 X185.560 Y74.297 E0.02038
G1 X185.363 Y74.030 E0.01043
G1 X185.185 Y73.749 E0.01043
G1 X184.897 Y73.166 E0.02038
G1 X184.781 Y72.850 E0.01055
G1 X184.621 Y72.216 E0.02050
G1 X184.552 Y71.566 E0.02050
G1 X184.552 Y71.230 E0.01055
G1 X184.621 Y70.580 E0.02050
G1 X184.776 Y69.963 E0.01995
G1 X184.863 Y69.724 E0.00797
G1 X184.641 Y69.349 F10800.000
;WIPE_START
G1 F8640.000
G1 X185.187 Y69.044 E-0.17384
G1 X185.545 Y68.519 E-0.14694
G1 X185.774 Y68.249 E-0.08160
G1 X186.233 Y67.813 E-0.14617
G1 X186.510 Y67.599 E-0.08076
G1 X186.788 Y67.416 E-0.07690
G1 X186.995 Y67.309 E-0.05379
;WIPE_END
G1 E-0.04000 F2100.000
G1 Z0.600 F10800.000
G1 X193.830 Y68.419
G1 Z0.200
G1 E0.80000 F2100.000
;TYPE:Perimeter
G1 F1200.000
G1 X193.927 Y68.935 E0.01646
G1 X194.205 Y69.904 E0.03161
G1 X194.344 Y70.506 E0.01938
G1 X194.412 Y71.100 E0.01873
G1 X194.412 Y71.705 E0.01896
G1 X194.388 Y71.985 E0.00882
G1 X194.285 Y72.583 E0.01902
G1 X194.013 Y73.523 E0.03068
G1 X193.823 Y74.388 E0.02777
G1 X193.398 Y74.685 E0.01626
G1 X192.349 Y75.558 E0.04279
G1 X191.839 Y75.898 E0.01921
G1 X191.588 Y76.036 E0.00899
G1 X191.022 Y76.285 E0.01939
G1 X190.068 Y76.587 E0.03138
G1 X189.269 Y76.880 E0.02667
G1 X188.467 Y76.605 E0.02658
G1 X187.506 Y76.324 E0.03137
G1 X186.943 Y76.092 E0.01910
G1 X186.411 Y75.796 E0.01909
G1 X185.926 Y75.447 E0.01873
G1 X185.183 Y74.776 E0.03139
G1 X184.506 Y74.228 E0.02733
G1 X184.336 Y73.363 E0.02763
G1 X184.090 Y72.382 E0.03172
G1 X184.043 Y72.088 E0.00932
G1 X183.997 Y71.465 E0.01960
G1 X184.002 Y71.175 E0.00908
G1 X184.066 Y70.557 E0.01950
G1 X184.200 Y69.957 E0.01926
G1 X184.655 Y68.658 E0.04317
G1 X184.719 Y68.380 E0.00895
G1 X184.948 Y68.048 E0.01265
G1 X185.210 Y67.753 E0.01237
G1 X185.457 Y67.628 E0.00869
G1 X186.310 Y67.064 E0.03204
G1 X186.842 Y66.755 E0.01931
G1 X187.389 Y66.514 E0.01874
G1 X188.320 Y66.219 E0.03062
G1 X189.132 Y65.906 E0.02729
G1 X189.979 Y66.204 E0.02817
G1 X190.954 Y66.487 E0.03183
G1 X191.539 Y66.735 E0.01993
G1 X191.798 Y66.874 E0.00919
G1 X192.319 Y67.216 E0.01955
G1 X193.101 Y67.874 E0.03206
G1 X193.782 Y68.383 E0.02667
G1 X194.202 Y68.359 F10800.000
;TYPE:External perimeter
G1 F1200.000
G1 X194.841 Y67.857 E0.02545
G1 X195.240 Y68.069 E0.01417
G1 X196.232 Y68.679 E0.03652
G1 X196.476 Y68.803 E0.00858
G1 X196.727 Y68.911 E0.00856
G1 X197.549 Y69.184 E0.02715
G1 X198.021 Y69.372 E0.01594
G1 X198.021 Y73.324 E0.12390
G1 X197.545 Y73.513 E0.01605
G1 X196.714 Y73.790 E0.02745
G1 X196.465 Y73.899 E0.00854
G1 X195.964 Y74.175 E0.01792
G1 X195.218 Y74.651 E0.02774
G1 X194.825 Y74.864 E0.01403
G1 X194.196 Y74.446 E0.02367
M73 Q2 S11
G1 X194.379 Y73.616 E0.02666
G1 X194.653 Y72.667 E0.03094
G1 X194.763 Y72.033 E0.02018
G1 X194.790 Y71.721 E0.00984
G1 X194.790 Y71.078 E0.02015
M73 P2 R11
G1 X194.716 Y70.442 E0.02007
G1 X194.570 Y69.810 E0.02035
G1 X194.294 Y68.848 E0.03137
G1 X194.214 Y68.418 E0.01373
G1 X194.001 Y68.013 F10800.000
G1 X194.050 Y68.112
G1 F1200.000
G1 X193.335 Y67.579 E0.02795
G1 X192.545 Y66.913 E0.03242
G1 X191.990 Y66.549 E0.02078
G1 X191.702 Y66.395 E0.01024
G1 X191.081 Y66.131 E0.02117
G1 X190.095 Y65.845 E0.03220
G1 X189.265 Y65.552 E0.02759
G1 X189.265 Y64.744 E0.02536
G1 X190.086 Y64.454 E0.02730
G1 X191.059 Y64.173 E0.03177
G1 X191.674 Y63.915 E0.02089
G1 X191.959 Y63.765 E0.01010
G1 X192.510 Y63.409 E0.02057
G1 X193.320 Y62.766 E0.03243
G1 X193.617 Y62.574 E0.01108
G1 X193.984 Y62.240 E0.01557
G1 X194.626 Y62.686 E0.02452
G1 X194.451 Y63.082 E0.01358
G1 X194.417 Y63.377 E0.00929
G1 X194.214 Y64.212 E0.02695
G1 X194.134 Y64.751 E0.01709
G1 X194.124 Y65.294 E0.01702
G1 X194.145 Y65.555 E0.00823
G1 X194.242 Y66.093 E0.01714
G1 X194.488 Y66.910 E0.02673
G1 X194.669 Y67.625 E0.02315
G1 X194.097 Y68.075 E0.02284
G1 X193.842 Y68.455 F10800.000
;WIPE_START
G1 F8640.000
G1 X193.335 Y67.579 E-0.20988
G1 X192.545 Y66.913 E-0.23876
G1 X191.990 Y66.549 E-0.15304
G1 X191.702 Y66.395 E-0.07543
G1 X191.372 Y66.255 E-0.08288
;WIPE_END
G1 E-0.04000 F2100.000
G1 Z0.600 F10800.000
G1 X195.393 Y67.235
G1 Z0.200
G1 E0.80000 F2100.000
;TYPE:Perimeter
G1 F1200.000
G1 X195.088 Y66.765 E0.01758
G1 X194.943 Y66.459 E0.01062
G1 X194.765 Y65.905 E0.01822
G1 X194.703 Y65.568 E0.01077
G1 X194.674 Y65.242 E0.01027
G1 X194.701 Y64.630 E0.01921
G1 X194.838 Y64.019 E0.01962
G1 X195.076 Y63.454 E0.01921
G1 X195.247 Y63.162 E0.01063
G1 X195.625 Y62.680 E0.01921
G1 X196.091 Y62.262 E0.01962
G1 X196.623 Y61.934 E0.01962
G1 X197.193 Y61.709 E0.01921
G1 X197.522 Y61.627 E0.01062
G1 X198.099 Y61.562 E0.01822
G1 X198.442 Y61.568 E0.01077
G1 X198.768 Y61.604 E0.01027
G1 X199.362 Y61.752 E0.01921
G1 X199.934 Y62.007 E0.01962
G1 X200.451 Y62.359 E0.01962
G1 X200.898 Y62.796 E0.01962
G1 X201.261 Y63.306 E0.01962
G1 X201.524 Y63.859 E0.01921
G1 X201.627 Y64.182 E0.01063
G1 X201.735 Y64.785 E0.01921
G1 X201.735 Y65.411 E0.01962
G1 X201.627 Y66.014 E0.01921
G1 X201.524 Y66.337 E0.01063
G1 X201.261 Y66.890 E0.01921
G1 X200.898 Y67.400 E0.01962
G1 X200.451 Y67.837 E0.01962
G1 X199.944 Y68.182 E0.01921
G1 X199.641 Y68.334 E0.01063
G1 X199.062 Y68.533 E0.01921
G1 X198.444 Y68.630 E0.01962
G1 X197.818 Y68.616 E0.01962
G1 X197.205 Y68.492 E0.01962
G1 X196.623 Y68.262 E0.01962
G1 X196.102 Y67.941 E0.01921
G1 X195.840 Y67.726 E0.01063
G1 X195.427 Y67.285 E0.01895
G1 X195.719 Y67.045 F10800.000
;TYPE:External perimeter
G1 F1200.000
G1 X195.418 Y66.580 E0.01737
G1 X195.294 Y66.319 E0.00905
G1 X195.131 Y65.813 E0.01668
G1 X195.077 Y65.517 E0.00945
G1 X195.051 Y65.233 E0.00893
G1 X195.076 Y64.680 E0.01737
G1 X195.199 Y64.134 E0.01752
G1 X195.413 Y63.624 E0.01737
G1 X195.560 Y63.375 E0.00906
G1 X195.901 Y62.938 E0.01737
G1 X196.317 Y62.566 E0.01752
G1 X196.793 Y62.272 E0.01752
G1 X197.308 Y62.069 E0.01737
G1 X197.588 Y61.999 E0.00905
G1 X198.117 Y61.939 E0.01668
G1 X198.418 Y61.944 E0.00945
G1 X198.701 Y61.976 E0.00893
G1 X199.239 Y62.109 E0.01737
G1 X199.749 Y62.337 E0.01752
G1 X200.211 Y62.652 E0.01752
G1 X200.611 Y63.042 E0.01752
G1 X200.935 Y63.497 E0.01752
G1 X201.172 Y63.998 E0.01737
G1 X201.260 Y64.273 E0.00906
G1 X201.358 Y64.819 E0.01737
G1 X201.358 Y65.377 E0.01752
G1 X201.260 Y65.923 E0.01737
G1 X201.172 Y66.198 E0.00906
G1 X200.935 Y66.699 E0.01737
G1 X200.611 Y67.154 E0.01752
G1 X200.211 Y67.544 E0.01752
G1 X199.753 Y67.856 E0.01737
G1 X199.495 Y67.985 E0.00906
G1 X198.971 Y68.166 E0.01737
G1 X198.419 Y68.252 E0.01752
G1 X197.860 Y68.240 E0.01752
G1 X197.312 Y68.129 E0.01752
G1 X196.793 Y67.924 E0.01752
G1 X196.321 Y67.633 E0.01737
G1 X196.098 Y67.450 E0.00906
G1 X195.760 Y67.089 E0.01549
G1 X195.322 Y67.096 F10800.000
G1 X195.035 Y67.533
;TYPE:Perimeter
G1 F1200.000
G1 X194.851 Y66.809 E0.02344
G1 X194.609 Y66.005 E0.02631
G1 X194.519 Y65.507 E0.01588
G1 X194.501 Y65.282 E0.00707
G1 X194.511 Y64.776 E0.01585
G1 X194.584 Y64.290 E0.01543
G1 X194.789 Y63.443 E0.02732
G1 X194.819 Y63.183 E0.00822
G1 X194.975 Y62.830 E0.01207
G1 X195.253 Y62.574 E0.01186
G1 X195.504 Y62.445 E0.00884
G1 X196.245 Y61.946 E0.02802
G1 X196.718 Y61.698 E0.01674
G1 X196.941 Y61.609 E0.00752
G1 X197.440 Y61.467 E0.01628
G1 X197.958 Y61.394 E0.01638
G1 X198.197 Y61.386 E0.00751
G1 X198.715 Y61.421 E0.01628
G1 X199.226 Y61.528 E0.01638
G1 X199.454 Y61.601 E0.00751
G1 X199.939 Y61.813 E0.01659
G1 X200.147 Y61.932 E0.00751
G1 X200.569 Y62.234 E0.01628
G1 X200.949 Y62.593 E0.01638
G1 X201.104 Y62.775 E0.00751
G1 X201.400 Y63.202 E0.01628
G1 X201.635 Y63.668 E0.01638
G1 X201.720 Y63.892 E0.00751
G1 X201.853 Y64.394 E0.01628
G1 X201.917 Y64.912 E0.01638
G1 X201.921 Y65.152 E0.00751
G1 X201.876 Y65.669 E0.01628
G1 X201.763 Y66.169 E0.01606
G1 X201.582 Y66.648 E0.01606
G1 X201.336 Y67.097 E0.01606
G1 X201.031 Y67.509 E0.01606
G1 X200.670 Y67.876 E0.01617
G1 X200.266 Y68.187 E0.01596
G1 X199.820 Y68.442 E0.01612
G1 X199.322 Y68.644 E0.01685
G1 X198.754 Y68.826 E0.01868
G1 X198.208 Y69.041 E0.01842
G1 X197.678 Y68.829 E0.01789
G1 X196.861 Y68.558 E0.02699
G1 X196.636 Y68.461 E0.00768
G1 X196.416 Y68.350 E0.00773
G1 X195.427 Y67.742 E0.03640
G1 X195.088 Y67.562 E0.01204
;WIPE_START
G1 F8640.000
G1 X194.851 Y66.809 E-0.18225
G1 X194.609 Y66.005 E-0.19376
G1 X194.519 Y65.507 E-0.11697
G1 X194.501 Y65.282 E-0.05203
G1 X194.511 Y64.776 E-0.11675
G1 X194.574 Y64.356 E-0.09824
;WIPE_END
G1 E-0.04000 F2100.000
G1 Z0.600 F10800.000
G1 X196.623 Y74.434
G1 Z0.200
G1 E0.80000 F2100.000
G1 F1200.000
G1 X197.193 Y74.209 E0.01921
G1 X197.522 Y74.127 E0.01062
G1 X198.099 Y74.062 E0.01822
G1 X198.442 Y74.068 E0.01077
G1 X198.768 Y74.104 E0.01027
G1 X199.362 Y74.252 E0.01921
G1 X199.934 Y74.507 E0.01962
G1 X200.451 Y74.859 E0.01962
G1 X200.898 Y75.296 E0.01962
G1 X201.261 Y75.806 E0.01962
G1 X201.529 Y76.371 E0.01962
G1 X201.690 Y76.962 E0.01921
G1 X201.735 Y77.298 E0.01063
G1 X201.735 Y77.898 E0.01880
G1 X201.690 Y78.233 E0.01062
G1 X201.538 Y78.794 E0.01822
G1 X201.407 Y79.111 E0.01077
G1 X201.254 Y79.401 E0.01027
G1 X200.906 Y79.889 E0.01880
G1 X200.674 Y80.136 E0.01062
G1 X200.225 Y80.505 E0.01822
G1 X199.934 Y80.687 E0.01077
G1 X199.641 Y80.834 E0.01027
G1 X199.062 Y81.033 E0.01921
G1 X198.444 Y81.130 E0.01962
G1 X197.818 Y81.116 E0.01962
G1 X197.218 Y80.995 E0.01921
G1 X196.897 Y80.884 E0.01063
G1 X196.350 Y80.610 E0.01921
G1 X195.848 Y80.235 E0.01962
G1 X195.421 Y79.779 E0.01962
G1 X195.088 Y79.265 E0.01921
G1 X194.943 Y78.959 E0.01062
G1 X194.765 Y78.405 E0.01822
G1 X194.703 Y78.068 E0.01077
G1 X194.674 Y77.742 E0.01027
G1 X194.701 Y77.130 E0.01921
G1 X194.838 Y76.519 E0.01962
M73 Q3 S11
G1 X195.076 Y75.954 E0.01921
G1 X195.247 Y75.662 E0.01063
G1 X195.625 Y75.180 E0.01921
G1 X196.091 Y74.762 E0.01962
G1 X196.572 Y74.465 E0.01774
G1 X196.770 Y74.786 F10800.000
;TYPE:External perimeter
M73 P3 R11
G1 F1200.000
G1 X197.308 Y74.569 E0.01819
G1 X197.588 Y74.499 E0.00905
G1 X198.117 Y74.439 E0.01668
G1 X198.418 Y74.444 E0.00945
G1 X198.701 Y74.476 E0.00893
G1 X199.239 Y74.609 E0.01737
G1 X199.749 Y74.837 E0.01752
G1 X200.211 Y75.152 E0.01752
G1 X200.611 Y75.542 E0.01752
G1 X200.935 Y75.997 E0.01752
G1 X201.174 Y76.502 E0.01752
G1 X201.320 Y77.037 E0.01737
G1 X201.358 Y77.323 E0.00906
G1 X201.358 Y77.873 E0.01723
G1 X201.320 Y78.159 E0.00905
G1 X201.181 Y78.672 E0.01668
G1 X201.065 Y78.951 E0.00945
G1 X200.932 Y79.202 E0.00893
G1 X200.613 Y79.650 E0.01723
G1 X200.416 Y79.861 E0.00905
G1 X200.005 Y80.198 E0.01668
G1 X199.749 Y80.358 E0.00945
G1 X199.495 Y80.485 E0.00893
G1 X198.971 Y80.666 E0.01737
G1 X198.419 Y80.752 E0.01752
G1 X197.860 Y80.740 E0.01752
G1 X197.317 Y80.630 E0.01737
G1 X197.044 Y80.536 E0.00906
G1 X196.549 Y80.288 E0.01737
G1 X196.101 Y79.953 E0.01752
G1 X195.719 Y79.545 E0.01752
G1 X195.418 Y79.080 E0.01737
G1 X195.294 Y78.819 E0.00905
G1 X195.131 Y78.313 E0.01668
G1 X195.077 Y78.017 E0.00945
G1 X195.051 Y77.733 E0.00893
G1 X195.076 Y77.180 E0.01737
G1 X195.199 Y76.634 E0.01752
G1 X195.413 Y76.124 E0.01737
G1 X195.560 Y75.875 E0.00906
G1 X195.901 Y75.438 E0.01737
G1 X196.317 Y75.066 E0.01752
G1 X196.719 Y74.818 E0.01481
G1 X196.791 Y74.387 F10800.000
;WIPE_START
G1 F8640.000
G1 X197.308 Y74.569 E-0.14765
G1 X197.588 Y74.499 E-0.06667
G1 X198.117 Y74.439 E-0.12281
G1 X198.418 Y74.444 E-0.06957
G1 X198.701 Y74.476 E-0.06576
G1 X199.239 Y74.609 E-0.12794
G1 X199.749 Y74.837 E-0.12901
