; generated by PrusaSlicer 2.3.1+win64 on 2022-07-03 at 18:58:28 UTC

; 

; external perimeters extrusion width = 0.60mm
; perimeters extrusion width = 0.50mm
; infill extrusion width = 0.50mm
; solid infill extrusion width = 0.50mm
; top infill extrusion width = 0.45mm
; first layer extrusion width = 0.42mm

M73 P0 R36
M73 Q0 S36
M201 X1000 Y1000 Z200 E5000 ; sets maximum accelerations, mm/sec^2
M203 X200 Y200 Z12 E120 ; sets maximum feedrates, mm/sec
M204 P1250 R1250 T1250 ; sets acceleration (P, T) and retract acceleration (R), mm/sec^2
M205 X8.00 Y8.00 Z0.40 E4.50 ; sets the jerk limits, mm/sec
M205 S0 T0 ; sets the minimum extruding and travel feed rate, mm/sec
M107
;TYPE:Custom
M862.3 P "MK3S" ; printer model check
M862.1 P0.4 ; nozzle diameter check
M115 U3.9.3 ; tell printer latest fw version
G90 ; use absolute coordinates
M83 ; extruder relative mode
M104 S215 ; set extruder temp
M140 S67 ; set bed temp
M190 S67 ; wait for bed temp
M109 S215 ; wait for extruder temp
G28 W ; home all without mesh bed level
G80 ; mesh bed leveling
G1 Y-3.0 F1000.0 ; go outside print area
G92 E0.0
G1 X60.0 E9.0 F1000.0 ; intro line
G1 X100.0 E12.5 F1000.0 ; intro line
G92 E0.0
M221 S95

; Don't change E values below. Excessive value can damage the printer.

M907 E538 ; set extruder motor current
G21 ; set units to millimeters
G90 ; use absolute coordinates
M83 ; use relative distances for extrusion
M900 K0.05 ; Filament gcode LA 1.5
M900 K30 ; Filament gcode LA 1.0
;LAYER_CHANGE
;Z:0.2
;HEIGHT:0.2
;BEFORE_LAYER_CHANGE
G92 E0.0
;0.2


G1 E-0.80000 F2100.000
G1 Z0.400 F10800.000
;AFTER_LAYER_CHANGE
;0.2
; printing object wire_clamp1.stl id:1 copy 0
G1 X102.087 Y67.582
G1 Z0.200
G1 E0.80000 F2100.000
M204 S1000
;TYPE:Perimeter
;WIDTH:0.42
G1 F1200.000
G1 X112.504 Y67.582 E0.32663
G1 X112.504 Y78.582 E0.34490
G1 X134.698 Y78.582 E0.69585
G1 X134.698 Y80.499 E0.06012
G1 X110.587 Y80.499 E0.75598
G1 X110.587 Y70.499 E0.31354
G1 X102.087 Y70.499 E0.26651
G1 X102.087 Y67.642 E0.08960
;WIPE_START
G1 F8640.000
G1 X105.378 Y67.623 E-0.76000
;WIPE_END
G1 E-0.04000 F2100.000
G1 Z0.600 F10800.000
G1 X112.881 Y78.204
G1 Z0.200
G1 E0.80000 F2100.000
G1 F1200.000
G1 X135.075 Y78.204 E0.69585
G1 X135.075 Y80.876 E0.08377
G1 X110.210 Y80.876 E0.77962
G1 X110.210 Y70.876 E0.31354
G1 X101.710 Y70.876 E0.26651
G1 X101.710 Y67.204 E0.11512
G1 X112.881 Y67.204 E0.35028
G1 X112.881 Y78.144 E0.34302
G1 X113.259 Y77.827 F10800.000
G1 F1200.000
G1 X135.452 Y77.827 E0.69585
G1 X135.452 Y81.253 E0.10741
G1 X109.833 Y81.253 E0.80327
G1 X109.833 Y71.253 E0.31354
G1 X101.333 Y71.253 E0.26651
G1 X101.333 Y66.827 E0.13877
G1 X113.259 Y66.827 E0.37393
M73 P0 R35
G1 X113.259 Y77.767 E0.34302
M73 P1 R35
M73 Q1 S36
G1 X113.636 Y77.450 F10800.000
;TYPE:External perimeter
G1 F1200.000
G1 X135.829 Y77.450 E0.69585
G1 X135.829 Y81.630 E0.13106
G1 X109.456 Y81.630 E0.82692
G1 X109.456 Y71.630 E0.31354
G1 X100.956 Y71.630 E0.26651
G1 X100.956 Y66.450 E0.16242
G1 X113.636 Y66.450 E0.39757
M73 Q1 S35
G1 X113.636 Y77.390 E0.34302
G1 X113.748 Y77.834 F10800.000
;WIPE_START
G1 F8640.000
G1 X116.927 Y77.399 E-0.76000
;WIPE_END
G1 E-0.04000 F2100.000
G1 Z0.600 F10800.000
G1 X133.821 Y78.695
G1 Z0.200
G1 E0.80000 F2100.000
;TYPE:Solid infill
;WIDTH:0.420798
G1 F1200.000
G1 X134.415 Y79.289 E0.02641
G1 X134.415 Y79.823 E0.01679
G1 X133.456 Y78.864 E0.04261
G1 X132.921 Y78.864 E0.01679
G1 X134.273 Y80.216 E0.06007
G1 X133.739 Y80.216 E0.01679
G1 X132.387 Y78.864 E0.06007
G1 X131.853 Y78.864 E0.01679
G1 X133.205 Y80.216 E0.06007
G1 X132.670 Y80.216 E0.01679
G1 X131.318 Y78.864 E0.06007
G1 X130.784 Y78.864 E0.01679
G1 X132.136 Y80.216 E0.06007
G1 X131.601 Y80.216 E0.01679
G1 X130.249 Y78.864 E0.06007
G1 X129.715 Y78.864 E0.01679
G1 X131.067 Y80.216 E0.06007
G1 X130.533 Y80.216 E0.01679
G1 X129.181 Y78.864 E0.06007
G1 X128.646 Y78.864 E0.01679
G1 X129.998 Y80.216 E0.06007
G1 X129.464 Y80.216 E0.01679
G1 X128.112 Y78.864 E0.06007
G1 X127.577 Y78.864 E0.01679
G1 X128.929 Y80.216 E0.06007
G1 X128.395 Y80.216 E0.01679
G1 X127.043 Y78.864 E0.06007
G1 X126.509 Y78.864 E0.01679
G1 X127.861 Y80.216 E0.06007
G1 X127.326 Y80.216 E0.01679
G1 X125.974 Y78.864 E0.06007
G1 X125.440 Y78.864 E0.01679
G1 X126.792 Y80.216 E0.06007
G1 X126.257 Y80.216 E0.01679
G1 X124.905 Y78.864 E0.06007
G1 X124.371 Y78.864 E0.01679
G1 X125.723 Y80.216 E0.06007
G1 X125.189 Y80.216 E0.01679
G1 X123.837 Y78.864 E0.06007
G1 X123.302 Y78.864 E0.01679
G1 X124.654 Y80.216 E0.06007
G1 X124.120 Y80.216 E0.01679
G1 X122.768 Y78.864 E0.06007
G1 X122.233 Y78.864 E0.01679
G1 X123.585 Y80.216 E0.06007
G1 X123.051 Y80.216 E0.01679
G1 X121.699 Y78.864 E0.06007
G1 X121.165 Y78.864 E0.01679
G1 X122.517 Y80.216 E0.06007
G1 X121.982 Y80.216 E0.01679
G1 X120.630 Y78.864 E0.06007
G1 X120.096 Y78.864 E0.01679
G1 X121.448 Y80.216 E0.06007
G1 X120.913 Y80.216 E0.01679
G1 X119.561 Y78.864 E0.06007
G1 X119.027 Y78.864 E0.01679
G1 X120.379 Y80.216 E0.06007
G1 X119.845 Y80.216 E0.01679
G1 X118.493 Y78.864 E0.06007
G1 X117.958 Y78.864 E0.01679
G1 X119.310 Y80.216 E0.06007
G1 X118.776 Y80.216 E0.01679
G1 X117.424 Y78.864 E0.06007
G1 X116.889 Y78.864 E0.01679
G1 X118.241 Y80.216 E0.06007
G1 X117.707 Y80.216 E0.01679
G1 X116.355 Y78.864 E0.06007
G1 X115.821 Y78.864 E0.01679
G1 X117.173 Y80.216 E0.06007
G1 X116.638 Y80.216 E0.01679
G1 X115.286 Y78.864 E0.06007
G1 X114.752 Y78.864 E0.01679
G1 X116.104 Y80.216 E0.06007
G1 X115.569 Y80.216 E0.01679
G1 X114.217 Y78.864 E0.06007
G1 X113.683 Y78.864 E0.01679
G1 X115.035 Y80.216 E0.06007
G1 X114.501 Y80.216 E0.01679
G1 X112.979 Y78.695 E0.06761
;WIPE_START
G1 F8640.000
G1 X114.501 Y80.216 E-0.49688
G1 X115.035 Y80.216 E-0.12339
G1 X114.607 Y79.788 E-0.13973
;WIPE_END
G1 E-0.04000 F2100.000
G1 Z0.600 F10800.000
G1 X112.391 Y68.488
G1 Z0.200
G1 E0.80000 F2100.000
G1 F1200.000
G1 X111.768 Y67.864 E0.02770
G1 X111.233 Y67.864 E0.01679
G1 X112.222 Y68.852 E0.04391
G1 X112.222 Y69.387 E0.01679
G1 X110.699 Y67.864 E0.06765
G1 X110.165 Y67.864 E0.01679
G1 X112.222 Y69.921 E0.09140
G1 X112.222 Y70.456 E0.01679
G1 X109.630 Y67.864 E0.11515
G1 X109.096 Y67.864 E0.01679
G1 X112.222 Y70.990 E0.13889
G1 X112.222 Y71.524 E0.01679
G1 X108.561 Y67.864 E0.16264
G1 X108.027 Y67.864 E0.01679
G1 X110.379 Y70.216 E0.10451
G1 X110.870 Y70.216 E0.01542
G1 X110.870 Y70.707 E0.01542
G1 X112.222 Y72.059 E0.06007
G1 X112.222 Y72.593 E0.01679
G1 X110.870 Y71.241 E0.06007
G1 X110.870 Y71.776 E0.01679
G1 X112.222 Y73.128 E0.06007
G1 X112.222 Y73.662 E0.01679
G1 X110.870 Y72.310 E0.06007
G1 X110.870 Y72.845 E0.01679
G1 X112.222 Y74.196 E0.06007
G1 X112.222 Y74.731 E0.01679
G1 X110.870 Y73.379 E0.06007
G1 X110.870 Y73.913 E0.01679
G1 X112.222 Y75.265 E0.06007
G1 X112.222 Y75.800 E0.01679
G1 X110.870 Y74.448 E0.06007
G1 X110.870 Y74.982 E0.01679
G1 X112.222 Y76.334 E0.06007
G1 X112.222 Y76.868 E0.01679
G1 X110.870 Y75.517 E0.06007
G1 X110.870 Y76.051 E0.01679
G1 X112.222 Y77.403 E0.06007
G1 X112.222 Y77.937 E0.01679
G1 X110.870 Y76.585 E0.06007
G1 X110.870 Y77.120 E0.01679
G1 X112.222 Y78.472 E0.06007
G1 X112.222 Y78.864 E0.01234
G1 X112.614 Y78.864 E0.01234
G1 X113.966 Y80.216 E0.06007
G1 X113.432 Y80.216 E0.01679
G1 X110.870 Y77.654 E0.11385
G1 X110.870 Y78.189 E0.01679
G1 X112.897 Y80.216 E0.09010
G1 X112.363 Y80.216 E0.01679
G1 X110.870 Y78.723 E0.06636
G1 X110.870 Y79.257 E0.01679
G1 X111.829 Y80.216 E0.04261
G1 X111.294 Y80.216 E0.01679
G1 X110.700 Y79.622 E0.02640
;WIPE_START
G1 F8640.000
G1 X111.294 Y80.216 E-0.19404
G1 X111.829 Y80.216 E-0.12339
G1 X110.870 Y79.257 E-0.31313
G1 X110.870 Y78.723 E-0.12339
G1 X110.888 Y78.741 E-0.00604
;WIPE_END
G1 E-0.04000 F2100.000
G1 Z0.600 F10800.000
G1 X110.014 Y70.386
G1 Z0.200
G1 E0.80000 F2100.000
G1 F1200.000
G1 X107.493 Y67.864 E0.11205
G1 X106.958 Y67.864 E0.01679
G1 X109.310 Y70.216 E0.10451
G1 X108.776 Y70.216 E0.01679
G1 X106.424 Y67.864 E0.10451
G1 X105.889 Y67.864 E0.01679
G1 X108.241 Y70.216 E0.10451
G1 X107.707 Y70.216 E0.01679
G1 X105.355 Y67.864 E0.10451
G1 X104.821 Y67.864 E0.01679
G1 X107.173 Y70.216 E0.10451
G1 X106.638 Y70.216 E0.01679
G1 X104.286 Y67.864 E0.10451
G1 X103.752 Y67.864 E0.01679
G1 X106.104 Y70.216 E0.10451
G1 X105.569 Y70.216 E0.01679
G1 X103.217 Y67.864 E0.10451
G1 X102.683 Y67.864 E0.01679
G1 X105.035 Y70.216 E0.10451
G1 X104.501 Y70.216 E0.01679
G1 X102.370 Y68.085 E0.09469
G1 X102.370 Y68.620 E0.01679
G1 X103.966 Y70.216 E0.07094
G1 X103.432 Y70.216 E0.01679
G1 X102.370 Y69.154 E0.04720
G1 X102.370 Y69.689 E0.01679
G1 X103.067 Y70.386 E0.03099
; stop printing object wire_clamp1.stl id:1 copy 0
; printing object wire_clamp1.stl id:5 copy 0
;WIPE_START
G1 F8640.000
G1 X102.370 Y69.689 E-0.22774
G1 X102.370 Y69.154 E-0.12339
G1 X103.432 Y70.216 E-0.34683
G1 X103.700 Y70.216 E-0.06204
;WIPE_END
G1 E-0.04000 F2100.000
G1 Z0.600 F10800.000
G1 X106.709 Y85.765
G1 Z0.200
G1 E0.80000 F2100.000
;TYPE:Perimeter
;WIDTH:0.42
G1 F1200.000
G1 X128.903 Y85.765 E0.69585
G1 X128.903 Y87.683 E0.06012
G1 X104.792 Y87.683 E0.75598
M73 P2 R35
M73 Q2 S35
G1 X104.792 Y77.683 E0.31354
G1 X96.292 Y77.683 E0.26651
G1 X96.292 Y74.765 E0.09148
G1 X106.709 Y74.765 E0.32663
G1 X106.709 Y85.705 E0.34302
G1 X107.086 Y85.388 F10800.000
G1 F1200.000
G1 X129.280 Y85.388 E0.69585
G1 X129.280 Y88.060 E0.08377
G1 X104.415 Y88.060 E0.77962
G1 X104.415 Y78.060 E0.31354
G1 X95.915 Y78.060 E0.26651
G1 X95.915 Y74.388 E0.11512
G1 X107.086 Y74.388 E0.35028
G1 X107.086 Y85.328 E0.34302
G1 X107.463 Y85.011 F10800.000
G1 F1200.000
G1 X129.657 Y85.011 E0.69585
G1 X129.657 Y88.437 E0.10741
G1 X104.038 Y88.437 E0.80327
G1 X104.038 Y78.437 E0.31354
G1 X95.538 Y78.437 E0.26651
G1 X95.538 Y74.011 E0.13877
G1 X107.463 Y74.011 E0.37393
G1 X107.463 Y84.951 E0.34302
G1 X107.841 Y84.634 F10800.000
;TYPE:External perimeter
G1 F1200.000
G1 X130.034 Y84.634 E0.69585
G1 X130.034 Y88.814 E0.13106
G1 X103.661 Y88.814 E0.82692
G1 X103.661 Y78.814 E0.31354
G1 X95.161 Y78.814 E0.26651
G1 X95.161 Y73.634 E0.16242
G1 X107.841 Y73.634 E0.39757
G1 X107.841 Y84.574 E0.34302
G1 X107.953 Y85.018 F10800.000
;WIPE_START
G1 F8640.000
G1 X111.132 Y84.583 E-0.76000
;WIPE_END
G1 E-0.04000 F2100.000
G1 Z0.600 F10800.000
G1 X128.026 Y85.878
G1 Z0.200
G1 E0.80000 F2100.000
;TYPE:Solid infill
;WIDTH:0.420798
G1 F1200.000
G1 X128.620 Y86.473 E0.02641
G1 X128.620 Y87.007 E0.01679
G1 X127.661 Y86.048 E0.04261
G1 X127.126 Y86.048 E0.01679
G1 X128.478 Y87.400 E0.06007
G1 X127.944 Y87.400 E0.01679
G1 X126.592 Y86.048 E0.06007
G1 X126.058 Y86.048 E0.01679
G1 X127.410 Y87.400 E0.06007
G1 X126.875 Y87.400 E0.01679
G1 X125.523 Y86.048 E0.06007
G1 X124.989 Y86.048 E0.01679
G1 X126.341 Y87.400 E0.06007
G1 X125.806 Y87.400 E0.01679
G1 X124.454 Y86.048 E0.06007
G1 X123.920 Y86.048 E0.01679
G1 X125.272 Y87.400 E0.06007
G1 X124.738 Y87.400 E0.01679
G1 X123.386 Y86.048 E0.06007
G1 X122.851 Y86.048 E0.01679
G1 X124.203 Y87.400 E0.06007
G1 X123.669 Y87.400 E0.01679
G1 X122.317 Y86.048 E0.06007
G1 X121.782 Y86.048 E0.01679
G1 X123.134 Y87.400 E0.06007
G1 X122.600 Y87.400 E0.01679
G1 X121.248 Y86.048 E0.06007
G1 X120.714 Y86.048 E0.01679
G1 X122.066 Y87.400 E0.06007
G1 X121.531 Y87.400 E0.01679
G1 X120.179 Y86.048 E0.06007
G1 X119.645 Y86.048 E0.01679
G1 X120.997 Y87.400 E0.06007
G1 X120.462 Y87.400 E0.01679
G1 X119.110 Y86.048 E0.06007
G1 X118.576 Y86.048 E0.01679
G1 X119.928 Y87.400 E0.06007
G1 X119.394 Y87.400 E0.01679
G1 X118.042 Y86.048 E0.06007
G1 X117.507 Y86.048 E0.01679
G1 X118.859 Y87.400 E0.06007
G1 X118.325 Y87.400 E0.01679
G1 X116.973 Y86.048 E0.06007
G1 X116.438 Y86.048 E0.01679
G1 X117.790 Y87.400 E0.06007
G1 X117.256 Y87.400 E0.01679
G1 X115.904 Y86.048 E0.06007
G1 X115.370 Y86.048 E0.01679
G1 X116.722 Y87.400 E0.06007
G1 X116.187 Y87.400 E0.01679
G1 X114.835 Y86.048 E0.06007
G1 X114.301 Y86.048 E0.01679
M73 Q3 S35
G1 X115.653 Y87.400 E0.06007
G1 X115.118 Y87.400 E0.01679
M73 P3 R35
G1 X113.766 Y86.048 E0.06007
G1 X113.232 Y86.048 E0.01679
G1 X114.584 Y87.400 E0.06007
G1 X114.050 Y87.400 E0.01679
G1 X112.698 Y86.048 E0.06007
G1 X112.163 Y86.048 E0.01679
G1 X113.515 Y87.400 E0.06007
G1 X112.981 Y87.400 E0.01679
G1 X111.629 Y86.048 E0.06007
G1 X111.094 Y86.048 E0.01679
G1 X112.446 Y87.400 E0.06007
G1 X111.912 Y87.400 E0.01679
G1 X110.560 Y86.048 E0.06007
G1 X110.026 Y86.048 E0.01679
G1 X111.378 Y87.400 E0.06007
G1 X110.843 Y87.400 E0.01679
G1 X109.491 Y86.048 E0.06007
G1 X108.957 Y86.048 E0.01679
G1 X110.309 Y87.400 E0.06007
G1 X109.774 Y87.400 E0.01679
G1 X108.422 Y86.048 E0.06007
G1 X107.888 Y86.048 E0.01679
G1 X109.240 Y87.400 E0.06007
G1 X108.706 Y87.400 E0.01679
G1 X107.184 Y85.878 E0.06761
;WIPE_START
G1 F8640.000
G1 X108.706 Y87.400 E-0.49688
G1 X109.240 Y87.400 E-0.12339
G1 X108.812 Y86.972 E-0.13973
;WIPE_END
G1 E-0.04000 F2100.000
G1 Z0.600 F10800.000
G1 X106.596 Y75.672
G1 Z0.200
G1 E0.80000 F2100.000
G1 F1200.000
G1 X105.973 Y75.048 E0.02770
G1 X105.438 Y75.048 E0.01679
G1 X106.427 Y76.036 E0.04391
G1 X106.427 Y76.571 E0.01679
G1 X104.904 Y75.048 E0.06765
G1 X104.370 Y75.048 E0.01679
G1 X106.427 Y77.105 E0.09140
G1 X106.427 Y77.639 E0.01679
G1 X103.835 Y75.048 E0.11515
G1 X103.301 Y75.048 E0.01679
G1 X106.427 Y78.174 E0.13889
G1 X106.427 Y78.708 E0.01679
G1 X102.766 Y75.048 E0.16264
G1 X102.232 Y75.048 E0.01679
G1 X104.584 Y77.400 E0.10451
G1 X105.075 Y77.400 E0.01542
G1 X105.075 Y77.891 E0.01542
G1 X106.427 Y79.243 E0.06007
G1 X106.427 Y79.777 E0.01679
G1 X105.075 Y78.425 E0.06007
G1 X105.075 Y78.959 E0.01679
G1 X106.427 Y80.311 E0.06007
G1 X106.427 Y80.846 E0.01679
G1 X105.075 Y79.494 E0.06007
G1 X105.075 Y80.028 E0.01679
G1 X106.427 Y81.380 E0.06007
G1 X106.427 Y81.915 E0.01679
G1 X105.075 Y80.563 E0.06007
G1 X105.075 Y81.097 E0.01679
G1 X106.427 Y82.449 E0.06007
G1 X106.427 Y82.983 E0.01679
G1 X105.075 Y81.631 E0.06007
G1 X105.075 Y82.166 E0.01679
G1 X106.427 Y83.518 E0.06007
G1 X106.427 Y84.052 E0.01679
G1 X105.075 Y82.700 E0.06007
G1 X105.075 Y83.235 E0.01679
G1 X106.427 Y84.587 E0.06007
G1 X106.427 Y85.121 E0.01679
G1 X105.075 Y83.769 E0.06007
G1 X105.075 Y84.303 E0.01679
G1 X106.427 Y85.655 E0.06007
G1 X106.427 Y86.048 E0.01234
G1 X106.819 Y86.048 E0.01234
G1 X108.171 Y87.400 E0.06007
G1 X107.637 Y87.400 E0.01679
G1 X105.075 Y84.838 E0.11385
G1 X105.075 Y85.372 E0.01679
G1 X107.102 Y87.400 E0.09010
G1 X106.568 Y87.400 E0.01679
G1 X105.075 Y85.907 E0.06636
G1 X105.075 Y86.441 E0.01679
G1 X106.034 Y87.400 E0.04261
G1 X105.499 Y87.400 E0.01679
G1 X104.905 Y86.806 E0.02640
;WIPE_START
G1 F8640.000
G1 X105.499 Y87.400 E-0.19404
G1 X106.034 Y87.400 E-0.12339
G1 X105.075 Y86.441 E-0.31313
G1 X105.075 Y85.907 E-0.12339
G1 X105.093 Y85.925 E-0.00604
;WIPE_END
G1 E-0.04000 F2100.000
G1 Z0.600 F10800.000
G1 X104.219 Y77.570
G1 Z0.200
G1 E0.80000 F2100.000
G1 F1200.000
G1 X101.698 Y75.048 E0.11205
G1 X101.163 Y75.048 E0.01679
G1 X103.515 Y77.400 E0.10451
G1 X102.981 Y77.400 E0.01679
G1 X100.629 Y75.048 E0.10451
G1 X100.094 Y75.048 E0.01679
G1 X102.446 Y77.400 E0.10451
G1 X101.912 Y77.400 E0.01679
G1 X99.560 Y75.048 E0.10451
G1 X99.026 Y75.048 E0.01679
G1 X101.378 Y77.400 E0.10451
G1 X100.843 Y77.400 E0.01679
G1 X98.491 Y75.048 E0.10451
G1 X97.957 Y75.048 E0.01679
G1 X100.309 Y77.400 E0.10451
G1 X99.774 Y77.400 E0.01679
G1 X97.422 Y75.048 E0.10451
G1 X96.888 Y75.048 E0.01679
G1 X99.240 Y77.400 E0.10451
G1 X98.706 Y77.400 E0.01679
G1 X96.575 Y75.269 E0.09469
G1 X96.575 Y75.803 E0.01679
G1 X98.171 Y77.400 E0.07094
G1 X97.637 Y77.400 E0.01679
G1 X96.575 Y76.338 E0.04720
G1 X96.575 Y76.872 E0.01679
G1 X97.272 Y77.570 E0.03099
; stop printing object wire_clamp1.stl id:5 copy 0
; printing object wire_clamp1.stl id:4 copy 0
;WIPE_START
G1 F8640.000
G1 X96.575 Y76.872 E-0.22774
G1 X96.575 Y76.338 E-0.12339
G1 X97.637 Y77.400 E-0.34683
G1 X97.905 Y77.400 E-0.06204
;WIPE_END
G1 E-0.04000 F2100.000
G1 Z0.600 F10800.000
G1 X100.918 Y92.541
G1 Z0.200
G1 E0.80000 F2100.000
;TYPE:Perimeter
;WIDTH:0.42
G1 F1200.000
G1 X123.111 Y92.541 E0.69585
G1 X123.111 Y94.459 E0.06012
G1 X99.000 Y94.459 E0.75598
G1 X99.000 Y84.459 E0.31354
G1 X90.500 Y84.459 E0.26651
G1 X90.500 Y81.541 E0.09148
G1 X100.918 Y81.541 E0.32663
