; generated by PrusaSlicer 2.3.1+win64 on 2022-05-09 at 17:37:30 UTC

; 

; external perimeters extrusion width = 0.60mm
; perimeters extrusion width = 0.50mm
; infill extrusion width = 0.50mm
; solid infill extrusion width = 0.50mm
; top infill extrusion width = 0.45mm
; first layer extrusion width = 0.42mm

M73 P0 R31
M73 Q0 S31
M201 X1000 Y1000 Z200 E5000 ; sets maximum accelerations, mm/sec^2
M203 X200 Y200 Z12 E120 ; sets maximum feedrates, mm/sec
M204 P1250 R1250 T1250 ; sets acceleration (P, T) and retract acceleration (R), mm/sec^2
M205 X8.00 Y8.00 Z0.40 E4.50 ; sets the jerk limits, mm/sec
M205 S0 T0 ; sets the minimum extruding and travel feed rate, mm/sec
M107
;TYPE:Custom
M862.3 P "MK3S" ; printer model check
M862.1 P0.4 ; nozzle diameter check
M115 U3.9.3 ; tell printer latest fw version
G90 ; use absolute coordinates
M83 ; extruder relative mode
M104 S215 ; set extruder temp
M140 S67 ; set bed temp
M190 S67 ; wait for bed temp
M109 S215 ; wait for extruder temp
G28 W ; home all without mesh bed level
G80 ; mesh bed leveling
G1 Y-3.0 F1000.0 ; go outside print area
G92 E0.0
G1 X60.0 E9.0 F1000.0 ; intro line
G1 X100.0 E12.5 F1000.0 ; intro line
G92 E0.0
M221 S95

; Don't change E values below. Excessive value can damage the printer.

M907 E538 ; set extruder motor current
G21 ; set units to millimeters
G90 ; use absolute coordinates
M83 ; use relative distances for extrusion
M900 K0.05 ; Filament gcode LA 1.5
M900 K30 ; Filament gcode LA 1.0
;LAYER_CHANGE
;Z:0.2
;HEIGHT:0.2
;BEFORE_LAYER_CHANGE
G92 E0.0
;0.2


G1 E-0.80000 F2100.000
G1 Z0.400 F10800.000
;AFTER_LAYER_CHANGE
;0.2
; printing object big_mount.stl id:0 copy 0
G1 X146.431 Y57.627
G1 Z0.200
G1 E0.80000 F2100.000
M204 S1000
;TYPE:Perimeter
;WIDTH:0.42
G1 F1200.000
G1 X171.041 Y57.627 E0.77161
G1 X170.682 Y57.380 E0.01365
G1 X170.387 Y57.085 E0.01306
G1 X170.148 Y56.744 E0.01306
G1 X169.972 Y56.366 E0.01306
G1 X169.865 Y55.964 E0.01306
G1 X169.828 Y55.549 E0.01306
G1 X169.865 Y55.134 E0.01306
G1 X169.972 Y54.731 E0.01306
G1 X170.148 Y54.354 E0.01306
G1 X170.387 Y54.013 E0.01306
G1 X170.682 Y53.718 E0.01306
G1 X171.023 Y53.479 E0.01306
G1 X171.401 Y53.303 E0.01306
G1 X171.803 Y53.195 E0.01306
G1 X172.190 Y53.161 E0.01218
G1 X172.630 Y53.194 E0.01382
G1 X173.036 Y53.303 E0.01318
G1 X173.413 Y53.479 E0.01306
G1 X173.755 Y53.718 E0.01306
G1 X174.049 Y54.013 E0.01306
G1 X174.288 Y54.354 E0.01306
G1 X174.464 Y54.731 E0.01306
G1 X174.572 Y55.134 E0.01306
G1 X174.608 Y55.549 E0.01306
G1 X174.572 Y55.964 E0.01306
G1 X174.464 Y56.366 E0.01306
G1 X174.288 Y56.744 E0.01306
G1 X174.049 Y57.085 E0.01306
G1 X173.775 Y57.360 E0.01218
G1 X173.396 Y57.627 E0.01452
G1 X174.005 Y57.627 E0.01910
G1 X174.005 Y64.701 E0.22181
G1 X146.431 Y64.701 E0.86457
G1 X146.431 Y57.687 E0.21992
;WIPE_START
G1 F8640.000
G1 X149.723 Y57.679 E-0.76000
;WIPE_END
G1 E-0.04000 F2100.000
G1 Z0.600 F10800.000
G1 X170.207 Y55.549
G1 Z0.200
G1 E0.80000 F2100.000
;TYPE:External perimeter
G1 F1200.000
G1 X170.237 Y55.200 E0.01099
G1 X170.328 Y54.861 E0.01099
G1 X170.476 Y54.543 E0.01099
G1 X170.677 Y54.256 E0.01099
G1 X170.925 Y54.008 E0.01099
G1 X171.213 Y53.807 E0.01099
G1 X171.530 Y53.659 E0.01099
G1 X171.869 Y53.568 E0.01099
G1 X172.193 Y53.540 E0.01018
G1 X172.566 Y53.568 E0.01175
G1 X172.906 Y53.659 E0.01104
G1 X173.224 Y53.807 E0.01099
G1 X173.511 Y54.008 E0.01099
G1 X173.759 Y54.256 E0.01099
G1 X173.960 Y54.543 E0.01099
G1 X174.109 Y54.861 E0.01099
G1 X174.199 Y55.200 E0.01099
G1 X174.230 Y55.549 E0.01099
G1 X174.199 Y55.898 E0.01099
G1 X174.109 Y56.237 E0.01099
G1 X173.960 Y56.555 E0.01099
G1 X173.759 Y56.842 E0.01099
G1 X173.530 Y57.072 E0.01019
G1 X173.225 Y57.290 E0.01175
G1 X172.906 Y57.439 E0.01104
G1 X172.568 Y57.530 E0.01099
G1 X172.218 Y57.561 E0.01099
G1 X171.869 Y57.530 E0.01099
G1 X171.530 Y57.439 E0.01099
G1 X171.213 Y57.291 E0.01099
G1 X170.925 Y57.090 E0.01099
G1 X170.677 Y56.842 E0.01099
G1 X170.476 Y56.555 E0.01099
G1 X170.328 Y56.237 E0.01099
G1 X170.237 Y55.898 E0.01099
G1 X170.212 Y55.609 E0.00911
G1 X169.903 Y55.374 F10800.000
;WIPE_START
G1 F8640.000
G1 X170.237 Y55.200 E-0.09464
G1 X170.328 Y54.861 E-0.08096
G1 X170.476 Y54.543 E-0.08096
G1 X170.677 Y54.256 E-0.08096
G1 X170.925 Y54.008 E-0.08096
G1 X171.213 Y53.807 E-0.08096
G1 X171.530 Y53.659 E-0.08096
G1 X171.869 Y53.568 E-0.08096
G1 X172.193 Y53.540 E-0.07500
G1 X172.295 Y53.547 E-0.02361
;WIPE_END
G1 E-0.04000 F2100.000
G1 Z0.600 F10800.000
G1 X146.808 Y58.004
G1 Z0.200
G1 E0.80000 F2100.000
G1 F1200.000
G1 X173.628 Y58.004 E0.84092
G1 X173.628 Y64.324 E0.19816
G1 X146.808 Y64.324 E0.84092
G1 X146.808 Y58.064 E0.19628
G1 X146.636 Y57.643 F10800.000
;WIPE_START
G1 F8640.000
G1 X150.100 Y58.057 E-0.76000
;WIPE_END
G1 E-0.04000 F2100.000
G1 Z0.600 F10800.000
G1 X174.431 Y57.627
G1 Z0.200
G1 E0.80000 F2100.000
;TYPE:Perimeter
G1 F1200.000
G1 X202.005 Y57.627 E0.86457
G1 X202.005 Y64.701 E0.22181
M73 P1 R31
G1 X174.431 Y64.701 E0.86457
M73 Q1 S31
G1 X174.431 Y57.687 E0.21992
G1 X174.808 Y58.004 F10800.000
;TYPE:External perimeter
G1 F1200.000
G1 X201.628 Y58.004 E0.84092
M73 P1 R30
G1 X201.628 Y64.324 E0.19816
G1 X174.808 Y64.324 E0.84092
G1 X174.808 Y58.064 E0.19628
G1 X174.636 Y57.643 F10800.000
;WIPE_START
G1 F8640.000
G1 X178.100 Y58.057 E-0.76000
;WIPE_END
G1 E-0.04000 F2100.000
G1 Z0.600 F10800.000
G1 X230.005 Y57.627
G1 Z0.200
G1 E0.80000 F2100.000
;TYPE:Perimeter
G1 F1200.000
G1 X230.005 Y64.701 E0.22181
G1 X202.431 Y64.701 E0.86457
G1 X202.431 Y57.627 E0.22181
G1 X226.921 Y57.627 E0.76784
G1 X226.562 Y57.380 E0.01365
G1 X226.267 Y57.085 E0.01306
G1 X226.028 Y56.744 E0.01306
G1 X225.852 Y56.366 E0.01306
G1 X225.745 Y55.964 E0.01306
G1 X225.708 Y55.549 E0.01306
G1 X225.745 Y55.134 E0.01306
G1 X225.852 Y54.731 E0.01306
G1 X226.028 Y54.354 E0.01306
G1 X226.267 Y54.013 E0.01306
G1 X226.562 Y53.718 E0.01306
G1 X226.903 Y53.479 E0.01306
G1 X227.281 Y53.303 E0.01306
G1 X227.683 Y53.195 E0.01306
G1 X228.070 Y53.161 E0.01218
G1 X228.510 Y53.194 E0.01382
G1 X228.916 Y53.303 E0.01318
G1 X229.293 Y53.479 E0.01306
G1 X229.635 Y53.718 E0.01306
G1 X229.929 Y54.013 E0.01306
G1 X230.168 Y54.354 E0.01306
G1 X230.344 Y54.731 E0.01306
G1 X230.452 Y55.134 E0.01306
G1 X230.488 Y55.549 E0.01306
G1 X230.452 Y55.964 E0.01306
G1 X230.344 Y56.366 E0.01306
G1 X230.168 Y56.744 E0.01306
G1 X229.929 Y57.085 E0.01306
G1 X229.635 Y57.380 E0.01306
G1 X229.276 Y57.627 E0.01365
G1 X229.945 Y57.627 E0.02099
G1 X229.628 Y58.004 F10800.000
;TYPE:External perimeter
G1 F1200.000
G1 X229.628 Y64.324 E0.19816
G1 X202.808 Y64.324 E0.84092
G1 X202.808 Y58.004 E0.19816
G1 X229.568 Y58.004 E0.83904
G1 X230.027 Y57.973 F10800.000
G1 X229.104 Y57.291
G1 F1200.000
G1 X228.786 Y57.439 E0.01099
G1 X228.448 Y57.530 E0.01099
G1 X228.098 Y57.561 E0.01099
G1 X227.749 Y57.530 E0.01099
G1 X227.410 Y57.439 E0.01099
G1 X227.093 Y57.291 E0.01099
G1 X226.805 Y57.090 E0.01099
G1 X226.557 Y56.842 E0.01099
G1 X226.356 Y56.555 E0.01099
G1 X226.208 Y56.237 E0.01099
G1 X226.117 Y55.898 E0.01099
G1 X226.087 Y55.549 E0.01099
G1 X226.117 Y55.200 E0.01099
G1 X226.208 Y54.861 E0.01099
G1 X226.356 Y54.543 E0.01099
G1 X226.557 Y54.256 E0.01099
G1 X226.805 Y54.008 E0.01099
G1 X227.093 Y53.807 E0.01099
G1 X227.410 Y53.659 E0.01099
G1 X227.749 Y53.568 E0.01099
G1 X228.073 Y53.540 E0.01018
G1 X228.446 Y53.568 E0.01175
G1 X228.786 Y53.659 E0.01104
G1 X229.104 Y53.807 E0.01099
G1 X229.391 Y54.008 E0.01099
G1 X229.639 Y54.256 E0.01099
G1 X229.840 Y54.543 E0.01099
G1 X229.989 Y54.861 E0.01099
G1 X230.079 Y55.200 E0.01099
G1 X230.110 Y55.549 E0.01099
G1 X230.079 Y55.898 E0.01099
G1 X229.989 Y56.237 E0.01099
G1 X229.840 Y56.555 E0.01099
G1 X229.639 Y56.842 E0.01099
G1 X229.391 Y57.090 E0.01099
G1 X229.153 Y57.257 E0.00911
G1 X229.104 Y57.642 F10800.000
;WIPE_START
G1 F8640.000
G1 X228.786 Y57.439 E-0.09464
G1 X228.448 Y57.530 E-0.08096
G1 X228.098 Y57.561 E-0.08096
G1 X227.749 Y57.530 E-0.08096
G1 X227.410 Y57.439 E-0.08096
G1 X227.093 Y57.291 E-0.08096
G1 X226.805 Y57.090 E-0.08096
G1 X226.557 Y56.842 E-0.08096
G1 X226.356 Y56.555 E-0.08096
G1 X226.324 Y56.485 E-0.01765
;WIPE_END
G1 E-0.04000 F2100.000
G1 Z0.600 F10800.000
G1 X198.382 Y52.078
G1 Z0.200
G1 E0.80000 F2100.000
;TYPE:Perimeter
G1 F1200.000
G1 X174.054 Y52.078 E0.76280
G1 X174.054 Y44.750 E0.22977
G1 X198.382 Y44.750 E0.76280
G1 X198.382 Y52.018 E0.22789
G1 X198.005 Y51.701 F10800.000
G1 F1200.000
G1 X174.431 Y51.701 E0.73915
M73 P2 R30
M73 Q2 S31
G1 X174.431 Y45.127 E0.20613
G1 X198.005 Y45.127 E0.73915
G1 X198.005 Y51.641 E0.20425
G1 X197.628 Y51.324 F10800.000
;TYPE:External perimeter
G1 F1200.000
G1 X174.808 Y51.324 E0.71551
G1 X174.808 Y45.504 E0.18248
G1 X197.628 Y45.504 E0.71551
G1 X197.628 Y51.264 E0.18060
G1 X197.799 Y51.686 F10800.000
;WIPE_START
G1 F8640.000
G1 X194.337 Y51.273 E-0.76000
;WIPE_END
G1 E-0.04000 F2100.000
G1 Z0.600 F10800.000
G1 X146.054 Y44.750
G1 Z0.200
G1 E0.80000 F2100.000
;TYPE:Perimeter
G1 F1200.000
G1 X170.382 Y44.750 E0.76280
G1 X170.382 Y52.078 E0.22977
G1 X146.054 Y52.078 E0.76280
G1 X146.054 Y44.810 E0.22789
G1 X146.431 Y45.127 F10800.000
G1 F1200.000
G1 X170.005 Y45.127 E0.73915
G1 X170.005 Y51.701 E0.20613
G1 X146.431 Y51.701 E0.73915
G1 X146.431 Y45.187 E0.20425
G1 X146.808 Y45.504 F10800.000
;TYPE:External perimeter
G1 F1200.000
G1 X169.628 Y45.504 E0.71551
G1 X169.628 Y51.324 E0.18248
G1 X146.808 Y51.324 E0.71551
G1 X146.808 Y45.564 E0.18060
G1 X146.638 Y45.142 F10800.000
;WIPE_START
G1 F8640.000
G1 X150.100 Y45.555 E-0.76000
;WIPE_END
G1 E-0.04000 F2100.000
G1 Z0.600 F10800.000
G1 X118.054 Y44.750
G1 Z0.200
G1 E0.80000 F2100.000
;TYPE:Perimeter
G1 F1200.000
G1 X142.382 Y44.750 E0.76280
M73 Q2 S30
G1 X142.382 Y52.078 E0.22977
G1 X118.054 Y52.078 E0.76280
M73 P3 R30
G1 X118.054 Y44.810 E0.22789
M73 Q3 S30
G1 X118.431 Y45.127 F10800.000
G1 F1200.000
G1 X142.005 Y45.127 E0.73915
G1 X142.005 Y51.701 E0.20613
G1 X118.431 Y51.701 E0.73915
G1 X118.431 Y45.187 E0.20425
G1 X118.808 Y45.504 F10800.000
;TYPE:External perimeter
G1 F1200.000
G1 X141.628 Y45.504 E0.71551
G1 X141.628 Y51.324 E0.18248
G1 X118.808 Y51.324 E0.71551
G1 X118.808 Y45.564 E0.18060
G1 X118.638 Y45.142 F10800.000
;WIPE_START
G1 F8640.000
G1 X122.100 Y45.555 E-0.76000
;WIPE_END
G1 E-0.04000 F2100.000
G1 Z0.600 F10800.000
G1 X171.514 Y45.779
G1 Z0.200
G1 E0.80000 F2100.000
;TYPE:Perimeter
G1 F1200.000
G1 X172.923 Y45.779 E0.04418
G1 X172.923 Y51.711 E0.18599
G1 X172.181 Y51.648 E0.02336
G1 X171.514 Y51.711 E0.02101
G1 X171.514 Y45.839 E0.18411
G1 X171.137 Y45.402 F10800.000
G1 F1200.000
G1 X173.300 Y45.402 E0.06783
G1 X173.300 Y52.203 E0.21322
G1 X172.820 Y52.074 E0.01558
G1 X172.183 Y52.026 E0.02003
G1 X171.606 Y52.077 E0.01816
G1 X171.137 Y52.203 E0.01524
G1 X171.137 Y45.462 E0.21134
;WIPE_START
G1 F8640.000
G1 X173.300 Y45.402 E-0.49972
G1 X173.300 Y46.529 E-0.26028
;WIPE_END
G1 E-0.04000 F2100.000
G1 Z0.600 F10800.000
G1 X169.109 Y53.209
G1 Z0.200
G1 E0.80000 F2100.000
G1 F1200.000
G1 X168.837 Y53.597 E0.01483
G1 X168.550 Y54.214 E0.02134
G1 X168.373 Y54.871 E0.02134
G1 X168.314 Y55.549 E0.02134
G1 X168.364 Y56.119 E0.01793
G1 X120.193 Y56.119 E1.51038
G1 X120.242 Y55.549 E0.01793
G1 X120.183 Y54.871 E0.02134
G1 X120.007 Y54.214 E0.02134
G1 X119.719 Y53.597 E0.02134
G1 X119.448 Y53.209 E0.01483
G1 X143.514 Y53.209 E0.75456
G1 X143.514 Y45.779 E0.23296
G1 X144.923 Y45.779 E0.04418
G1 X144.923 Y53.209 E0.23296
G1 X169.049 Y53.209 E0.75644
;WIPE_START
G1 F8640.000
G1 X168.837 Y53.597 E-0.10192
G1 X168.550 Y54.214 E-0.15714
G1 X168.373 Y54.871 E-0.15714
G1 X168.314 Y55.549 E-0.15714
G1 X168.364 Y56.119 E-0.13203
G1 X168.127 Y56.119 E-0.05464
;WIPE_END
G1 E-0.04000 F2100.000
G1 Z0.600 F10800.000
G1 X145.300 Y52.832
G1 Z0.200
G1 E0.80000 F2100.000
G1 F1200.000
G1 X169.975 Y52.832 E0.77366
G1 X169.518 Y53.283 E0.02012
G1 X169.165 Y53.786 E0.01927
G1 X168.905 Y54.343 E0.01927
G1 X168.746 Y54.937 E0.01927
G1 X168.693 Y55.549 E0.01927
G1 X168.746 Y56.161 E0.01927
G1 X168.836 Y56.496 E0.01086
G1 X119.721 Y56.496 E1.53997
M73 P4 R30
M73 Q4 S30
G1 X119.810 Y56.161 E0.01086
G1 X119.864 Y55.549 E0.01927
G1 X119.810 Y54.937 E0.01927
G1 X119.651 Y54.343 E0.01927
G1 X119.392 Y53.786 E0.01927
G1 X119.039 Y53.283 E0.01927
G1 X118.582 Y52.832 E0.02013
G1 X143.137 Y52.832 E0.76990
G1 X143.137 Y45.402 E0.23296
G1 X145.300 Y45.402 E0.06783
G1 X145.300 Y52.772 E0.23108
;WIPE_START
G1 F8640.000
G1 X148.591 Y52.780 E-0.76000
;WIPE_END
G1 E-0.04000 F2100.000
G1 Z0.600 F10800.000
G1 X116.923 Y51.695
G1 Z0.200
G1 E0.80000 F2100.000
G1 F1200.000
G1 X116.301 Y51.648 E0.01956
G1 X115.660 Y51.704 E0.02015
G1 X115.003 Y51.880 E0.02134
G1 X114.824 Y51.964 E0.00620
G1 X114.824 Y45.779 E0.19391
G1 X116.923 Y45.779 E0.06582
G1 X116.923 Y51.635 E0.18359
G1 X117.300 Y52.171 F10800.000
G1 F1200.000
G1 X116.940 Y52.074 E0.01169
G1 X116.303 Y52.026 E0.02003
G1 X115.726 Y52.077 E0.01816
G1 X115.132 Y52.236 E0.01927
G1 X114.575 Y52.496 E0.01927
G1 X114.447 Y52.586 E0.00493
G1 X114.447 Y45.402 E0.22524
G1 X117.300 Y45.402 E0.08947
G1 X117.300 Y52.111 E0.21033
;WIPE_START
G1 F8640.000
G1 X116.940 Y52.074 E-0.08355
G1 X116.303 Y52.026 E-0.14748
G1 X115.726 Y52.077 E-0.13374
G1 X115.132 Y52.236 E-0.14190
G1 X114.575 Y52.496 E-0.14190
G1 X114.447 Y52.586 E-0.03633
G1 X114.447 Y52.261 E-0.07510
;WIPE_END
G1 E-0.04000 F2100.000
G1 Z0.600 F10800.000
G1 X175.328 Y53.209
G1 Z0.200
G1 E0.80000 F2100.000
G1 F1200.000
G1 X199.514 Y53.209 E0.75832
M73 P4 R29
G1 X199.514 Y45.779 E0.23296
G1 X200.923 Y45.779 E0.04418
G1 X200.923 Y53.209 E0.23296
G1 X224.989 Y53.209 E0.75456
G1 X224.717 Y53.597 E0.01483
G1 X224.430 Y54.214 E0.02134
G1 X224.253 Y54.871 E0.02134
G1 X224.194 Y55.549 E0.02134
G1 X224.244 Y56.119 E0.01793
G1 X176.073 Y56.119 E1.51038
G1 X176.122 Y55.549 E0.01793
G1 X176.063 Y54.871 E0.02134
G1 X175.887 Y54.214 E0.02134
G1 X175.599 Y53.597 E0.02134
G1 X175.362 Y53.258 E0.01295
;WIPE_START
G1 F8640.000
G1 X178.654 Y53.252 E-0.76000
;WIPE_END
G1 E-0.04000 F2100.000
G1 Z0.600 F10800.000
G1 X201.300 Y52.832
G1 Z0.200
G1 E0.80000 F2100.000
G1 F1200.000
G1 X225.855 Y52.832 E0.76990
G1 X225.398 Y53.283 E0.02012
G1 X225.045 Y53.786 E0.01927
G1 X224.785 Y54.343 E0.01927
G1 X224.626 Y54.937 E0.01927
G1 X224.573 Y55.549 E0.01927
G1 X224.626 Y56.161 E0.01927
G1 X224.716 Y56.496 E0.01086
G1 X175.601 Y56.496 E1.53997
G1 X175.690 Y56.161 E0.01086
G1 X175.744 Y55.549 E0.01927
G1 X175.690 Y54.937 E0.01927
G1 X175.531 Y54.343 E0.01927
G1 X175.272 Y53.786 E0.01927
G1 X174.919 Y53.283 E0.01927
G1 X174.462 Y52.832 E0.02012
G1 X199.137 Y52.832 E0.77366
M73 P5 R29
M73 Q5 S30
G1 X199.137 Y45.402 E0.23296
G1 X201.300 Y45.402 E0.06783
G1 X201.300 Y52.772 E0.23108
;WIPE_START
G1 F8640.000
G1 X204.591 Y52.780 E-0.76000
;WIPE_END
G1 E-0.04000 F2100.000
G1 Z0.600 F10800.000
G1 X227.514 Y51.696
G1 Z0.200
G1 E0.80000 F2100.000
G1 F1200.000
G1 X227.514 Y45.779 E0.18551
G1 X229.613 Y45.779 E0.06582
G1 X229.613 Y51.964 E0.19391
G1 X229.434 Y51.880 E0.00620
G1 X228.763 Y51.701 E0.02175
G1 X228.061 Y51.648 E0.02209
G1 X227.573 Y51.691 E0.01534
G1 X227.137 Y52.171 F10800.000
G1 F1200.000
G1 X227.137 Y45.402 E0.21221
G1 X229.990 Y45.402 E0.08947
G1 X229.990 Y52.586 E0.22524
G1 X229.861 Y52.496 E0.00493
G1 X229.304 Y52.236 E0.01927
G1 X228.700 Y52.074 E0.01961
G1 X228.063 Y52.026 E0.02003
G1 X227.486 Y52.077 E0.01816
G1 X227.195 Y52.155 E0.00946
;WIPE_START
G1 F8640.000
G1 X227.166 Y48.864 E-0.76000
;WIPE_END
G1 E-0.04000 F2100.000
G1 Z0.600 F10800.000
G1 X117.677 Y52.455
G1 Z0.200
G1 E0.80000 F2100.000
G1 F1200.000
G1 X142.760 Y52.455 E0.78644
G1 X142.760 Y45.025 E0.23296
G1 X145.677 Y45.025 E0.09148
G1 X145.677 Y52.455 E0.23296
G1 X170.760 Y52.455 E0.78644
G1 X170.760 Y45.025 E0.23296
G1 X173.677 Y45.025 E0.09148
G1 X173.677 Y52.455 E0.23296
G1 X198.760 Y52.455 E0.78644
G1 X198.760 Y45.025 E0.23296
G1 X201.677 Y45.025 E0.09148
G1 X201.677 Y52.455 E0.23296
G1 X226.760 Y52.455 E0.78644
G1 X226.760 Y45.025 E0.23296
G1 X230.367 Y45.025 E0.11311
G1 X230.367 Y53.384 E0.26208
G1 X230.121 Y53.138 E0.01090
G1 X229.672 Y52.823 E0.01720
G1 X229.175 Y52.592 E0.01720
G1 X228.637 Y52.447 E0.01747
