; generated by PrusaSlicer 2.3.1+win64 on 2022-07-04 at 23:31:51 UTC

; 

; external perimeters extrusion width = 0.60mm
; perimeters extrusion width = 0.50mm
; infill extrusion width = 0.50mm
; solid infill extrusion width = 0.50mm
; top infill extrusion width = 0.45mm
; first layer extrusion width = 0.42mm

M73 P0 R18
M73 Q0 S18
M201 X1000 Y1000 Z200 E5000 ; sets maximum accelerations, mm/sec^2
M203 X200 Y200 Z12 E120 ; sets maximum feedrates, mm/sec
M204 P1250 R1250 T1250 ; sets acceleration (P, T) and retract acceleration (R), mm/sec^2
M205 X8.00 Y8.00 Z0.40 E4.50 ; sets the jerk limits, mm/sec
M205 S0 T0 ; sets the minimum extruding and travel feed rate, mm/sec
M107
;TYPE:Custom
M862.3 P "MK3S" ; printer model check
M862.1 P0.4 ; nozzle diameter check
M115 U3.9.3 ; tell printer latest fw version
G90 ; use absolute coordinates
M83 ; extruder relative mode
M104 S215 ; set extruder temp
M140 S67 ; set bed temp
M190 S67 ; wait for bed temp
M109 S215 ; wait for extruder temp
G28 W ; home all without mesh bed level
G80 ; mesh bed leveling
G1 Y-3.0 F1000.0 ; go outside print area
G92 E0.0
G1 X60.0 E9.0 F1000.0 ; intro line
G1 X100.0 E12.5 F1000.0 ; intro line
G92 E0.0
M221 S95

; Don't change E values below. Excessive value can damage the printer.

M907 E538 ; set extruder motor current
G21 ; set units to millimeters
G90 ; use absolute coordinates
M83 ; use relative distances for extrusion
M900 K0.05 ; Filament gcode LA 1.5
M900 K30 ; Filament gcode LA 1.0
;LAYER_CHANGE
;Z:0.2
;HEIGHT:0.2
;BEFORE_LAYER_CHANGE
G92 E0.0
;0.2


G1 E-0.80000 F2100.000
G1 Z0.400 F10800.000
;AFTER_LAYER_CHANGE
;0.2
; printing object laser_board_mount.stl id:0 copy 0
G1 X180.303 Y52.251
G1 Z0.200
G1 E0.80000 F2100.000
M204 S1000
;TYPE:Perimeter
;WIDTH:0.42
G1 F1200.000
G1 X180.373 Y51.690 E0.01772
G1 X180.472 Y51.378 E0.01026
G1 X180.609 Y51.081 E0.01026
G1 X180.934 Y50.621 E0.01767
G1 X181.344 Y50.267 E0.01698
G1 X181.669 Y50.075 E0.01182
G1 X182.205 Y49.886 E0.01784
G1 X182.743 Y49.834 E0.01695
G1 X183.116 Y49.863 E0.01172
G1 X183.668 Y50.020 E0.01799
G1 X184.154 Y50.300 E0.01758
G1 X184.403 Y50.512 E0.01025
G1 X184.624 Y50.754 E0.01028
G1 X184.923 Y51.234 E0.01774
G1 X185.097 Y51.777 E0.01789
G1 X185.141 Y52.136 E0.01134
G1 X185.106 Y52.695 E0.01756
G1 X184.935 Y53.233 E0.01770
G1 X184.766 Y53.548 E0.01120
G1 X184.431 Y53.965 E0.01678
G1 X184.160 Y54.198 E0.01118
G1 X183.700 Y54.464 E0.01666
G1 X183.363 Y54.584 E0.01123
G1 X182.799 Y54.672 E0.01789
G1 X182.203 Y54.616 E0.01876
G1 X181.674 Y54.429 E0.01762
G1 X181.364 Y54.250 E0.01119
G1 X180.936 Y53.884 E0.01767
G1 X180.622 Y53.443 E0.01698
G1 X180.473 Y53.129 E0.01088
G1 X180.373 Y52.812 E0.01044
G1 X180.310 Y52.310 E0.01584
G1 X180.685 Y52.264 F10800.000
G1 F1200.000
G1 X180.742 Y51.771 E0.01557
G1 X180.824 Y51.515 E0.00844
G1 X180.937 Y51.270 E0.00844
G1 X181.215 Y50.876 E0.01513
G1 X181.565 Y50.574 E0.01449
G1 X181.829 Y50.418 E0.00960
G1 X182.287 Y50.257 E0.01524
G1 X182.747 Y50.213 E0.01447
G1 X183.049 Y50.236 E0.00951
G1 X183.520 Y50.370 E0.01536
G1 X183.936 Y50.609 E0.01503
G1 X184.141 Y50.784 E0.00843
G1 X184.323 Y50.983 E0.00845
G1 X184.578 Y51.393 E0.01517
G1 X184.727 Y51.858 E0.01530
G1 X184.762 Y52.147 E0.00913
G1 X184.732 Y52.625 E0.01502
G1 X184.586 Y53.086 E0.01515
G1 X184.450 Y53.339 E0.00901
G1 X184.159 Y53.702 E0.01459
G1 X183.941 Y53.889 E0.00900
G1 X183.541 Y54.120 E0.01448
G1 X183.270 Y54.217 E0.00903
G1 X182.788 Y54.292 E0.01530
G1 X182.285 Y54.245 E0.01583
G1 X181.832 Y54.085 E0.01506
G1 X181.583 Y53.941 E0.00901
G1 X181.217 Y53.627 E0.01513
G1 X180.948 Y53.251 E0.01449
G1 X180.825 Y52.991 E0.00903
G1 X180.742 Y52.731 E0.00854
G1 X180.692 Y52.324 E0.01286
G1 X181.063 Y52.251 F10800.000
;TYPE:External perimeter
G1 F1200.000
G1 X181.112 Y51.852 E0.01260
G1 X181.176 Y51.651 E0.00662
G1 X181.265 Y51.459 E0.00662
G1 X181.497 Y51.132 E0.01259
G1 X181.786 Y50.882 E0.01200
G1 X181.989 Y50.761 E0.00739
G1 X182.369 Y50.628 E0.01263
G1 X182.750 Y50.591 E0.01199
G1 X182.982 Y50.609 E0.00730
G1 X183.373 Y50.720 E0.01273
G1 X183.718 Y50.919 E0.01249
G1 X183.878 Y51.056 E0.00661
G1 X184.021 Y51.211 E0.00663
G1 X184.233 Y51.553 E0.01261
G1 X184.357 Y51.939 E0.01272
G1 X184.384 Y52.158 E0.00693
G1 X184.359 Y52.556 E0.01248
G1 X184.237 Y52.938 E0.01260
G1 X184.134 Y53.130 E0.00682
G1 X183.887 Y53.438 E0.01240
G1 X183.722 Y53.580 E0.00682
G1 X183.382 Y53.777 E0.01230
G1 X183.177 Y53.850 E0.00683
G1 X182.776 Y53.912 E0.01272
G1 X182.367 Y53.874 E0.01289
G1 X181.990 Y53.741 E0.01251
G1 X181.802 Y53.632 E0.00682
G1 X181.497 Y53.371 E0.01259
G1 X181.275 Y53.059 E0.01200
G1 X181.177 Y52.852 E0.00719
G1 X181.112 Y52.650 E0.00665
G1 X181.070 Y52.310 E0.01072
G1 X180.721 Y52.044 F10800.000
;WIPE_START
G1 F8640.000
G1 X181.112 Y51.852 E-0.10630
G1 X181.176 Y51.651 E-0.04872
G1 X181.265 Y51.459 E-0.04872
G1 X181.497 Y51.132 E-0.09273
G1 X181.786 Y50.882 E-0.08836
G1 X181.989 Y50.761 E-0.05445
G1 X182.369 Y50.628 E-0.09300
G1 X182.750 Y50.591 E-0.08831
G1 X182.982 Y50.609 E-0.05376
G1 X183.339 Y50.711 E-0.08567
;WIPE_END
G1 E-0.04000 F2100.000
G1 Z0.600 F10800.000
G1 X184.994 Y53.867
G1 Z0.200
G1 E0.80000 F2100.000
;TYPE:Perimeter
G1 F1200.000
G1 X184.994 Y63.410 E0.29921
G1 X146.176 Y63.410 E1.21710
M73 P1 R18
M73 Q1 S18
G1 X146.176 Y53.880 E0.29880
G1 X146.407 Y54.166 E0.01153
G1 X146.898 Y54.587 E0.02027
G1 X147.518 Y54.895 E0.02171
G1 X148.147 Y55.032 E0.02018
G1 X148.573 Y55.045 E0.01336
G1 X149.212 Y54.946 E0.02028
G1 X149.814 Y54.691 E0.02052
G1 X150.185 Y54.439 E0.01403
G1 X150.599 Y54.035 E0.01816
G1 X150.845 Y53.688 E0.01332
G1 X151.115 Y53.100 E0.02028
G1 X151.234 Y52.465 E0.02028
G1 X151.234 Y52.079 E0.01209
G1 X151.186 Y51.696 E0.01209
G1 X150.990 Y51.080 E0.02028
G1 X150.650 Y50.530 E0.02028
G1 X150.362 Y50.214 E0.01339
G1 X149.879 Y49.850 E0.01897
G1 X149.497 Y49.659 E0.01339
G1 X148.908 Y49.492 E0.01921
G1 X148.462 Y49.455 E0.01403
G1 X147.843 Y49.515 E0.01949
G1 X147.230 Y49.731 E0.02038
G1 X146.860 Y49.946 E0.01342
G1 X146.405 Y50.337 E0.01880
G1 X146.176 Y50.622 E0.01146
G1 X146.176 Y42.362 E0.25898
G1 X184.994 Y42.362 E1.21710
G1 X184.994 Y50.633 E0.25934
G1 X184.926 Y50.525 E0.00402
G1 X184.665 Y50.240 E0.01210
G1 X184.372 Y49.990 E0.01207
G1 X183.816 Y49.670 E0.02013
G1 X183.183 Y49.491 E0.02062
G1 X182.740 Y49.455 E0.01392
G1 X182.123 Y49.515 E0.01943
G1 X181.508 Y49.731 E0.02045
G1 X181.123 Y49.960 E0.01403
G1 X180.653 Y50.365 E0.01947
G1 X180.281 Y50.891 E0.02021
G1 X180.120 Y51.242 E0.01209
G1 X180.003 Y51.609 E0.01209
G1 X179.923 Y52.251 E0.02028
G1 X180.003 Y52.893 E0.02028
G1 X180.122 Y53.268 E0.01233
G1 X180.296 Y53.634 E0.01272
G1 X180.656 Y54.140 E0.01947
G1 X181.146 Y54.559 E0.02021
G1 X181.515 Y54.773 E0.01338
G1 X182.122 Y54.987 E0.02017
G1 X182.811 Y55.052 E0.02170
G1 X183.456 Y54.951 E0.02047
G1 X183.860 Y54.808 E0.01343
G1 X184.379 Y54.506 E0.01884
G1 X184.703 Y54.229 E0.01336
G1 X184.956 Y53.914 E0.01268
;WIPE_START
G1 F8640.000
G1 X184.969 Y57.205 E-0.76000
;WIPE_END
G1 E-0.04000 F2100.000
G1 Z0.600 F10800.000
G1 X150.753 Y52.985
G1 Z0.200
G1 E0.80000 F2100.000
G1 F1200.000
G1 X150.517 Y53.499 E0.01772
G1 X150.311 Y53.789 E0.01115
G1 X149.945 Y54.146 E0.01604
G1 X149.633 Y54.358 E0.01182
G1 X149.108 Y54.580 E0.01789
G1 X148.549 Y54.667 E0.01772
G1 X148.193 Y54.656 E0.01118
G1 X147.644 Y54.537 E0.01762
G1 X147.108 Y54.270 E0.01877
G1 X146.679 Y53.903 E0.01771
G1 X146.454 Y53.624 E0.01123
G1 X146.201 Y53.152 E0.01678
G1 X146.093 Y52.812 E0.01119
G1 X146.027 Y52.283 E0.01672
G1 X146.048 Y51.928 E0.01113
G1 X146.187 Y51.376 E0.01785
G1 X146.454 Y50.878 E0.01773
G1 X146.677 Y50.601 E0.01117
G1 X147.080 Y50.255 E0.01663
G1 X147.389 Y50.075 E0.01122
G1 X147.925 Y49.886 E0.01782
G1 X148.464 Y49.834 E0.01699
G1 X148.840 Y49.864 E0.01182
G1 X149.360 Y50.012 E0.01695
G1 X149.680 Y50.172 E0.01120
G1 X150.107 Y50.494 E0.01678
G1 X150.348 Y50.758 E0.01120
G1 X150.645 Y51.239 E0.01772
G1 X150.817 Y51.777 E0.01772
G1 X150.857 Y52.102 E0.01026
G1 X150.857 Y52.430 E0.01026
G1 X150.764 Y52.926 E0.01584
G1 X150.393 Y52.857 F10800.000
G1 F1200.000
G1 X150.189 Y53.309 E0.01557
G1 X150.023 Y53.543 E0.00898
G1 X149.706 Y53.853 E0.01392
G1 X149.452 Y54.025 E0.00960
G1 X149.004 Y54.215 E0.01527
G1 X148.526 Y54.289 E0.01516
G1 X148.239 Y54.280 E0.00900
G1 X147.770 Y54.178 E0.01507
G1 X147.317 Y53.953 E0.01584
G1 X146.950 Y53.639 E0.01515
G1 X146.770 Y53.415 E0.00903
G1 X146.550 Y53.005 E0.01459
G1 X146.463 Y52.731 E0.00901
G1 X146.405 Y52.271 E0.01454
G1 X146.422 Y51.986 E0.00894
G1 X146.541 Y51.513 E0.01528
G1 X146.770 Y51.087 E0.01517
G1 X146.950 Y50.864 E0.00899
G1 X147.299 Y50.563 E0.01445
G1 X147.548 Y50.419 E0.00902
G1 X148.007 Y50.257 E0.01527
G1 X148.467 Y50.212 E0.01450
G1 X148.773 Y50.237 E0.00961
G1 X149.223 Y50.366 E0.01469
G1 X149.481 Y50.494 E0.00901
G1 X149.852 Y50.774 E0.01459
G1 X150.045 Y50.986 E0.00901
G1 X150.300 Y51.398 E0.01516
G1 X150.447 Y51.858 E0.01516
G1 X150.480 Y52.125 E0.00844
G1 X150.480 Y52.395 E0.00844
G1 X150.404 Y52.798 E0.01286
G1 X150.029 Y52.755 F10800.000
;TYPE:External perimeter
G1 F1200.000
G1 X149.861 Y53.120 E0.01260
G1 X149.735 Y53.297 E0.00681
G1 X149.466 Y53.560 E0.01179
G1 X149.271 Y53.692 E0.00739
G1 X148.900 Y53.849 E0.01264
G1 X148.503 Y53.911 E0.01260
G1 X148.285 Y53.904 E0.00681
G1 X147.896 Y53.820 E0.01251
G1 X147.527 Y53.636 E0.01290
G1 X147.222 Y53.375 E0.01258
G1 X147.085 Y53.205 E0.00684
G1 X146.898 Y52.857 E0.01240
G1 X146.832 Y52.650 E0.00682
G1 X146.784 Y52.259 E0.01236
G1 X146.797 Y52.044 E0.00675
G1 X146.895 Y51.651 E0.01270
G1 X147.085 Y51.296 E0.01260
G1 X147.222 Y51.127 E0.00681
G1 X147.518 Y50.872 E0.01228
G1 X147.707 Y50.763 E0.00682
G1 X148.089 Y50.628 E0.01271
G1 X148.470 Y50.591 E0.01200
G1 X148.705 Y50.610 E0.00739
G1 X149.087 Y50.719 E0.01243
G1 X149.281 Y50.816 E0.00682
G1 X149.597 Y51.054 E0.01240
G1 X149.743 Y51.215 E0.00682
G1 X149.955 Y51.556 E0.01260
G1 X150.077 Y51.939 E0.01260
G1 X150.103 Y52.149 E0.00662
G1 X150.103 Y52.360 E0.00662
G1 X150.040 Y52.696 E0.01072
G1 X150.292 Y53.056 F10800.000
;WIPE_START
G1 F8640.000
G1 X149.861 Y53.120 E-0.10630
G1 X149.735 Y53.297 E-0.05014
G1 X149.466 Y53.560 E-0.08685
G1 X149.271 Y53.692 E-0.05445
G1 X148.900 Y53.849 E-0.09308
G1 X148.503 Y53.911 E-0.09281
G1 X148.285 Y53.904 E-0.05018
G1 X147.896 Y53.820 E-0.09212
G1 X147.527 Y53.636 E-0.09503
G1 X147.399 Y53.526 E-0.03904
;WIPE_END
G1 E-0.04000 F2100.000
G1 Z0.600 F10800.000
G1 X145.799 Y41.985
G1 Z0.200
G1 E0.80000 F2100.000
;TYPE:Perimeter
G1 F1200.000
G1 X185.371 Y41.985 E1.24074
M73 P2 R18
M73 Q2 S18
G1 X185.371 Y63.787 E0.68358
G1 X145.799 Y63.787 E1.24074
G1 X145.799 Y42.045 E0.68170
G1 X145.422 Y41.608 F10800.000
G1 F1200.000
G1 X185.748 Y41.608 E1.26439
G1 X185.748 Y64.164 E0.70722
G1 X145.422 Y64.164 E1.26439
G1 X145.422 Y41.668 E0.70534
G1 X145.045 Y41.231 F10800.000
;TYPE:External perimeter
G1 F1200.000
G1 X186.125 Y41.231 E1.28803
M73 P3 R18
M73 Q3 S18
G1 X186.125 Y64.541 E0.73087
G1 X145.045 Y64.541 E1.28803
M73 P3 R17
G1 X145.045 Y41.291 E0.72899
G1 X145.439 Y41.299 F10800.000
;WIPE_START
G1 F8640.000
G1 X148.336 Y41.286 E-0.76000
;WIPE_END
G1 E-0.04000 F2100.000
G1 Z0.600 F10800.000
G1 X184.881 Y43.242
G1 Z0.200
G1 E0.80000 F2100.000
;TYPE:Solid infill
;WIDTH:0.421878
G1 F1200.000
G1 X184.284 Y42.645 E0.02658
G1 X183.748 Y42.645 E0.01689
G1 X184.711 Y43.608 E0.04291
G1 X184.711 Y44.144 E0.01689
G1 X183.212 Y42.645 E0.06679
G1 X182.676 Y42.645 E0.01689
G1 X184.711 Y44.680 E0.09067
G1 X184.711 Y45.216 E0.01689
G1 X182.140 Y42.645 E0.11455
G1 X181.604 Y42.645 E0.01689
G1 X184.711 Y45.752 E0.13843
G1 X184.711 Y46.287 E0.01689
G1 X181.069 Y42.645 E0.16232
G1 X180.533 Y42.645 E0.01689
G1 X184.711 Y46.823 E0.18620
G1 X184.711 Y47.359 E0.01689
G1 X179.997 Y42.645 E0.21008
G1 X179.461 Y42.645 E0.01689
G1 X184.711 Y47.895 E0.23396
G1 X184.711 Y48.431 E0.01689
G1 X178.925 Y42.645 E0.25785
G1 X178.389 Y42.645 E0.01689
G1 X184.711 Y48.967 E0.28173
G1 X184.711 Y49.503 E0.01689
G1 X177.853 Y42.645 E0.30561
M73 Q4 S17
G1 X177.317 Y42.645 E0.01689
G1 X184.287 Y49.615 E0.31060
M73 P4 R17
G1 X183.926 Y49.408 E0.01311
G1 X183.392 Y49.256 E0.01750
G1 X176.781 Y42.645 E0.29460
G1 X176.245 Y42.645 E0.01689
G1 X182.775 Y49.175 E0.29097
G1 X182.280 Y49.216 E0.01565
G1 X175.709 Y42.645 E0.29280
G1 X175.173 Y42.645 E0.01689
G1 X181.842 Y49.314 E0.29719
G1 X181.446 Y49.454 E0.01324
G1 X174.637 Y42.645 E0.30341
G1 X174.101 Y42.645 E0.01689
G1 X181.101 Y49.644 E0.31191
G1 X180.958 Y49.729 E0.00524
G1 X180.792 Y49.872 E0.00689
G1 X173.566 Y42.645 E0.32204
G1 X173.030 Y42.645 E0.01689
G1 X180.505 Y50.120 E0.33310
G1 X180.442 Y50.174 E0.00259
G1 X180.268 Y50.419 E0.00949
G1 X172.494 Y42.645 E0.34645
G1 X171.958 Y42.645 E0.01689
G1 X180.046 Y50.733 E0.36044
G1 X179.874 Y51.098 E0.01269
G1 X171.422 Y42.645 E0.37667
G1 X170.886 Y42.645 E0.01689
G1 X179.741 Y51.500 E0.39459
G1 X179.673 Y51.968 E0.01491
G1 X170.350 Y42.645 E0.41547
G1 X169.814 Y42.645 E0.01689
G1 X179.864 Y52.695 E0.44786
;WIPE_START
G1 F8640.000
G1 X177.537 Y50.368 E-0.76000
;WIPE_END
G1 E-0.04000 F2100.000
G1 Z0.600 F10800.000
G1 X184.446 Y54.598
G1 Z0.200
G1 E0.80000 F2100.000
G1 F1200.000
G1 X184.711 Y54.862 E0.01179
G1 X184.711 Y55.398 E0.01689
G1 X184.232 Y54.919 E0.02136
G1 X183.979 Y55.066 E0.00921
G1 X183.878 Y55.101 E0.00337
G1 X184.711 Y55.934 E0.03711
G1 X184.711 Y56.470 E0.01689
G1 X183.475 Y55.234 E0.05507
G1 X183.012 Y55.307 E0.01479
G1 X184.711 Y57.006 E0.07573
G1 X184.711 Y57.542 E0.01689
G1 X182.285 Y55.116 E0.10811
;WIPE_START
G1 F8640.000
G1 X184.612 Y57.443 E-0.76000
;WIPE_END
G1 E-0.04000 F2100.000
G1 Z0.600 F10800.000
G1 X184.881 Y58.248
G1 Z0.200
G1 E0.80000 F2100.000
G1 F1200.000
G1 X181.810 Y55.177 E0.13685
G1 X181.396 Y55.031 E0.01381
G1 X180.982 Y54.791 E0.01510
G1 X180.446 Y54.332 E0.02223
G1 X180.051 Y53.778 E0.02145
G1 X179.858 Y53.371 E0.01418
G1 X179.790 Y53.157 E0.00710
G1 X169.278 Y42.645 E0.46843
M73 P5 R17
M73 Q5 S17
G1 X168.742 Y42.645 E0.01689
G1 X184.711 Y58.614 E0.71161
G1 X184.711 Y59.150 E0.01689
G1 X168.206 Y42.645 E0.73549
G1 X167.670 Y42.645 E0.01689
G1 X184.711 Y59.686 E0.75937
G1 X184.711 Y60.222 E0.01689
G1 X167.134 Y42.645 E0.78326
G1 X166.598 Y42.645 E0.01689
G1 X184.711 Y60.757 E0.80714
G1 X184.711 Y61.293 E0.01689
G1 X166.063 Y42.645 E0.83102
G1 X165.527 Y42.645 E0.01689
G1 X184.711 Y61.829 E0.85490
G1 X184.711 Y62.365 E0.01689
G1 X164.991 Y42.645 E0.87879
G1 X164.455 Y42.645 E0.01689
G1 X184.711 Y62.901 E0.90267
M73 P6 R17
M73 Q6 S17
G1 X184.711 Y63.127 E0.00711
G1 X184.401 Y63.127 E0.00977
G1 X163.919 Y42.645 E0.91273
G1 X163.383 Y42.645 E0.01689
G1 X183.865 Y63.127 E0.91273
G1 X183.329 Y63.127 E0.01689
G1 X162.847 Y42.645 E0.91273
G1 X162.311 Y42.645 E0.01689
G1 X182.793 Y63.127 E0.91273
G1 X182.257 Y63.127 E0.01689
G1 X161.775 Y42.645 E0.91273
G1 X161.239 Y42.645 E0.01689
G1 X181.721 Y63.127 E0.91273
G1 X181.185 Y63.127 E0.01689
G1 X160.703 Y42.645 E0.91273
M73 P7 R17
M73 Q7 S17
G1 X160.167 Y42.645 E0.01689
G1 X180.649 Y63.127 E0.91273
G1 X180.113 Y63.127 E0.01689
G1 X159.631 Y42.645 E0.91273
G1 X159.095 Y42.645 E0.01689
G1 X179.577 Y63.127 E0.91273
G1 X179.041 Y63.127 E0.01689
G1 X158.560 Y42.645 E0.91273
G1 X158.024 Y42.645 E0.01689
G1 X178.506 Y63.127 E0.91273
G1 X177.970 Y63.127 E0.01689
G1 X157.488 Y42.645 E0.91273
G1 X156.952 Y42.645 E0.01689
G1 X177.434 Y63.127 E0.91273
M73 P8 R17
M73 Q8 S17
G1 X176.898 Y63.127 E0.01689
G1 X156.416 Y42.645 E0.91273
G1 X155.880 Y42.645 E0.01689
G1 X176.362 Y63.127 E0.91273
G1 X175.826 Y63.127 E0.01689
G1 X155.344 Y42.645 E0.91273
G1 X154.808 Y42.645 E0.01689
G1 X175.290 Y63.127 E0.91273
G1 X174.754 Y63.127 E0.01689
G1 X154.272 Y42.645 E0.91273
G1 X153.736 Y42.645 E0.01689
G1 X174.218 Y63.127 E0.91273
G1 X173.682 Y63.127 E0.01689
G1 X153.200 Y42.645 E0.91273
M73 P8 R16
G1 X152.664 Y42.645 E0.01689
G1 X173.146 Y63.127 E0.91273
M73 P9 R16
M73 Q9 S17
G1 X172.610 Y63.127 E0.01689
G1 X152.128 Y42.645 E0.91273
G1 X151.592 Y42.645 E0.01689
G1 X172.074 Y63.127 E0.91273
G1 X171.538 Y63.127 E0.01689
G1 X151.057 Y42.645 E0.91273
M73 Q9 S16
