; generated by PrusaSlicer 2.3.1+win64 on 2022-04-05 at 23:41:42 UTC

; 

; external perimeters extrusion width = 0.60mm
; perimeters extrusion width = 0.50mm
; infill extrusion width = 0.50mm
; solid infill extrusion width = 0.50mm
; top infill extrusion width = 0.45mm
; first layer extrusion width = 0.42mm

M73 P0 R343
M73 Q0 S346
M201 X1000 Y1000 Z200 E5000 ; sets maximum accelerations, mm/sec^2
M203 X200 Y200 Z12 E120 ; sets maximum feedrates, mm/sec
M204 P1250 R1250 T1250 ; sets acceleration (P, T) and retract acceleration (R), mm/sec^2
M205 X8.00 Y8.00 Z0.40 E4.50 ; sets the jerk limits, mm/sec
M205 S0 T0 ; sets the minimum extruding and travel feed rate, mm/sec
M107
;TYPE:Custom
M862.3 P "MK3S" ; printer model check
M862.1 P0.4 ; nozzle diameter check
M115 U3.9.3 ; tell printer latest fw version
G90 ; use absolute coordinates
M83 ; extruder relative mode
M104 S215 ; set extruder temp
M140 S67 ; set bed temp
M190 S67 ; wait for bed temp
M109 S215 ; wait for extruder temp
G28 W ; home all without mesh bed level
G80 ; mesh bed leveling
G1 Y-3.0 F1000.0 ; go outside print area
G92 E0.0
G1 X60.0 E9.0 F1000.0 ; intro line
G1 X100.0 E12.5 F1000.0 ; intro line
G92 E0.0
M221 S95

; Don't change E values below. Excessive value can damage the printer.

M907 E538 ; set extruder motor current
G21 ; set units to millimeters
G90 ; use absolute coordinates
M83 ; use relative distances for extrusion
M900 K0.05 ; Filament gcode LA 1.5
M900 K30 ; Filament gcode LA 1.0
;LAYER_CHANGE
;Z:0.2
;HEIGHT:0.2
;BEFORE_LAYER_CHANGE
G92 E0.0
;0.2


M73 Q0 S345
G1 E-0.80000 F2100.000
G1 Z0.400 F10800.000
;AFTER_LAYER_CHANGE
;0.2
; printing object left_plastic.stl id:0 copy 0
G1 X168.392 Y107.291
G1 Z0.200
G1 E0.80000 F2100.000
M204 S1000
;TYPE:Perimeter
;WIDTH:0.42
G1 F1200.000
G1 X168.706 Y106.842 E0.01720
G1 X169.094 Y106.454 E0.01720
G1 X169.544 Y106.139 E0.01720
G1 X170.041 Y105.908 E0.01720
G1 X170.571 Y105.766 E0.01720
G1 X171.086 Y105.720 E0.01622
G1 X171.656 Y105.763 E0.01791
G1 X172.194 Y105.908 E0.01745
G1 X172.691 Y106.139 E0.01720
G1 X173.140 Y106.454 E0.01720
G1 X173.528 Y106.842 E0.01720
G1 X173.843 Y107.291 E0.01720
G1 X174.061 Y107.760 E0.01622
G1 X174.216 Y108.310 E0.01791
G1 X174.264 Y108.865 E0.01745
G1 X174.217 Y109.411 E0.01720
G1 X174.075 Y109.941 E0.01720
G1 X173.843 Y110.438 E0.01720
G1 X173.528 Y110.888 E0.01720
G1 X173.140 Y111.276 E0.01720
G1 X172.691 Y111.590 E0.01720
G1 X172.222 Y111.809 E0.01623
G1 X171.672 Y111.963 E0.01791
G1 X171.117 Y112.012 E0.01745
G1 X170.571 Y111.964 E0.01720
G1 X170.041 Y111.822 E0.01720
G1 X169.544 Y111.590 E0.01720
G1 X169.094 Y111.276 E0.01720
G1 X168.706 Y110.888 E0.01720
G1 X168.392 Y110.438 E0.01720
G1 X168.173 Y109.969 E0.01623
G1 X168.019 Y109.419 E0.01791
G1 X167.970 Y108.865 E0.01745
G1 X168.018 Y108.318 E0.01720
G1 X168.160 Y107.789 E0.01720
G1 X168.366 Y107.346 E0.01532
G1 X168.708 Y107.505 F10800.000
G1 F1200.000
G1 X168.996 Y107.085 E0.01597
G1 X169.338 Y106.744 E0.01513
G1 X169.733 Y106.467 E0.01513
G1 X170.170 Y106.263 E0.01513
G1 X170.637 Y106.138 E0.01513
G1 X171.089 Y106.099 E0.01423
G1 X171.592 Y106.137 E0.01584
G1 X172.064 Y106.263 E0.01531
G1 X172.502 Y106.467 E0.01513
G1 X172.897 Y106.744 E0.01513
G1 X173.238 Y107.085 E0.01513
G1 X173.515 Y107.481 E0.01513
G1 X173.707 Y107.892 E0.01423
G1 X173.843 Y108.378 E0.01585
G1 X173.886 Y108.865 E0.01531
G1 X173.844 Y109.346 E0.01513
G1 X173.719 Y109.812 E0.01513
G1 X173.515 Y110.249 E0.01513
G1 X173.238 Y110.645 E0.01513
G1 X172.897 Y110.986 E0.01513
G1 X172.502 Y111.263 E0.01513
G1 X172.090 Y111.454 E0.01423
G1 X171.604 Y111.591 E0.01585
G1 X171.117 Y111.633 E0.01531
G1 X170.637 Y111.591 E0.01513
G1 X170.170 Y111.467 E0.01513
G1 X169.733 Y111.263 E0.01513
G1 X169.338 Y110.986 E0.01513
G1 X168.996 Y110.645 E0.01513
G1 X168.720 Y110.249 E0.01513
G1 X168.528 Y109.838 E0.01423
G1 X168.391 Y109.351 E0.01585
G1 X168.349 Y108.865 E0.01531
G1 X168.391 Y108.384 E0.01513
G1 X168.516 Y107.918 E0.01513
G1 X168.683 Y107.559 E0.01240
G1 X169.025 Y107.719 F10800.000
G1 F1200.000
G1 X169.286 Y107.329 E0.01473
G1 X169.581 Y107.034 E0.01306
G1 X169.922 Y106.795 E0.01306
G1 X170.300 Y106.619 E0.01306
G1 X170.702 Y106.511 E0.01306
G1 X171.091 Y106.477 E0.01223
G1 X171.529 Y106.510 E0.01378
G1 X171.935 Y106.619 E0.01317
G1 X172.312 Y106.795 E0.01306
G1 X172.654 Y107.034 E0.01306
G1 X172.948 Y107.329 E0.01306
G1 X173.187 Y107.670 E0.01306
G1 X173.352 Y108.023 E0.01223
G1 X173.471 Y108.446 E0.01378
G1 X173.507 Y108.865 E0.01317
G1 X173.471 Y109.280 E0.01306
G1 X173.363 Y109.682 E0.01306
G1 X173.187 Y110.060 E0.01306
G1 X172.948 Y110.401 E0.01306
G1 X172.654 Y110.696 E0.01306
G1 X172.312 Y110.935 E0.01306
G1 X171.959 Y111.100 E0.01223
G1 X171.536 Y111.218 E0.01378
G1 X171.117 Y111.255 E0.01317
G1 X170.702 Y111.219 E0.01306
G1 X170.300 Y111.111 E0.01306
G1 X169.922 Y110.935 E0.01306
G1 X169.581 Y110.696 E0.01306
G1 X169.286 Y110.401 E0.01306
G1 X169.047 Y110.060 E0.01306
G1 X168.883 Y109.706 E0.01223
G1 X168.764 Y109.283 E0.01378
G1 X168.727 Y108.865 E0.01317
G1 X168.764 Y108.450 E0.01306
G1 X168.871 Y108.047 E0.01306
G1 X168.999 Y107.773 E0.00949
G1 X169.375 Y107.859 F10800.000
;TYPE:External perimeter
G1 F1200.000
G1 X169.576 Y107.572 E0.01099
G1 X169.824 Y107.324 E0.01099
G1 X170.112 Y107.123 E0.01099
G1 X170.429 Y106.975 E0.01099
G1 X170.768 Y106.884 E0.01099
G1 X171.093 Y106.855 E0.01023
G1 X171.465 Y106.884 E0.01171
G1 X171.805 Y106.975 E0.01103
G1 X172.123 Y107.123 E0.01099
G1 X172.410 Y107.324 E0.01099
G1 X172.658 Y107.572 E0.01099
G1 X172.859 Y107.859 E0.01099
G1 X172.997 Y108.155 E0.01023
G1 X173.098 Y108.514 E0.01171
G1 X173.129 Y108.865 E0.01103
G1 X173.098 Y109.214 E0.01099
G1 X173.008 Y109.553 E0.01099
G1 X172.859 Y109.871 E0.01099
G1 X172.658 Y110.158 E0.01099
G1 X172.410 Y110.406 E0.01099
G1 X172.123 Y110.607 E0.01099
G1 X171.827 Y110.745 E0.01023
G1 X171.468 Y110.846 E0.01171
G1 X171.117 Y110.876 E0.01103
G1 X170.768 Y110.846 E0.01099
G1 X170.429 Y110.755 E0.01099
G1 X170.112 Y110.607 E0.01099
G1 X169.824 Y110.406 E0.01099
G1 X169.576 Y110.158 E0.01099
G1 X169.375 Y109.871 E0.01099
G1 X169.237 Y109.575 E0.01023
G1 X169.136 Y109.215 E0.01171
G1 X169.106 Y108.865 E0.01103
G1 X169.136 Y108.516 E0.01099
G1 X169.227 Y108.177 E0.01099
G1 X169.350 Y107.913 E0.00911
G1 X169.200 Y107.555 F10800.000
;WIPE_START
G1 F8640.000
G1 X169.576 Y107.572 E-0.09464
G1 X169.824 Y107.324 E-0.08096
G1 X170.112 Y107.123 E-0.08096
G1 X170.429 Y106.975 E-0.08097
G1 X170.768 Y106.884 E-0.08096
G1 X171.093 Y106.855 E-0.07534
G1 X171.465 Y106.884 E-0.08621
G1 X171.805 Y106.975 E-0.08126
G1 X172.123 Y107.123 E-0.08097
G1 X172.186 Y107.167 E-0.01773
;WIPE_END
G1 E-0.04000 F2100.000
G1 Z0.600 F10800.000
G1 X171.117 Y67.012
G1 Z0.200
G1 E0.80000 F2100.000
;TYPE:Perimeter
G1 F1200.000
G1 X170.571 Y66.964 E0.01720
G1 X170.071 Y66.830 E0.01622
G1 X169.550 Y66.595 E0.01791
G1 X169.094 Y66.276 E0.01745
G1 X168.706 Y65.888 E0.01720
G1 X168.392 Y65.438 E0.01720
G1 X168.160 Y64.941 E0.01720
G1 X168.018 Y64.411 E0.01720
G1 X167.970 Y63.865 E0.01720
G1 X168.018 Y63.318 E0.01720
G1 X168.160 Y62.789 E0.01720
G1 X168.392 Y62.291 E0.01720
G1 X168.706 Y61.842 E0.01720
G1 X169.094 Y61.454 E0.01720
G1 X169.544 Y61.139 E0.01720
G1 X170.041 Y60.908 E0.01720
G1 X170.571 Y60.766 E0.01720
G1 X171.086 Y60.720 E0.01622
G1 X171.656 Y60.763 E0.01791
G1 X172.194 Y60.908 E0.01745
G1 X172.691 Y61.139 E0.01720
G1 X173.140 Y61.454 E0.01720
G1 X173.528 Y61.842 E0.01720
G1 X173.843 Y62.291 E0.01720
G1 X174.061 Y62.760 E0.01622
G1 X174.216 Y63.310 E0.01791
G1 X174.264 Y63.865 E0.01745
G1 X174.217 Y64.411 E0.01720
G1 X174.075 Y64.941 E0.01720
G1 X173.843 Y65.438 E0.01720
G1 X173.528 Y65.888 E0.01720
G1 X173.140 Y66.276 E0.01720
G1 X172.691 Y66.590 E0.01720
G1 X172.222 Y66.809 E0.01623
G1 X171.672 Y66.963 E0.01791
G1 X171.177 Y67.007 E0.01557
G1 X171.144 Y66.631 F10800.000
G1 F1200.000
G1 X170.637 Y66.591 E0.01597
G1 X170.198 Y66.474 E0.01423
G1 X169.738 Y66.266 E0.01585
G1 X169.338 Y65.986 E0.01531
G1 X168.996 Y65.645 E0.01513
G1 X168.720 Y65.249 E0.01513
G1 X168.516 Y64.812 E0.01513
G1 X168.391 Y64.346 E0.01513
G1 X168.349 Y63.865 E0.01513
G1 X168.391 Y63.384 E0.01513
G1 X168.516 Y62.918 E0.01513
G1 X168.720 Y62.481 E0.01513
G1 X168.996 Y62.085 E0.01513
G1 X169.338 Y61.744 E0.01513
G1 X169.733 Y61.467 E0.01513
G1 X170.170 Y61.263 E0.01513
G1 X170.637 Y61.138 E0.01513
G1 X171.089 Y61.099 E0.01423
G1 X171.592 Y61.137 E0.01584
G1 X172.064 Y61.263 E0.01531
G1 X172.502 Y61.467 E0.01513
G1 X172.897 Y61.744 E0.01513
G1 X173.238 Y62.085 E0.01513
G1 X173.515 Y62.481 E0.01513
G1 X173.707 Y62.892 E0.01423
G1 X173.843 Y63.378 E0.01585
G1 X173.886 Y63.865 E0.01531
G1 X173.844 Y64.346 E0.01513
G1 X173.719 Y64.812 E0.01513
G1 X173.515 Y65.249 E0.01513
G1 X173.238 Y65.645 E0.01513
G1 X172.897 Y65.986 E0.01513
G1 X172.502 Y66.263 E0.01513
G1 X172.090 Y66.454 E0.01423
G1 X171.604 Y66.591 E0.01585
G1 X171.204 Y66.626 E0.01258
G1 X171.536 Y66.218 F10800.000
G1 F1200.000
G1 X171.117 Y66.255 E0.01317
G1 X170.702 Y66.219 E0.01306
G1 X170.326 Y66.118 E0.01223
G1 X169.925 Y65.937 E0.01378
G1 X169.581 Y65.696 E0.01317
G1 X169.286 Y65.401 E0.01306
G1 X169.047 Y65.060 E0.01306
G1 X168.871 Y64.682 E0.01306
G1 X168.764 Y64.280 E0.01306
G1 X168.727 Y63.865 E0.01306
G1 X168.764 Y63.450 E0.01306
G1 X168.871 Y63.047 E0.01306
G1 X169.047 Y62.670 E0.01306
G1 X169.286 Y62.329 E0.01306
G1 X169.581 Y62.034 E0.01306
G1 X169.922 Y61.795 E0.01306
G1 X170.300 Y61.619 E0.01306
G1 X170.702 Y61.511 E0.01306
G1 X171.091 Y61.477 E0.01223
G1 X171.529 Y61.510 E0.01378
G1 X171.935 Y61.619 E0.01317
G1 X172.312 Y61.795 E0.01306
G1 X172.654 Y62.034 E0.01306
G1 X172.948 Y62.329 E0.01306
G1 X173.187 Y62.670 E0.01306
G1 X173.352 Y63.023 E0.01223
G1 X173.471 Y63.446 E0.01378
G1 X173.507 Y63.865 E0.01317
G1 X173.471 Y64.280 E0.01306
G1 X173.363 Y64.682 E0.01306
G1 X173.187 Y65.060 E0.01306
G1 X172.948 Y65.401 E0.01306
G1 X172.654 Y65.696 E0.01306
G1 X172.312 Y65.935 E0.01306
G1 X171.959 Y66.100 E0.01223
G1 X171.594 Y66.202 E0.01190
G1 X171.492 Y65.839 F10800.000
;TYPE:External perimeter
G1 F1200.000
G1 X171.117 Y65.876 E0.01180
G1 X170.768 Y65.846 E0.01099
G1 X170.453 Y65.761 E0.01023
G1 X170.113 Y65.608 E0.01171
G1 X169.824 Y65.406 E0.01103
G1 X169.576 Y65.158 E0.01099
G1 X169.375 Y64.871 E0.01099
G1 X169.227 Y64.553 E0.01099
G1 X169.136 Y64.214 E0.01099
G1 X169.106 Y63.865 E0.01099
G1 X169.136 Y63.516 E0.01099
G1 X169.227 Y63.177 E0.01099
G1 X169.375 Y62.859 E0.01099
G1 X169.576 Y62.572 E0.01099
G1 X169.824 Y62.324 E0.01099
G1 X170.112 Y62.123 E0.01099
G1 X170.429 Y61.975 E0.01099
G1 X170.768 Y61.884 E0.01099
G1 X171.093 Y61.855 E0.01023
G1 X171.465 Y61.884 E0.01171
G1 X171.805 Y61.975 E0.01103
G1 X172.123 Y62.123 E0.01099
G1 X172.410 Y62.324 E0.01099
G1 X172.658 Y62.572 E0.01099
G1 X172.859 Y62.859 E0.01099
G1 X172.997 Y63.155 E0.01023
G1 X173.098 Y63.514 E0.01171
G1 X173.129 Y63.865 E0.01103
G1 X173.098 Y64.214 E0.01099
G1 X173.008 Y64.553 E0.01099
G1 X172.859 Y64.871 E0.01099
G1 X172.658 Y65.158 E0.01099
G1 X172.410 Y65.406 E0.01099
G1 X172.123 Y65.607 E0.01099
G1 X171.827 Y65.745 E0.01023
G1 X171.549 Y65.823 E0.00905
G1 X171.366 Y66.194 F10800.000
;WIPE_START
G1 F8640.000
G1 X171.117 Y65.876 E-0.10055
G1 X170.768 Y65.846 E-0.08096
G1 X170.453 Y65.761 E-0.07534
G1 X170.113 Y65.608 E-0.08622
G1 X169.824 Y65.406 E-0.08125
G1 X169.576 Y65.158 E-0.08096
G1 X169.375 Y64.871 E-0.08096
G1 X169.227 Y64.553 E-0.08097
G1 X169.136 Y64.214 E-0.08096
G1 X169.132 Y64.163 E-0.01182
;WIPE_END
G1 E-0.04000 F2100.000
G1 Z0.600 F10800.000
G1 X52.076 Y45.506
G1 Z0.200
G1 E0.80000 F2100.000
;TYPE:Perimeter
G1 F1200.000
G1 X96.159 Y45.506 E1.38217
G1 X96.159 Y29.406 E0.50480
G1 X224.576 Y29.406 E4.02644
G1 X224.576 Y142.324 E3.54045
G1 X122.824 Y142.324 E3.19037
M73 P0 R342
G1 X122.824 Y86.324 E1.75584
G1 X23.659 Y86.324 E3.10926
G1 X23.659 Y29.406 E1.78461
G1 X52.076 Y29.406 E0.89101
G1 X52.076 Y45.446 E0.50292
G1 X52.453 Y45.129 F10800.000
G1 F1200.000
G1 X95.781 Y45.129 E1.35853
G1 X95.781 Y29.029 E0.50480
G1 X224.953 Y29.029 E4.05009
G1 X224.953 Y142.701 E3.56410
M73 Q0 S344
G1 X122.447 Y142.701 E3.21402
G1 X122.447 Y86.701 E1.75584
G1 X23.281 Y86.701 E3.10926
G1 X23.281 Y29.029 E1.80826
G1 X52.453 Y29.029 E0.91466
G1 X52.453 Y45.069 E0.50292
G1 X52.830 Y44.752 F10800.000
G1 F1200.000
G1 X95.404 Y44.752 E1.33488
G1 X95.404 Y28.652 E0.50480
G1 X225.330 Y28.652 E4.07373
M73 P0 R341
G1 X225.330 Y143.078 E3.58774
G1 X122.070 Y143.078 E3.23766
G1 X122.070 Y87.078 E1.75584
G1 X22.904 Y87.078 E3.10926
G1 X22.904 Y28.652 E1.83190
G1 X52.830 Y28.652 E0.93830
G1 X52.830 Y44.692 E0.50292
G1 X53.207 Y44.375 F10800.000
;TYPE:External perimeter
G1 F1200.000
G1 X95.027 Y44.375 E1.31124
G1 X95.027 Y28.275 E0.50480
G1 X225.707 Y28.275 E4.09738
M73 Q0 S343
G1 X225.707 Y143.455 E3.61139
G1 X121.693 Y143.455 E3.26131
G1 X121.693 Y87.455 E1.75584
G1 X22.527 Y87.455 E3.10926
G1 X22.527 Y28.275 E1.85555
G1 X53.207 Y28.275 E0.96195
G1 X53.207 Y44.315 E0.50292
G1 X53.349 Y44.749 F10800.000
;WIPE_START
G1 F8640.000
G1 X56.499 Y44.320 E-0.76000
;WIPE_END
G1 E-0.04000 F2100.000
G1 Z0.600 F10800.000
G1 X224.463 Y30.283
G1 Z0.200
G1 E0.80000 F2100.000
;TYPE:Solid infill
;WIDTH:0.420617
G1 F1200.000
G1 X223.869 Y29.689 E0.02638
G1 X223.335 Y29.689 E0.01678
G1 X224.293 Y30.647 E0.04256
G1 X224.293 Y31.181 E0.01678
G1 X222.801 Y29.689 E0.06629
G1 X222.267 Y29.689 E0.01678
G1 X224.293 Y31.716 E0.09001
G1 X224.293 Y32.250 E0.01678
G1 X221.732 Y29.689 E0.11374
G1 X221.198 Y29.689 E0.01678
G1 X224.293 Y32.784 E0.13746
G1 X224.293 Y33.318 E0.01678
G1 X220.664 Y29.689 E0.16118
M73 P0 R340
G1 X220.130 Y29.689 E0.01678
G1 X224.293 Y33.852 E0.18491
G1 X224.293 Y34.386 E0.01678
G1 X219.596 Y29.689 E0.20863
G1 X219.062 Y29.689 E0.01678
G1 X224.293 Y34.920 E0.23235
G1 X224.293 Y35.455 E0.01678
G1 X218.528 Y29.689 E0.25608
G1 X217.993 Y29.689 E0.01678
G1 X224.293 Y35.989 E0.27980
G1 X224.293 Y36.523 E0.01678
G1 X217.459 Y29.689 E0.30352
G1 X216.925 Y29.689 E0.01678
G1 X224.293 Y37.057 E0.32725
G1 X224.293 Y37.591 E0.01678
G1 X216.391 Y29.689 E0.35097
G1 X215.857 Y29.689 E0.01678
G1 X224.293 Y38.125 E0.37470
G1 X224.293 Y38.659 E0.01678
G1 X215.323 Y29.689 E0.39842
G1 X214.789 Y29.689 E0.01678
G1 X224.293 Y39.194 E0.42214
G1 X224.293 Y39.728 E0.01678
G1 X214.254 Y29.689 E0.44587
G1 X213.720 Y29.689 E0.01678
G1 X224.293 Y40.262 E0.46959
G1 X224.293 Y40.796 E0.01678
G1 X213.186 Y29.689 E0.49331
G1 X212.652 Y29.689 E0.01678
G1 X224.293 Y41.330 E0.51704
G1 X224.293 Y41.864 E0.01678
G1 X212.118 Y29.689 E0.54076
G1 X211.584 Y29.689 E0.01678
G1 X224.293 Y42.398 E0.56448
G1 X224.293 Y42.933 E0.01678
G1 X211.050 Y29.689 E0.58821
G1 X210.515 Y29.689 E0.01678
G1 X224.293 Y43.467 E0.61193
G1 X224.293 Y44.001 E0.01678
G1 X209.981 Y29.689 E0.63566
G1 X209.447 Y29.689 E0.01678
G1 X224.293 Y44.535 E0.65938
G1 X224.293 Y45.069 E0.01678
G1 X208.913 Y29.689 E0.68310
G1 X208.379 Y29.689 E0.01678
G1 X224.293 Y45.603 E0.70683
G1 X224.293 Y46.137 E0.01678
G1 X207.845 Y29.689 E0.73055
G1 X207.311 Y29.689 E0.01678
G1 X224.293 Y46.672 E0.75427
G1 X224.293 Y47.206 E0.01678
G1 X206.776 Y29.689 E0.77800
G1 X206.242 Y29.689 E0.01678
G1 X224.293 Y47.740 E0.80172
G1 X224.293 Y48.274 E0.01678
G1 X205.708 Y29.689 E0.82544
G1 X205.174 Y29.689 E0.01678
G1 X224.293 Y48.808 E0.84917
G1 X224.293 Y49.342 E0.01678
G1 X204.640 Y29.689 E0.87289
G1 X204.106 Y29.689 E0.01678
G1 X224.293 Y49.876 E0.89662
G1 X224.293 Y50.411 E0.01678
G1 X203.572 Y29.689 E0.92034
G1 X203.037 Y29.689 E0.01678
G1 X224.293 Y50.945 E0.94406
G1 X224.293 Y51.479 E0.01678
G1 X202.503 Y29.689 E0.96779
M73 Q0 S342
G1 X201.969 Y29.689 E0.01678
G1 X224.293 Y52.013 E0.99151
G1 X224.293 Y52.547 E0.01678
G1 X201.435 Y29.689 E1.01523
G1 X200.901 Y29.689 E0.01678
G1 X224.293 Y53.081 E1.03896
G1 X224.293 Y53.615 E0.01678
G1 X200.367 Y29.689 E1.06268
G1 X199.833 Y29.689 E0.01678
G1 X224.293 Y54.150 E1.08640
G1 X224.293 Y54.684 E0.01678
G1 X199.298 Y29.689 E1.11013
G1 X198.764 Y29.689 E0.01678
G1 X224.293 Y55.218 E1.13385
G1 X224.293 Y55.752 E0.01678
