; generated by PrusaSlicer 2.3.1+win64 on 2022-04-07 at 03:04:08 UTC

; 

; external perimeters extrusion width = 0.45mm
; perimeters extrusion width = 0.45mm
; infill extrusion width = 0.45mm
; solid infill extrusion width = 0.45mm
; top infill extrusion width = 0.40mm
; support material extrusion width = 0.35mm
; first layer extrusion width = 0.42mm

M73 P0 R41
M73 Q0 S42
M201 X1000 Y1000 Z200 E5000 ; sets maximum accelerations, mm/sec^2
M203 X200 Y200 Z12 E120 ; sets maximum feedrates, mm/sec
M204 P1250 R1250 T1250 ; sets acceleration (P, T) and retract acceleration (R), mm/sec^2
M205 X8.00 Y8.00 Z0.40 E4.50 ; sets the jerk limits, mm/sec
M205 S0 T0 ; sets the minimum extruding and travel feed rate, mm/sec
M107
;TYPE:Custom
M862.3 P "MK3S" ; printer model check
M862.1 P0.4 ; nozzle diameter check
M115 U3.9.3 ; tell printer latest fw version
G90 ; use absolute coordinates
M83 ; extruder relative mode
M104 S215 ; set extruder temp
M140 S67 ; set bed temp
M190 S67 ; wait for bed temp
M109 S215 ; wait for extruder temp
G28 W ; home all without mesh bed level
G80 ; mesh bed leveling
G1 Y-3.0 F1000.0 ; go outside print area
G92 E0.0
G1 X60.0 E9.0 F1000.0 ; intro line
G1 X100.0 E12.5 F1000.0 ; intro line
G92 E0.0
M221 S95

; Don't change E values below. Excessive value can damage the printer.
M907 E430 ; set extruder motor current
G21 ; set units to millimeters
G90 ; use absolute coordinates
M83 ; use relative distances for extrusion
M900 K0.05 ; Filament gcode LA 1.5
M900 K30 ; Filament gcode LA 1.0
;LAYER_CHANGE
;Z:0.2
;HEIGHT:0.2
;BEFORE_LAYER_CHANGE
G92 E0.0
;0.2


M73 Q0 S41
G1 E-0.80000 F2100.000
G1 Z0.400 F10800.000
;AFTER_LAYER_CHANGE
;0.2
G1 X147.305 Y97.089
G1 Z0.200
G1 E0.80000 F2100.000
M204 S1000
;TYPE:Skirt
;WIDTH:0.42
G1 F1200.000
G1 X148.739 Y97.095 E0.04494
G1 X149.462 Y97.301 E0.02357
G1 X149.791 Y97.472 E0.01165
G1 X150.579 Y98.233 E0.03435
G1 X150.810 Y98.656 E0.01511
G1 X151.003 Y99.313 E0.02148
G1 X151.019 Y117.727 E0.57735
G1 X150.775 Y118.505 E0.02558
G1 X150.565 Y118.824 E0.01195
G1 X149.991 Y119.391 E0.02531
G1 X149.429 Y119.694 E0.02005
G1 X148.873 Y119.815 E0.01784
G1 X148.094 Y119.804 E0.02440
G1 X147.897 Y119.833 E0.00626
G1 X131.373 Y119.817 E0.51808
G1 X130.660 Y119.600 E0.02339
G1 X130.097 Y119.236 E0.02102
G1 X129.579 Y118.670 E0.02407
G1 X129.253 Y118.000 E0.02335
G1 X129.148 Y117.449 E0.01759
G1 X129.148 Y114.451 E0.09401
G1 X120.848 Y114.451 E0.26023
G1 X120.830 Y117.861 E0.10692
G1 X120.652 Y118.417 E0.01831
G1 X120.365 Y118.866 E0.01670
G1 X119.877 Y119.354 E0.02164
G1 X119.147 Y119.734 E0.02579
G1 X118.763 Y119.810 E0.01227
G1 X117.928 Y119.804 E0.02620
G1 X117.730 Y119.833 E0.00626
G1 X101.312 Y119.833 E0.51479
G1 X100.538 Y119.620 E0.02518
G1 X100.204 Y119.447 E0.01179
G1 X99.343 Y118.570 E0.03853
G1 X99.093 Y118.019 E0.01897
G1 X98.981 Y117.462 E0.01781
G1 X98.981 Y99.195 E0.57274
G1 X99.277 Y98.315 E0.02910
G1 X99.475 Y98.050 E0.01039
G1 X100.056 Y97.496 E0.02516
G1 X100.688 Y97.187 E0.02205
G1 X101.070 Y97.111 E0.01222
G1 X101.906 Y97.117 E0.02620
G1 X102.103 Y97.088 E0.00626
G1 X102.695 Y97.088 E0.01855
G1 X102.781 Y96.878 E0.00711
G1 X102.982 Y96.563 E0.01173
G1 X103.602 Y95.952 E0.02729
G1 X103.969 Y95.740 E0.01329
G1 X104.579 Y95.558 E0.01994
G1 X145.471 Y95.566 E1.28214
G1 X146.027 Y95.738 E0.01825
G1 X146.439 Y95.985 E0.01506
G1 X147.051 Y96.605 E0.02733
G1 X147.224 Y96.887 E0.01035
G1 X147.283 Y97.033 E0.00496
G1 X147.039 Y97.467 F10800.000
G1 F1200.000
G1 X148.661 Y97.465 E0.05085
G1 X149.338 Y97.658 E0.02208
G1 X149.591 Y97.792 E0.00896
G1 X150.264 Y98.441 E0.02932
G1 X150.454 Y98.783 E0.01227
G1 X150.634 Y99.394 E0.01995
G1 X150.641 Y117.696 E0.57387
G1 X150.426 Y118.361 E0.02190
G1 X150.266 Y118.594 E0.00886
G1 X149.748 Y119.101 E0.02273
G1 X149.278 Y119.348 E0.01666
G1 X148.857 Y119.438 E0.01348
G1 X148.066 Y119.426 E0.02480
G1 X147.881 Y119.456 E0.00589
G1 X146.603 Y119.456 E0.04007
G1 X146.494 Y119.440 E0.00346
G1 X146.384 Y119.456 E0.00346
G1 X145.094 Y119.456 E0.04044
G1 X144.985 Y119.440 E0.00346
G1 X144.876 Y119.456 E0.00346
G1 X143.586 Y119.456 E0.04044
G1 X143.477 Y119.440 E0.00346
G1 X143.368 Y119.456 E0.00346
G1 X142.078 Y119.456 E0.04044
G1 X141.969 Y119.440 E0.00346
G1 X141.859 Y119.456 E0.00346
G1 X140.569 Y119.456 E0.04044
G1 X140.460 Y119.440 E0.00346
G1 X140.351 Y119.456 E0.00346
G1 X139.061 Y119.456 E0.04044
G1 X138.952 Y119.440 E0.00346
G1 X138.843 Y119.456 E0.00346
G1 X137.553 Y119.456 E0.04044
G1 X137.444 Y119.440 E0.00346
G1 X137.335 Y119.456 E0.00346
G1 X131.453 Y119.448 E0.18441
G1 X130.838 Y119.267 E0.02011
G1 X130.354 Y118.960 E0.01795
G1 X129.905 Y118.479 E0.02066
G1 X129.603 Y117.859 E0.02161
G1 X129.525 Y117.433 E0.01359
G1 X129.525 Y114.074 E0.10531
G1 X120.473 Y114.074 E0.28381
G1 X120.453 Y117.827 E0.11769
G1 X120.303 Y118.274 E0.01476
G1 X120.084 Y118.613 E0.01266
G1 X119.632 Y119.065 E0.02005
G1 X119.004 Y119.384 E0.02209
G1 X118.716 Y119.436 E0.00915
G1 X117.900 Y119.427 E0.02561
G1 X117.714 Y119.456 E0.00588
G1 X116.436 Y119.456 E0.04007
G1 X116.327 Y119.440 E0.00346
G1 X116.218 Y119.456 E0.00346
G1 X114.928 Y119.456 E0.04044
G1 X114.819 Y119.440 E0.00346
G1 X114.710 Y119.456 E0.00346
G1 X113.420 Y119.456 E0.04044
G1 X113.311 Y119.440 E0.00346
G1 X113.201 Y119.456 E0.00346
G1 X111.911 Y119.456 E0.04044
G1 X111.802 Y119.440 E0.00346
G1 X111.693 Y119.456 E0.00346
G1 X110.403 Y119.456 E0.04044
G1 X110.294 Y119.440 E0.00346
G1 X110.185 Y119.456 E0.00346
G1 X108.895 Y119.456 E0.04044
G1 X108.786 Y119.440 E0.00346
G1 X108.676 Y119.456 E0.00346
G1 X107.386 Y119.456 E0.04044
G1 X107.277 Y119.440 E0.00346
G1 X107.168 Y119.456 E0.00346
G1 X105.878 Y119.456 E0.04044
G1 X105.769 Y119.440 E0.00346
G1 X105.660 Y119.456 E0.00346
G1 X104.370 Y119.456 E0.04044
G1 X104.261 Y119.440 E0.00346
G1 X104.151 Y119.456 E0.00346
G1 X102.862 Y119.456 E0.04044
G1 X102.752 Y119.440 E0.00346
G1 X102.643 Y119.456 E0.00346
G1 X101.339 Y119.456 E0.04089
G1 X100.662 Y119.263 E0.02208
G1 X100.406 Y119.128 E0.00906
G1 X99.671 Y118.382 E0.03285
G1 X99.457 Y117.920 E0.01594
G1 X99.358 Y117.442 E0.01531
G1 X99.358 Y99.226 E0.57115
G1 X99.599 Y98.515 E0.02354
G1 X99.750 Y98.308 E0.00804
G1 X100.250 Y97.821 E0.02187
G1 X100.829 Y97.537 E0.02021
G1 X101.117 Y97.486 E0.00919
G1 X101.934 Y97.495 E0.02561
G1 X102.119 Y97.465 E0.00588
G1 X102.961 Y97.465 E0.02639
G1 X103.113 Y97.058 E0.01363
G1 X103.265 Y96.814 E0.00903
G1 X103.816 Y96.263 E0.02442
G1 X104.104 Y96.092 E0.01050
G1 X104.608 Y95.936 E0.01656
G1 X145.387 Y95.935 E1.27857
G1 X145.892 Y96.090 E0.01658
G1 X146.220 Y96.292 E0.01208
G1 X146.764 Y96.851 E0.02444
G1 X146.889 Y97.061 E0.00767
G1 X147.019 Y97.411 E0.01169
G1 X146.706 Y97.842 F10800.000
G1 F1200.000
G1 X147.119 Y97.842 E0.01296
G1 X147.248 Y97.865 E0.00410
G1 X147.376 Y97.842 E0.00410
G1 X148.633 Y97.842 E0.03940
G1 X149.210 Y98.013 E0.01887
G1 X149.387 Y98.110 E0.00633
G1 X149.951 Y98.653 E0.02453
G1 X150.099 Y98.912 E0.00936
G1 X150.264 Y99.474 E0.01838
G1 X150.264 Y117.664 E0.57033
G1 X150.079 Y118.209 E0.01806
G1 X149.972 Y118.358 E0.00575
G1 X149.507 Y118.810 E0.02032
G1 X149.131 Y119.000 E0.01320
G1 X148.842 Y119.060 E0.00927
G1 X148.035 Y119.049 E0.02530
G1 X147.863 Y119.079 E0.00547
G1 X146.622 Y119.079 E0.03891
G1 X146.494 Y119.056 E0.00410
G1 X146.365 Y119.079 E0.00410
G1 X145.114 Y119.079 E0.03923
G1 X144.985 Y119.056 E0.00410
G1 X144.857 Y119.079 E0.00410
G1 X143.606 Y119.079 E0.03923
G1 X143.477 Y119.056 E0.00410
G1 X143.348 Y119.079 E0.00410
G1 X142.097 Y119.079 E0.03923
G1 X141.969 Y119.056 E0.00410
G1 X141.840 Y119.079 E0.00410
G1 X140.589 Y119.079 E0.03923
G1 X140.460 Y119.056 E0.00410
G1 X140.332 Y119.079 E0.00410
G1 X139.081 Y119.079 E0.03923
G1 X138.952 Y119.056 E0.00410
G1 X138.823 Y119.079 E0.00410
G1 X137.572 Y119.079 E0.03923
G1 X137.444 Y119.056 E0.00410
G1 X137.315 Y119.079 E0.00410
G1 X136.064 Y119.079 E0.03923
G1 X135.935 Y119.056 E0.00410
G1 X135.807 Y119.079 E0.00410
G1 X134.556 Y119.079 E0.03923
M73 Q1 S41
G1 X134.427 Y119.056 E0.00410
G1 X134.298 Y119.079 E0.00410
G1 X133.047 Y119.079 E0.03923
G1 X132.919 Y119.056 E0.00410
G1 X132.790 Y119.079 E0.00410
G1 X131.534 Y119.079 E0.03940
G1 X130.970 Y118.913 E0.01842
M73 P1 R41
G1 X130.614 Y118.686 E0.01324
G1 X130.201 Y118.244 E0.01896
G1 X129.956 Y117.723 E0.01806
G1 X129.902 Y117.417 E0.00974
G1 X129.902 Y113.697 E0.11664
G1 X120.098 Y113.697 E0.30739
G1 X120.076 Y117.791 E0.12838
G1 X119.957 Y118.124 E0.01108
G1 X119.804 Y118.360 E0.00882
G1 X119.388 Y118.776 E0.01842
G1 X118.867 Y119.032 E0.01821
G1 X118.678 Y119.061 E0.00600
G1 X117.869 Y119.049 E0.02536
G1 X117.697 Y119.079 E0.00547
G1 X116.456 Y119.079 E0.03891
G1 X116.327 Y119.056 E0.00410
G1 X116.199 Y119.079 E0.00410
G1 X114.947 Y119.079 E0.03923
G1 X114.819 Y119.056 E0.00410
G1 X114.690 Y119.079 E0.00410
G1 X113.439 Y119.079 E0.03923
G1 X113.311 Y119.056 E0.00410
G1 X113.182 Y119.079 E0.00410
G1 X111.931 Y119.079 E0.03923
G1 X111.802 Y119.056 E0.00410
G1 X111.674 Y119.079 E0.00410
G1 X110.423 Y119.079 E0.03923
G1 X110.294 Y119.056 E0.00410
G1 X110.165 Y119.079 E0.00410
G1 X108.914 Y119.079 E0.03923
G1 X108.786 Y119.056 E0.00410
G1 X108.657 Y119.079 E0.00410
G1 X107.406 Y119.079 E0.03923
G1 X107.277 Y119.056 E0.00410
G1 X107.149 Y119.079 E0.00410
G1 X105.898 Y119.079 E0.03923
G1 X105.769 Y119.056 E0.00410
G1 X105.640 Y119.079 E0.00410
G1 X104.389 Y119.079 E0.03923
G1 X104.261 Y119.056 E0.00410
G1 X104.132 Y119.079 E0.00410
G1 X102.881 Y119.079 E0.03923
G1 X102.752 Y119.056 E0.00410
G1 X102.624 Y119.079 E0.00410
G1 X101.367 Y119.079 E0.03940
G1 X100.790 Y118.908 E0.01887
G1 X100.612 Y118.811 E0.00636
G1 X99.997 Y118.191 E0.02738
G1 X99.821 Y117.818 E0.01292
G1 X99.736 Y117.421 E0.01273
G1 X99.736 Y99.257 E0.56952
G1 X99.921 Y98.712 E0.01806
G1 X100.029 Y98.562 E0.00579
G1 X100.445 Y98.146 E0.01847
G1 X100.967 Y97.890 E0.01821
G1 X101.156 Y97.861 E0.00600
G1 X101.965 Y97.872 E0.02536
G1 X102.137 Y97.842 E0.00547
G1 X103.295 Y97.842 E0.03630
G1 X103.323 Y97.579 E0.00832
G1 X103.444 Y97.239 E0.01130
G1 X103.573 Y97.032 E0.00765
G1 X104.064 Y96.549 E0.02160
G1 X104.242 Y96.443 E0.00649
G1 X104.640 Y96.313 E0.01314
G1 X145.302 Y96.303 E1.27493
G1 X145.758 Y96.444 E0.01494
G1 X145.968 Y96.574 E0.00775
G1 X146.452 Y97.064 E0.02160
G1 X146.555 Y97.238 E0.00633
G1 X146.677 Y97.579 E0.01135
G1 X146.699 Y97.783 E0.00644
G1 X146.325 Y98.220 F10800.000
G1 F1200.000
G1 X147.095 Y98.220 E0.02416
G1 X147.248 Y98.252 E0.00488
G1 X147.400 Y98.220 E0.00488
G1 X148.603 Y98.220 E0.03773
G1 X149.076 Y98.366 E0.01552
G1 X149.179 Y98.425 E0.00372
G1 X149.640 Y98.868 E0.02004
G1 X149.746 Y99.047 E0.00652
G1 X149.887 Y99.504 E0.01500
G1 X149.887 Y117.632 E0.56841
G1 X149.755 Y118.015 E0.01270
G1 X149.692 Y118.105 E0.00345
G1 X149.309 Y118.488 E0.01697
G1 X148.985 Y118.652 E0.01141
G1 X148.828 Y118.683 E0.00501
G1 X148.000 Y118.671 E0.02598
G1 X147.843 Y118.702 E0.00500
G1 X146.646 Y118.702 E0.03754
G1 X146.494 Y118.669 E0.00488
G1 X146.341 Y118.702 E0.00488
G1 X145.137 Y118.702 E0.03774
G1 X144.985 Y118.669 E0.00488
G1 X144.833 Y118.702 E0.00488
G1 X143.629 Y118.702 E0.03774
G1 X143.477 Y118.669 E0.00488
G1 X143.325 Y118.702 E0.00488
G1 X142.121 Y118.702 E0.03774
G1 X141.969 Y118.669 E0.00488
G1 X141.816 Y118.702 E0.00488
G1 X140.613 Y118.702 E0.03774
G1 X140.460 Y118.669 E0.00488
G1 X140.308 Y118.702 E0.00488
G1 X139.104 Y118.702 E0.03774
G1 X138.952 Y118.669 E0.00488
G1 X138.800 Y118.702 E0.00488
G1 X137.596 Y118.702 E0.03774
G1 X137.444 Y118.669 E0.00488
G1 X137.291 Y118.702 E0.00488
G1 X136.088 Y118.702 E0.03774
G1 X135.935 Y118.669 E0.00488
G1 X135.783 Y118.702 E0.00488
G1 X134.579 Y118.702 E0.03774
G1 X134.427 Y118.669 E0.00488
G1 X134.275 Y118.702 E0.00488
G1 X133.071 Y118.702 E0.03774
G1 X132.919 Y118.669 E0.00488
G1 X132.766 Y118.702 E0.00488
G1 X131.563 Y118.702 E0.03773
G1 X131.107 Y118.561 E0.01496
G1 X130.869 Y118.408 E0.00887
G1 X130.529 Y118.054 E0.01541
G1 X130.309 Y117.587 E0.01618
G1 X130.279 Y117.403 E0.00584
G1 X130.279 Y113.320 E0.12803
G1 X119.721 Y113.320 E0.33102
G1 X119.710 Y117.695 E0.13718
G1 X119.609 Y117.976 E0.00936
G1 X119.523 Y118.107 E0.00492
G1 X119.144 Y118.486 E0.01682
G1 X118.778 Y118.665 E0.01278
G1 X118.665 Y118.683 E0.00358
G1 X117.833 Y118.671 E0.02608
G1 X117.677 Y118.702 E0.00500
G1 X116.479 Y118.702 E0.03754
G1 X116.327 Y118.669 E0.00488
G1 X116.175 Y118.702 E0.00488
G1 X114.971 Y118.702 E0.03774
G1 X114.819 Y118.669 E0.00488
G1 X114.667 Y118.702 E0.00488
G1 X113.463 Y118.702 E0.03774
G1 X113.311 Y118.669 E0.00488
G1 X113.158 Y118.702 E0.00488
G1 X111.954 Y118.702 E0.03774
G1 X111.802 Y118.669 E0.00488
G1 X111.650 Y118.702 E0.00488
G1 X110.446 Y118.702 E0.03774
G1 X110.294 Y118.669 E0.00488
G1 X110.142 Y118.702 E0.00488
G1 X108.938 Y118.702 E0.03774
G1 X108.786 Y118.669 E0.00488
G1 X108.633 Y118.702 E0.00488
G1 X107.430 Y118.702 E0.03774
G1 X107.277 Y118.669 E0.00488
G1 X107.125 Y118.702 E0.00488
G1 X105.921 Y118.702 E0.03774
G1 X105.769 Y118.669 E0.00488
G1 X105.617 Y118.702 E0.00488
G1 X104.413 Y118.702 E0.03774
G1 X104.261 Y118.669 E0.00488
G1 X104.108 Y118.702 E0.00488
G1 X102.905 Y118.702 E0.03774
G1 X102.752 Y118.669 E0.00488
G1 X102.600 Y118.702 E0.00488
G1 X101.397 Y118.702 E0.03773
G1 X100.924 Y118.555 E0.01552
G1 X100.821 Y118.497 E0.00370
G1 X100.324 Y118.000 E0.02204
G1 X100.171 Y117.677 E0.01120
G1 X100.113 Y117.402 E0.00882
G1 X100.113 Y99.289 E0.56791
G1 X100.245 Y98.906 E0.01270
G1 X100.308 Y98.816 E0.00345
G1 X100.690 Y98.435 E0.01692
G1 X101.056 Y98.257 E0.01278
G1 X101.169 Y98.238 E0.00358
G1 X102.000 Y98.250 E0.02608
G1 X102.157 Y98.220 E0.00500
G1 X103.355 Y98.220 E0.03756
G1 X103.674 Y98.287 E0.01023
G1 X103.690 Y97.670 E0.01933
G1 X103.793 Y97.385 E0.00950
G1 X103.856 Y97.283 E0.00377
G1 X104.283 Y96.856 E0.01893
G1 X104.383 Y96.794 E0.00369
G1 X104.729 Y96.680 E0.01144
G1 X145.271 Y96.680 E1.27115
G1 X145.617 Y96.794 E0.01144
G1 X145.717 Y96.856 E0.00369
G1 X146.144 Y97.283 E0.01893
G1 X146.207 Y97.385 E0.00377
G1 X146.310 Y97.670 E0.00951
G1 X146.323 Y98.160 E0.01534
G1 X145.943 Y98.597 F10800.000
G1 F1200.000
G1 X147.066 Y98.597 E0.03523
G1 X147.248 Y98.645 E0.00588
G1 X147.429 Y98.597 E0.00588
G1 X148.571 Y98.597 E0.03582
G1 X148.963 Y98.734 E0.01303
G1 X149.334 Y99.088 E0.01607
G1 X149.396 Y99.189 E0.00371
G1 X149.510 Y99.535 E0.01143
G1 X149.510 Y117.599 E0.56636
G1 X149.411 Y117.853 E0.00856
G1 X149.068 Y118.196 E0.01522
G1 X148.849 Y118.300 E0.00759
G1 X147.958 Y118.294 E0.02793
G1 X147.820 Y118.325 E0.00444
G1 X146.675 Y118.325 E0.03589
G1 X146.494 Y118.276 E0.00588
G1 X146.312 Y118.325 E0.00588
G1 X145.167 Y118.325 E0.03592
G1 X144.985 Y118.276 E0.00588
G1 X144.804 Y118.325 E0.00588
G1 X143.658 Y118.325 E0.03592
G1 X143.477 Y118.276 E0.00588
G1 X143.296 Y118.325 E0.00588
G1 X142.150 Y118.325 E0.03592
G1 X141.969 Y118.276 E0.00588
G1 X141.787 Y118.325 E0.00588
G1 X140.642 Y118.325 E0.03592
G1 X140.460 Y118.276 E0.00588
G1 X140.279 Y118.325 E0.00588
G1 X139.133 Y118.325 E0.03592
G1 X138.952 Y118.276 E0.00588
G1 X138.771 Y118.325 E0.00588
G1 X137.625 Y118.325 E0.03592
G1 X137.444 Y118.276 E0.00588
G1 X137.262 Y118.325 E0.00588
G1 X136.117 Y118.325 E0.03592
G1 X135.935 Y118.276 E0.00588
G1 X135.754 Y118.325 E0.00588
G1 X134.608 Y118.325 E0.03592
G1 X134.427 Y118.276 E0.00588
G1 X134.246 Y118.325 E0.00588
G1 X133.100 Y118.325 E0.03592
G1 X132.919 Y118.276 E0.00588
G1 X132.737 Y118.325 E0.00588
G1 X131.595 Y118.325 E0.03582
G1 X131.251 Y118.212 E0.01136
G1 X131.121 Y118.127 E0.00484
G1 X130.852 Y117.858 E0.01193
G1 X130.675 Y117.494 E0.01270
G1 X130.656 Y117.386 E0.00345
G1 X130.656 Y112.943 E0.13931
G1 X119.344 Y112.943 E0.35469
G1 X119.344 Y117.599 E0.14598
G1 X119.244 Y117.853 E0.00856
G1 X118.901 Y118.196 E0.01522
G1 X118.649 Y118.306 E0.00863
G1 X117.791 Y118.294 E0.02689
G1 X117.653 Y118.325 E0.00444
G1 X116.508 Y118.325 E0.03589
G1 X116.327 Y118.276 E0.00588
G1 X116.146 Y118.325 E0.00588
G1 X115.000 Y118.325 E0.03592
G1 X114.819 Y118.276 E0.00588
G1 X114.638 Y118.325 E0.00588
G1 X113.492 Y118.325 E0.03592
G1 X113.311 Y118.276 E0.00588
