; generated by PrusaSlicer 2.3.1+win64 on 2022-04-08 at 10:06:05 UTC

; 

; external perimeters extrusion width = 0.60mm
; perimeters extrusion width = 0.50mm
; infill extrusion width = 0.50mm
; solid infill extrusion width = 0.50mm
; top infill extrusion width = 0.45mm
; support material extrusion width = 0.38mm
; first layer extrusion width = 0.42mm

M73 P0 R265
M73 Q0 S267
M201 X1000 Y1000 Z200 E5000 ; sets maximum accelerations, mm/sec^2
M203 X200 Y200 Z12 E120 ; sets maximum feedrates, mm/sec
M204 P1250 R1250 T1250 ; sets acceleration (P, T) and retract acceleration (R), mm/sec^2
M205 X8.00 Y8.00 Z0.40 E4.50 ; sets the jerk limits, mm/sec
M205 S0 T0 ; sets the minimum extruding and travel feed rate, mm/sec
M107
;TYPE:Custom
M862.3 P "MK3S" ; printer model check
M862.1 P0.4 ; nozzle diameter check
M115 U3.9.3 ; tell printer latest fw version
G90 ; use absolute coordinates
M83 ; extruder relative mode
M104 S215 ; set extruder temp
M140 S67 ; set bed temp
M190 S67 ; wait for bed temp
M109 S215 ; wait for extruder temp
G28 W ; home all without mesh bed level
G80 ; mesh bed leveling
G1 Y-3.0 F1000.0 ; go outside print area
G92 E0.0
G1 X60.0 E9.0 F1000.0 ; intro line
G1 X100.0 E12.5 F1000.0 ; intro line
G92 E0.0
M221 S95

; Don't change E values below. Excessive value can damage the printer.

M907 E538 ; set extruder motor current
G21 ; set units to millimeters
G90 ; use absolute coordinates
M83 ; use relative distances for extrusion
M900 K0.05 ; Filament gcode LA 1.5
M900 K30 ; Filament gcode LA 1.0
;LAYER_CHANGE
;Z:0.2
;HEIGHT:0.2
;BEFORE_LAYER_CHANGE
G92 E0.0
;0.2


G1 E-0.80000 F2100.000
G1 Z0.400 F10800.000
;AFTER_LAYER_CHANGE
;0.2
; printing object spindle_box_cover.stl id:0 copy 0
G1 X180.808 Y144.611
G1 Z0.200
G1 E0.80000 F2100.000
M204 S1000
;TYPE:Support material
;WIDTH:0.42
G1 F1200.000
G1 X180.808 Y125.240 E0.60735
G1 X180.054 Y125.240 E0.02365
G1 X180.054 Y144.441 E0.60203
G1 X179.299 Y144.441 E0.02365
G1 X179.299 Y125.240 E0.60203
G1 X178.545 Y125.240 E0.02365
G1 X178.545 Y144.441 E0.60203
G1 X177.791 Y144.441 E0.02365
G1 X177.791 Y125.240 E0.60203
G1 X177.037 Y125.240 E0.02365
G1 X177.037 Y144.441 E0.60203
G1 X176.283 Y144.441 E0.02365
G1 X176.283 Y130.333 E0.44233
G1 X175.529 Y130.333 E0.02365
G1 X175.529 Y144.441 E0.44233
G1 X174.774 Y144.441 E0.02365
G1 X174.774 Y130.333 E0.44233
G1 X174.020 Y130.333 E0.02365
G1 X174.020 Y144.441 E0.44233
G1 X173.266 Y144.441 E0.02365
G1 X173.266 Y130.333 E0.44233
G1 X172.512 Y130.333 E0.02365
G1 X172.512 Y144.441 E0.44233
G1 X171.758 Y144.441 E0.02365
G1 X171.758 Y130.333 E0.44233
G1 X171.004 Y130.333 E0.02365
G1 X171.004 Y144.441 E0.44233
G1 X170.250 Y144.441 E0.02365
G1 X170.250 Y130.333 E0.44233
G1 X169.495 Y130.333 E0.02365
G1 X169.495 Y144.441 E0.44233
G1 X168.741 Y144.441 E0.02365
G1 X168.741 Y130.333 E0.44233
M73 Q0 S266
G1 X168.449 Y130.333 E0.00915
G1 X168.449 Y131.871 E0.04822
G1 X167.987 Y131.871 E0.01450
G1 X167.987 Y144.441 E0.39411
G1 X167.233 Y144.441 E0.02365
G1 X167.233 Y131.871 E0.39411
G1 X166.479 Y131.871 E0.02365
G1 X166.479 Y144.441 E0.39411
G1 X165.725 Y144.441 E0.02365
G1 X165.725 Y131.871 E0.39411
G1 X164.970 Y131.871 E0.02365
G1 X164.970 Y144.441 E0.39411
G1 X164.216 Y144.441 E0.02365
G1 X164.216 Y130.333 E0.44233
G1 X163.462 Y130.333 E0.02365
G1 X163.462 Y144.441 E0.44233
G1 X162.708 Y144.441 E0.02365
G1 X162.708 Y130.333 E0.44233
G1 X161.954 Y130.333 E0.02365
G1 X161.954 Y144.441 E0.44233
G1 X161.200 Y144.441 E0.02365
G1 X161.200 Y130.333 E0.44233
G1 X160.445 Y130.333 E0.02365
G1 X160.445 Y144.441 E0.44233
G1 X159.691 Y144.441 E0.02365
G1 X159.691 Y130.333 E0.44233
G1 X158.937 Y130.333 E0.02365
G1 X158.937 Y144.441 E0.44233
G1 X158.183 Y144.441 E0.02365
G1 X158.183 Y130.333 E0.44233
G1 X157.429 Y130.333 E0.02365
G1 X157.429 Y144.441 E0.44233
G1 X156.675 Y144.441 E0.02365
G1 X156.675 Y130.333 E0.44233
G1 X155.921 Y130.333 E0.02365
G1 X155.921 Y144.441 E0.44233
G1 X155.166 Y144.441 E0.02365
G1 X155.166 Y130.333 E0.44233
G1 X154.412 Y130.333 E0.02365
G1 X154.412 Y144.441 E0.44233
G1 X153.658 Y144.441 E0.02365
G1 X153.658 Y130.333 E0.44233
G1 X152.904 Y130.333 E0.02365
G1 X152.904 Y144.441 E0.44233
G1 X152.150 Y144.441 E0.02365
G1 X152.150 Y130.333 E0.44233
G1 X151.396 Y130.333 E0.02365
G1 X151.396 Y144.441 E0.44233
G1 X150.641 Y144.441 E0.02365
G1 X150.641 Y130.333 E0.44233
G1 X149.887 Y130.333 E0.02365
G1 X149.887 Y144.441 E0.44233
G1 X149.133 Y144.441 E0.02365
G1 X149.133 Y130.333 E0.44233
G1 X148.379 Y130.333 E0.02365
G1 X148.379 Y144.441 E0.44233
G1 X147.625 Y144.441 E0.02365
G1 X147.625 Y130.333 E0.44233
M73 P0 R264
G1 X146.871 Y130.333 E0.02365
G1 X146.871 Y144.441 E0.44233
G1 X146.116 Y144.441 E0.02365
G1 X146.116 Y130.333 E0.44233
G1 X145.362 Y130.333 E0.02365
G1 X145.362 Y144.441 E0.44233
G1 X144.608 Y144.441 E0.02365
G1 X144.608 Y131.871 E0.39411
G1 X143.854 Y131.871 E0.02365
G1 X143.854 Y144.441 E0.39411
G1 X143.100 Y144.441 E0.02365
G1 X143.100 Y131.871 E0.39411
G1 X142.346 Y131.871 E0.02365
G1 X142.346 Y144.441 E0.39411
G1 X141.591 Y144.441 E0.02365
G1 X141.591 Y131.871 E0.39411
G1 X140.837 Y131.871 E0.02365
G1 X140.837 Y144.441 E0.39411
G1 X140.083 Y144.441 E0.02365
G1 X140.083 Y131.871 E0.39411
G1 X139.329 Y131.871 E0.02365
G1 X139.329 Y144.441 E0.39411
G1 X138.575 Y144.441 E0.02365
G1 X138.575 Y131.871 E0.39411
G1 X137.821 Y131.871 E0.02365
G1 X137.821 Y144.441 E0.39411
G1 X137.067 Y144.441 E0.02365
G1 X137.067 Y131.871 E0.39411
G1 X136.312 Y131.871 E0.02365
G1 X136.312 Y144.441 E0.39411
G1 X135.558 Y144.441 E0.02365
G1 X135.558 Y131.871 E0.39411
G1 X134.804 Y131.871 E0.02365
G1 X134.804 Y144.441 E0.39411
G1 X134.050 Y144.441 E0.02365
G1 X134.050 Y130.333 E0.44233
G1 X133.296 Y130.333 E0.02365
G1 X133.296 Y144.441 E0.44233
G1 X132.542 Y144.441 E0.02365
G1 X132.542 Y130.333 E0.44233
G1 X131.787 Y130.333 E0.02365
G1 X131.787 Y144.441 E0.44233
G1 X131.033 Y144.441 E0.02365
G1 X131.033 Y130.333 E0.44233
G1 X130.279 Y130.333 E0.02365
G1 X130.279 Y144.441 E0.44233
G1 X129.525 Y144.441 E0.02365
G1 X129.525 Y130.333 E0.44233
G1 X128.771 Y130.333 E0.02365
G1 X128.771 Y144.441 E0.44233
G1 X128.017 Y144.441 E0.02365
G1 X128.017 Y130.333 E0.44233
G1 X127.262 Y130.333 E0.02365
G1 X127.262 Y144.441 E0.44233
G1 X126.508 Y144.441 E0.02365
G1 X126.508 Y130.333 E0.44233
G1 X125.754 Y130.333 E0.02365
G1 X125.754 Y144.441 E0.44233
G1 X125.000 Y144.441 E0.02365
G1 X125.000 Y130.333 E0.44233
G1 X124.246 Y130.333 E0.02365
G1 X124.246 Y144.441 E0.44233
G1 X123.492 Y144.441 E0.02365
G1 X123.492 Y130.333 E0.44233
G1 X122.738 Y130.333 E0.02365
G1 X122.738 Y144.441 E0.44233
G1 X121.983 Y144.441 E0.02365
G1 X121.983 Y131.871 E0.39411
G1 X121.338 Y131.871 E0.02024
G1 X121.338 Y130.333 E0.04822
G1 X121.229 Y130.333 E0.00341
G1 X121.229 Y144.441 E0.44233
G1 X120.475 Y144.441 E0.02365
G1 X120.475 Y130.333 E0.44233
G1 X119.721 Y130.333 E0.02365
G1 X119.721 Y144.441 E0.44233
G1 X118.967 Y144.441 E0.02365
G1 X118.967 Y130.333 E0.44233
G1 X118.213 Y130.333 E0.02365
G1 X118.213 Y144.441 E0.44233
G1 X117.458 Y144.441 E0.02365
G1 X117.458 Y130.333 E0.44233
G1 X116.704 Y130.333 E0.02365
G1 X116.704 Y144.441 E0.44233
G1 X115.950 Y144.441 E0.02365
G1 X115.950 Y130.333 E0.44233
G1 X115.196 Y130.333 E0.02365
G1 X115.196 Y144.441 E0.44233
G1 X114.442 Y144.441 E0.02365
G1 X114.442 Y130.333 E0.44233
G1 X113.688 Y130.333 E0.02365
G1 X113.688 Y144.441 E0.44233
G1 X112.933 Y144.441 E0.02365
G1 X112.933 Y130.333 E0.44233
G1 X112.179 Y130.333 E0.02365
G1 X112.179 Y144.441 E0.44233
G1 X111.425 Y144.441 E0.02365
G1 X111.425 Y130.333 E0.44233
G1 X110.671 Y130.333 E0.02365
G1 X110.671 Y144.441 E0.44233
G1 X109.917 Y144.441 E0.02365
G1 X109.917 Y130.333 E0.44233
G1 X109.163 Y130.333 E0.02365
G1 X109.163 Y144.441 E0.44233
G1 X108.408 Y144.441 E0.02365
G1 X108.409 Y131.871 E0.39411
G1 X107.654 Y131.871 E0.02365
G1 X107.654 Y144.441 E0.39411
M73 Q0 S265
G1 X106.900 Y144.441 E0.02365
G1 X106.900 Y131.871 E0.39411
G1 X106.146 Y131.871 E0.02365
G1 X106.146 Y144.441 E0.39411
G1 X105.392 Y144.441 E0.02365
G1 X105.392 Y131.871 E0.39411
G1 X104.760 Y131.871 E0.01982
G1 X104.760 Y130.333 E0.04822
G1 X104.638 Y130.333 E0.00383
G1 X104.638 Y144.441 E0.44233
G1 X103.884 Y144.441 E0.02365
G1 X103.884 Y130.333 E0.44233
G1 X103.129 Y130.333 E0.02365
G1 X103.129 Y144.441 E0.44233
G1 X102.375 Y144.441 E0.02365
G1 X102.375 Y130.333 E0.44233
G1 X101.621 Y130.333 E0.02365
G1 X101.621 Y144.441 E0.44233
G1 X100.867 Y144.441 E0.02365
G1 X100.867 Y130.333 E0.44233
G1 X100.113 Y130.333 E0.02365
G1 X100.113 Y144.441 E0.44233
G1 X99.359 Y144.441 E0.02365
G1 X99.359 Y130.333 E0.44233
G1 X98.604 Y130.333 E0.02365
G1 X98.604 Y144.441 E0.44233
G1 X97.850 Y144.441 E0.02365
G1 X97.850 Y130.333 E0.44233
G1 X97.096 Y130.333 E0.02365
G1 X97.096 Y144.441 E0.44233
G1 X96.342 Y144.441 E0.02365
G1 X96.342 Y130.333 E0.44233
G1 X95.588 Y130.333 E0.02365
G1 X95.588 Y144.441 E0.44233
G1 X94.834 Y144.441 E0.02365
G1 X94.834 Y130.333 E0.44233
G1 X94.079 Y130.333 E0.02365
G1 X94.079 Y144.441 E0.44233
G1 X93.325 Y144.441 E0.02365
G1 X93.325 Y130.333 E0.44233
G1 X92.571 Y130.333 E0.02365
G1 X92.571 Y144.441 E0.44233
G1 X91.817 Y144.441 E0.02365
G1 X91.817 Y130.333 E0.44233
G1 X91.063 Y130.333 E0.02365
G1 X91.063 Y144.441 E0.44233
G1 X90.309 Y144.441 E0.02365
G1 X90.309 Y130.333 E0.44233
G1 X89.555 Y130.333 E0.02365
G1 X89.555 Y144.441 E0.44233
G1 X88.800 Y144.441 E0.02365
G1 X88.800 Y130.333 E0.44233
G1 X88.046 Y130.333 E0.02365
G1 X88.046 Y144.441 E0.44233
G1 X87.292 Y144.441 E0.02365
G1 X87.292 Y130.333 E0.44233
G1 X86.538 Y130.333 E0.02365
G1 X86.538 Y144.441 E0.44233
M73 P0 R263
G1 X85.784 Y144.441 E0.02365
G1 X85.784 Y130.333 E0.44233
G1 X85.559 Y130.333 E0.00705
G1 X85.559 Y131.871 E0.04822
G1 X85.030 Y131.871 E0.01660
G1 X85.030 Y144.441 E0.39411
G1 X84.275 Y144.441 E0.02365
G1 X84.275 Y131.871 E0.39411
G1 X83.521 Y131.871 E0.02365
G1 X83.521 Y144.441 E0.39411
G1 X82.767 Y144.441 E0.02365
G1 X82.767 Y131.871 E0.39411
G1 X82.013 Y131.871 E0.02365
G1 X82.013 Y144.441 E0.39411
G1 X81.259 Y144.441 E0.02365
G1 X81.259 Y130.333 E0.44233
G1 X80.505 Y130.333 E0.02365
G1 X80.505 Y144.441 E0.44233
G1 X79.750 Y144.441 E0.02365
G1 X79.750 Y130.333 E0.44233
G1 X78.996 Y130.333 E0.02365
G1 X78.996 Y144.441 E0.44233
G1 X78.242 Y144.441 E0.02365
G1 X78.242 Y130.333 E0.44233
G1 X77.488 Y130.333 E0.02365
G1 X77.488 Y144.441 E0.44233
G1 X76.734 Y144.441 E0.02365
G1 X76.734 Y130.333 E0.44233
G1 X75.980 Y130.333 E0.02365
G1 X75.980 Y144.441 E0.44233
G1 X75.226 Y144.441 E0.02365
G1 X75.226 Y130.333 E0.44233
G1 X74.471 Y130.333 E0.02365
G1 X74.471 Y144.441 E0.44233
G1 X73.717 Y144.441 E0.02365
G1 X73.717 Y130.333 E0.44233
G1 X73.298 Y130.333 E0.01315
G1 X73.011 Y130.047 E0.01269
G1 X73.011 Y125.240 E0.15073
G1 X72.963 Y125.240 E0.00152
G1 X72.963 Y144.441 E0.60203
G1 X72.209 Y144.441 E0.02365
G1 X72.209 Y125.240 E0.60203
G1 X71.455 Y125.240 E0.02365
G1 X71.455 Y144.441 E0.60203
G1 X70.701 Y144.441 E0.02365
G1 X70.701 Y125.240 E0.60203
G1 X69.946 Y125.240 E0.02365
G1 X69.946 Y144.441 E0.60203
G1 X69.192 Y144.441 E0.02365
G1 X69.192 Y125.070 E0.60735
;WIPE_START
G1 F8640.000
G1 X69.192 Y128.362 E-0.76000
;WIPE_END
G1 E-0.04000 F2100.000
G1 Z0.600 F10800.000
G1 X143.485 Y110.984
G1 Z0.200
G1 E0.80000 F2100.000
;TYPE:Perimeter
G1 F1200.000
G1 X143.415 Y110.299 E0.02158
G1 X143.415 Y109.611 E0.02158
G1 X143.485 Y108.926 E0.02158
G1 X143.624 Y108.252 E0.02158
G1 X143.830 Y107.596 E0.02158
G1 X144.101 Y106.963 E0.02158
G1 X144.435 Y106.362 E0.02158
G1 X144.828 Y105.797 E0.02158
G1 X145.276 Y105.275 E0.02158
G1 X145.775 Y104.801 E0.02158
G1 X146.319 Y104.379 E0.02158
G1 X146.903 Y104.015 E0.02158
G1 X147.521 Y103.712 E0.02158
G1 X148.166 Y103.473 E0.02158
G1 X148.833 Y103.301 E0.02158
G1 X149.513 Y103.197 E0.02158
G1 X150.177 Y103.163 E0.02085
G1 X150.885 Y103.196 E0.02222
G1 X151.567 Y103.301 E0.02165
G1 X152.234 Y103.473 E0.02158
G1 X152.879 Y103.712 E0.02158
G1 X153.497 Y104.015 E0.02158
G1 X154.081 Y104.379 E0.02158
G1 X154.625 Y104.801 E0.02158
G1 X155.124 Y105.275 E0.02158
G1 X155.572 Y105.797 E0.02158
G1 X155.965 Y106.362 E0.02158
G1 X156.299 Y106.963 E0.02158
G1 X156.570 Y107.596 E0.02158
G1 X156.776 Y108.252 E0.02158
G1 X156.915 Y108.926 E0.02158
G1 X156.984 Y109.611 E0.02158
G1 X156.984 Y110.299 E0.02158
G1 X156.915 Y110.984 E0.02158
G1 X156.776 Y111.658 E0.02158
G1 X156.570 Y112.314 E0.02158
G1 X156.299 Y112.947 E0.02158
G1 X155.965 Y113.548 E0.02158
G1 X155.572 Y114.113 E0.02158
G1 X155.124 Y114.635 E0.02158
G1 X154.625 Y115.109 E0.02158
G1 X154.081 Y115.531 E0.02158
G1 X153.497 Y115.895 E0.02158
G1 X152.879 Y116.198 E0.02158
G1 X152.234 Y116.437 E0.02158
G1 X151.567 Y116.609 E0.02158
G1 X150.887 Y116.713 E0.02158
G1 X150.200 Y116.748 E0.02158
G1 X149.513 Y116.713 E0.02158
G1 X148.833 Y116.609 E0.02158
G1 X148.166 Y116.437 E0.02158
G1 X147.521 Y116.198 E0.02158
G1 X146.903 Y115.895 E0.02158
G1 X146.319 Y115.531 E0.02158
G1 X145.775 Y115.109 E0.02158
G1 X145.276 Y114.635 E0.02158
G1 X144.828 Y114.113 E0.02158
G1 X144.435 Y113.548 E0.02158
G1 X144.101 Y112.947 E0.02158
G1 X143.830 Y112.314 E0.02158
G1 X143.624 Y111.658 E0.02158
G1 X143.497 Y111.043 E0.01969
G1 X143.867 Y110.967 F10800.000
G1 F1200.000
G1 X143.793 Y110.280 E0.02165
G1 X143.793 Y109.630 E0.02038
G1 X143.858 Y108.984 E0.02038
G1 X143.989 Y108.347 E0.02038
G1 X144.184 Y107.727 E0.02038
G1 X144.440 Y107.130 E0.02038
G1 X144.755 Y106.561 E0.02038
G1 X145.127 Y106.028 E0.02038
G1 X145.550 Y105.535 E0.02038
G1 X146.021 Y105.087 E0.02038
G1 X146.535 Y104.689 E0.02038
G1 X147.086 Y104.346 E0.02038
G1 X147.670 Y104.059 E0.02038
G1 X148.279 Y103.834 E0.02038
G1 X148.909 Y103.671 E0.02038
G1 X149.551 Y103.572 E0.02038
G1 X150.177 Y103.541 E0.01967
G1 X150.847 Y103.572 E0.02103
G1 X151.491 Y103.671 E0.02043
G1 X152.121 Y103.834 E0.02038
G1 X152.730 Y104.059 E0.02038
G1 X153.314 Y104.346 E0.02038
G1 X153.865 Y104.689 E0.02038
G1 X154.379 Y105.087 E0.02038
G1 X154.850 Y105.535 E0.02038
G1 X155.273 Y106.028 E0.02038
G1 X155.645 Y106.561 E0.02038
G1 X155.960 Y107.130 E0.02038
G1 X156.216 Y107.727 E0.02038
G1 X156.411 Y108.347 E0.02038
G1 X156.542 Y108.984 E0.02038
G1 X156.607 Y109.630 E0.02038
G1 X156.607 Y110.280 E0.02038
G1 X156.542 Y110.927 E0.02038
G1 X156.411 Y111.563 E0.02038
G1 X156.216 Y112.183 E0.02038
G1 X155.960 Y112.780 E0.02038
G1 X155.645 Y113.349 E0.02038
G1 X155.273 Y113.882 E0.02038
G1 X154.850 Y114.375 E0.02038
G1 X154.379 Y114.823 E0.02038
G1 X153.865 Y115.221 E0.02038
G1 X153.314 Y115.565 E0.02038
G1 X152.730 Y115.851 E0.02038
G1 X152.121 Y116.077 E0.02038
G1 X151.491 Y116.239 E0.02038
G1 X150.849 Y116.338 E0.02038
G1 X150.200 Y116.371 E0.02038
G1 X149.551 Y116.338 E0.02038
G1 X148.909 Y116.239 E0.02038
G1 X148.279 Y116.077 E0.02038
G1 X147.670 Y115.851 E0.02038
G1 X147.086 Y115.565 E0.02038
G1 X146.535 Y115.221 E0.02038
G1 X146.021 Y114.823 E0.02038
G1 X145.550 Y114.375 E0.02038
G1 X145.127 Y113.882 E0.02038
G1 X144.755 Y113.349 E0.02038
G1 X144.440 Y112.780 E0.02038
G1 X144.184 Y112.183 E0.02038
G1 X143.989 Y111.563 E0.02038
G1 X143.879 Y111.025 E0.01721
G1 X144.248 Y110.949 F10800.000
G1 F1200.000
G1 X144.170 Y110.261 E0.02173
G1 X144.170 Y109.649 E0.01918
G1 X144.232 Y109.041 E0.01918
G1 X144.355 Y108.442 E0.01918
G1 X144.538 Y107.858 E0.01918
G1 X144.779 Y107.296 E0.01918
G1 X145.076 Y106.761 E0.01918
G1 X145.425 Y106.259 E0.01918
G1 X145.824 Y105.795 E0.01918
G1 X146.267 Y105.374 E0.01918
G1 X146.751 Y104.999 E0.01918
G1 X147.270 Y104.676 E0.01918
G1 X147.819 Y104.406 E0.01918
G1 X148.392 Y104.194 E0.01918
G1 X148.985 Y104.041 E0.01918
G1 X149.589 Y103.948 E0.01918
G1 X150.178 Y103.918 E0.01849
G1 X150.810 Y103.948 E0.01983
G1 X151.415 Y104.041 E0.01921
G1 X152.008 Y104.194 E0.01918
G1 X152.581 Y104.406 E0.01918
G1 X153.130 Y104.676 E0.01918
G1 X153.649 Y104.999 E0.01918
G1 X154.133 Y105.374 E0.01918
G1 X154.576 Y105.795 E0.01918
G1 X154.975 Y106.259 E0.01918
G1 X155.324 Y106.761 E0.01918
G1 X155.621 Y107.296 E0.01918
G1 X155.862 Y107.858 E0.01918
G1 X156.045 Y108.442 E0.01918
G1 X156.168 Y109.041 E0.01918
G1 X156.230 Y109.649 E0.01918
