(board_top_pocket)
(Machine)
(  vendor: Autodesk)
(  model: Generic 3-axis)
(  description: This machine has XY axis on the Table and Z axis on the Head)
G90 G94
G17
G21

(board_top_pocket)
T1
S12000 M3
G54
M8
G0 X19.9 Y62
Z15
Z5
G1 Z2.5 F150
Z-1 F50
X19.907 Y61.975 F150
X19.925 Y61.957
X19.95 Y61.95
X19.975 Y61.957
X19.993 Y61.975
X20 Y62
G3 X18 Y62 I-1 J0
X20 Y62 I1 J0
G1 X19.9
Z-2 F50
X19.907 Y61.975 F150
X19.925 Y61.957
X19.95 Y61.95
X19.975 Y61.957
X19.993 Y61.975
X20 Y62
G3 X18 Y62 I-1 J0
X20 Y62 I1 J0
G1 X19.9
Z-3 F50
X19.907 Y61.975 F150
X19.925 Y61.957
X19.95 Y61.95
X19.975 Y61.957
X19.993 Y61.975
X20 Y62
G3 X18 Y62 I-1 J0
X20 Y62 I1 J0
G1 X19.9
Z-4 F50
X19.907 Y61.975 F150
X19.925 Y61.957
X19.95 Y61.95
X19.975 Y61.957
X19.993 Y61.975
X20 Y62
G3 X18 Y62 I-1 J0
X20 Y62 I1 J0
G1 X19.9
Z-5 F50
X19.907 Y61.975 F150
X19.925 Y61.957
X19.95 Y61.95
X19.975 Y61.957
X19.993 Y61.975
X20 Y62
G3 X18 Y62 I-1 J0
X20 Y62 I1 J0
G1 X19.9
Z-6 F50
X19.907 Y61.975 F150
X19.925 Y61.957
X19.95 Y61.95
X19.975 Y61.957
X19.993 Y61.975
X20 Y62
G3 X18 Y62 I-1 J0
X20 Y62 I1 J0
G1 X19.9
Z-7 F50
X19.907 Y61.975 F150
X19.925 Y61.957
X19.95 Y61.95
X19.975 Y61.957
X19.993 Y61.975
X20 Y62
G3 X18 Y62 I-1 J0
X20 Y62 I1 J0
G1 X19.9
Z-8 F50
X19.907 Y61.975 F150
X19.925 Y61.957
X19.95 Y61.95
X19.975 Y61.957
X19.993 Y61.975
X20 Y62
G3 X18 Y62 I-1 J0
X20 Y62 I1 J0
G1 X19.9
Z-9 F50
X19.907 Y61.975 F150
X19.925 Y61.957
X19.95 Y61.95
X19.975 Y61.957
X19.993 Y61.975
X20 Y62
G3 X18 Y62 I-1 J0
X20 Y62 I1 J0
G1 X19.9
Z-10 F50
X19.907 Y61.975 F150
X19.925 Y61.957
X19.95 Y61.95
X19.975 Y61.957
X19.993 Y61.975
X20 Y62
G3 X18 Y62 I-1 J0
X20 Y62 I1 J0
G1 X19.9
Z-11 F50
X19.907 Y61.975 F150
X19.925 Y61.957
X19.95 Y61.95
X19.975 Y61.957
X19.993 Y61.975
X20 Y62
G3 X18 Y62 I-1 J0
X20 Y62 I1 J0
G1 X19.9
Z-12 F50
X19.907 Y61.975 F150
X19.925 Y61.957
X19.95 Y61.95
X19.975 Y61.957
X19.993 Y61.975
X20 Y62
G3 X18 Y62 I-1 J0
X20 Y62 I1 J0
G0 Z5
X19.9 Y212
G1 Z2.5 F50
Z-1
X19.907 Y211.975 F150
X19.925 Y211.957
X19.95 Y211.95
X19.975 Y211.957
X19.993 Y211.975
X20 Y212
G3 X18 Y212 I-1 J0
X20 Y212 I1 J0
G1 X19.9
Z-2 F50
X19.907 Y211.975 F150
X19.925 Y211.957
X19.95 Y211.95
X19.975 Y211.957
X19.993 Y211.975
X20 Y212
G3 X18 Y212 I-1 J0
X20 Y212 I1 J0
G1 X19.9
Z-3 F50
X19.907 Y211.975 F150
X19.925 Y211.957
X19.95 Y211.95
X19.975 Y211.957
X19.993 Y211.975
X20 Y212
G3 X18 Y212 I-1 J0
X20 Y212 I1 J0
G1 X19.9
Z-4 F50
X19.907 Y211.975 F150
X19.925 Y211.957
X19.95 Y211.95
X19.975 Y211.957
X19.993 Y211.975
X20 Y212
G3 X18 Y212 I-1 J0
X20 Y212 I1 J0
G1 X19.9
Z-5 F50
X19.907 Y211.975 F150
X19.925 Y211.957
X19.95 Y211.95
X19.975 Y211.957
X19.993 Y211.975
X20 Y212
G3 X18 Y212 I-1 J0
X20 Y212 I1 J0
G1 X19.9
Z-6 F50
X19.907 Y211.975 F150
X19.925 Y211.957
X19.95 Y211.95
X19.975 Y211.957
X19.993 Y211.975
X20 Y212
G3 X18 Y212 I-1 J0
X20 Y212 I1 J0
G1 X19.9
Z-7 F50
X19.907 Y211.975 F150
X19.925 Y211.957
X19.95 Y211.95
X19.975 Y211.957
X19.993 Y211.975
X20 Y212
G3 X18 Y212 I-1 J0
X20 Y212 I1 J0
G1 X19.9
Z-8 F50
X19.907 Y211.975 F150
X19.925 Y211.957
X19.95 Y211.95
X19.975 Y211.957
X19.993 Y211.975
X20 Y212
G3 X18 Y212 I-1 J0
X20 Y212 I1 J0
G1 X19.9
Z-9 F50
X19.907 Y211.975 F150
X19.925 Y211.957
X19.95 Y211.95
X19.975 Y211.957
X19.993 Y211.975
X20 Y212
G3 X18 Y212 I-1 J0
X20 Y212 I1 J0
G1 X19.9
Z-10 F50
X19.907 Y211.975 F150
X19.925 Y211.957
X19.95 Y211.95
X19.975 Y211.957
X19.993 Y211.975
X20 Y212
G3 X18 Y212 I-1 J0
X20 Y212 I1 J0
G1 X19.9
Z-11 F50
X19.907 Y211.975 F150
X19.925 Y211.957
X19.95 Y211.95
X19.975 Y211.957
X19.993 Y211.975
X20 Y212
G3 X18 Y212 I-1 J0
X20 Y212 I1 J0
G1 X19.9
Z-12 F50
X19.907 Y211.975 F150
X19.925 Y211.957
X19.95 Y211.95
X19.975 Y211.957
X19.993 Y211.975
X20 Y212
G3 X18 Y212 I-1 J0
X20 Y212 I1 J0
G0 Z15
M9
M5
M30
