(board_top_drill)
(Machine)
(  vendor: Autodesk)
(  model: Generic 3-axis)
(  description: This machine has XY axis on the Table and Z axis on the Head)
G90 G94
G17
G21

(board_top_drill)
T1
S12000 M3
G54
M8
G0 X10.5 Y269
Z15
Z5
G1 Z-12 F50
G0 Z5
Y211
G1 Z-12 F50
G0 Z5
Y201
G1 Z-12 F50
G0 Z5
Y143
G1 Z-12 F50
G0 Z5
Y133
G1 Z-12 F50
G0 Z5
Y75
G1 Z-12 F50
G0 Z5
Y65
G1 Z-12 F50
G0 Z5
Y7
G1 Z-12 F50
G0 Z5
Z15
M9
M5
M30
