(board_top_inset)
(Machine)
(  vendor: Autodesk)
(  model: Generic 3-axis)
(  description: This machine has XY axis on the Table and Z axis on the Head)
G90 G94
G17
G21

(board_top_inset)
T1
S12000 M3
G54
M8
G0 X20.65 Y62
Z15
Z5
G1 Z2.5 F150
Z-1 F50
G3 X17.35 Y62 I-1.65 J0 F150
X20.65 Y62 I1.65 J0
G2 X21.304 Y63.166 I1.366 J0
G3 X21.456 Y64.493 I-0.442 J0.724
X16.544 Y59.507 I-2.456 J-2.493
X21.456 Y64.493 I2.456 J2.493
X21.116 Y64.356 I-0.14 J-0.142
G1 X21.05 Y61.994
G2 X20.65 Y62 I-0.2 J0.006
G1 Z-2 F50
G3 X17.35 Y62 I-1.65 J0 F150
X20.65 Y62 I1.65 J0
G2 X21.304 Y63.166 I1.366 J0
G3 X21.456 Y64.493 I-0.442 J0.724
X16.544 Y59.507 I-2.456 J-2.493
X21.456 Y64.493 I2.456 J2.493
X21.116 Y64.356 I-0.14 J-0.142
G1 X21.05 Y61.994
G2 X20.65 Y62 I-0.2 J0.006
G1 Z-3 F50
G3 X17.35 Y62 I-1.65 J0 F150
X20.65 Y62 I1.65 J0
G2 X21.304 Y63.166 I1.366 J0
G3 X21.456 Y64.493 I-0.442 J0.724
X16.544 Y59.507 I-2.456 J-2.493
X21.456 Y64.493 I2.456 J2.493
X21.116 Y64.356 I-0.14 J-0.142
G1 X21.05 Y61.994
G2 X20.65 Y62 I-0.2 J0.006
G1 Z-4 F50
G3 X17.35 Y62 I-1.65 J0 F150
X20.65 Y62 I1.65 J0
G2 X21.304 Y63.166 I1.366 J0
G3 X21.456 Y64.493 I-0.442 J0.724
X16.544 Y59.507 I-2.456 J-2.493
X21.456 Y64.493 I2.456 J2.493
X21.116 Y64.356 I-0.14 J-0.142
G1 X21.05 Y61.994
G2 X20.65 Y62 I-0.2 J0.006
G1 Z-5 F50
G3 X17.35 Y62 I-1.65 J0 F150
X20.65 Y62 I1.65 J0
G2 X21.304 Y63.166 I1.366 J0
G3 X21.456 Y64.493 I-0.442 J0.724
X16.544 Y59.507 I-2.456 J-2.493
X21.456 Y64.493 I2.456 J2.493
G0 Z15
X20.65 Y212
Z5
G1 Z2.5 F150
Z-1 F50
G3 X17.35 Y212 I-1.65 J0 F150
X20.65 Y212 I1.65 J0
G2 X21.304 Y213.166 I1.366 J0
G3 X21.456 Y214.493 I-0.442 J0.724
X16.544 Y209.507 I-2.456 J-2.493
X21.456 Y214.493 I2.456 J2.493
X21.116 Y214.356 I-0.14 J-0.142
G1 X21.05 Y211.994
G2 X20.65 Y212 I-0.2 J0.006
G1 Z-2 F50
G3 X17.35 Y212 I-1.65 J0 F150
X20.65 Y212 I1.65 J0
G2 X21.304 Y213.166 I1.366 J0
G3 X21.456 Y214.493 I-0.442 J0.724
X16.544 Y209.507 I-2.456 J-2.493
X21.456 Y214.493 I2.456 J2.493
X21.116 Y214.356 I-0.14 J-0.142
G1 X21.05 Y211.994
G2 X20.65 Y212 I-0.2 J0.006
G1 Z-3 F50
G3 X17.35 Y212 I-1.65 J0 F150
X20.65 Y212 I1.65 J0
G2 X21.304 Y213.166 I1.366 J0
G3 X21.456 Y214.493 I-0.442 J0.724
X16.544 Y209.507 I-2.456 J-2.493
X21.456 Y214.493 I2.456 J2.493
X21.116 Y214.356 I-0.14 J-0.142
G1 X21.05 Y211.994
G2 X20.65 Y212 I-0.2 J0.006
G1 Z-4 F50
G3 X17.35 Y212 I-1.65 J0 F150
X20.65 Y212 I1.65 J0
G2 X21.304 Y213.166 I1.366 J0
G3 X21.456 Y214.493 I-0.442 J0.724
X16.544 Y209.507 I-2.456 J-2.493
X21.456 Y214.493 I2.456 J2.493
X21.116 Y214.356 I-0.14 J-0.142
G1 X21.05 Y211.994
G2 X20.65 Y212 I-0.2 J0.006
G1 Z-5 F50
G3 X17.35 Y212 I-1.65 J0 F150
X20.65 Y212 I1.65 J0
G2 X21.304 Y213.166 I1.366 J0
G3 X21.456 Y214.493 I-0.442 J0.724
X16.544 Y209.507 I-2.456 J-2.493
X21.456 Y214.493 I2.456 J2.493
G0 Z15
M9
M5
M30
