(bottom_insets)
(Machine)
(  vendor: Autodesk)
(  model: Generic 3-axis)
(  description: This machine has XY axis on the Table and Z axis on the Head)
G90 G94
G17
G21

(bottom_insets)
T1
S12000 M3
G54
M8
G0 X8.35 Y8
Z15
Z5
G1 Z2.5 F150
Z-1 F50
G3 X6.65 Y8 I-0.85 J0 F150
X10.25 Y8 I1.8 J0
X4.75 Y8 I-2.75 J0
X10.25 Y8 I2.75 J0
X9.997 Y8.193 I-0.2 J0
G1 X8.603 Y7.807
G2 X8.35 Y8 I-0.053 J0.193
G1 Z-2 F50
G3 X6.65 Y8 I-0.85 J0 F150
X10.25 Y8 I1.8 J0
X4.75 Y8 I-2.75 J0
X10.25 Y8 I2.75 J0
X9.997 Y8.193 I-0.2 J0
G1 X8.603 Y7.807
G2 X8.35 Y8 I-0.053 J0.193
G1 Z-3 F50
G3 X6.65 Y8 I-0.85 J0 F150
X10.25 Y8 I1.8 J0
X4.75 Y8 I-2.75 J0
X10.25 Y8 I2.75 J0
X9.997 Y8.193 I-0.2 J0
G1 X8.603 Y7.807
G2 X8.35 Y8 I-0.053 J0.193
G1 Z-4 F50
G3 X6.65 Y8 I-0.85 J0 F150
X10.25 Y8 I1.8 J0
X4.75 Y8 I-2.75 J0
X10.25 Y8 I2.75 J0
X9.997 Y8.193 I-0.2 J0
G1 X8.603 Y7.807
G2 X8.35 Y8 I-0.053 J0.193
G1 Z-5 F50
G3 X6.65 Y8 I-0.85 J0 F150
X10.25 Y8 I1.8 J0
X4.75 Y8 I-2.75 J0
X10.25 Y8 I2.75 J0
G0 Z15
X8.35 Y31
Z5
G1 Z2.5 F150
Z-1 F50
G3 X6.65 Y31 I-0.85 J0 F150
X10.25 Y31 I1.8 J0
X4.75 Y31 I-2.75 J0
X10.25 Y31 I2.75 J0
X9.997 Y31.193 I-0.2 J0
G1 X8.603 Y30.807
G2 X8.35 Y31 I-0.053 J0.193
G1 Z-2 F50
G3 X6.65 Y31 I-0.85 J0 F150
X10.25 Y31 I1.8 J0
X4.75 Y31 I-2.75 J0
X10.25 Y31 I2.75 J0
X9.997 Y31.193 I-0.2 J0
G1 X8.603 Y30.807
G2 X8.35 Y31 I-0.053 J0.193
G1 Z-3 F50
G3 X6.65 Y31 I-0.85 J0 F150
X10.25 Y31 I1.8 J0
X4.75 Y31 I-2.75 J0
X10.25 Y31 I2.75 J0
X9.997 Y31.193 I-0.2 J0
G1 X8.603 Y30.807
G2 X8.35 Y31 I-0.053 J0.193
G1 Z-4 F50
G3 X6.65 Y31 I-0.85 J0 F150
X10.25 Y31 I1.8 J0
X4.75 Y31 I-2.75 J0
X10.25 Y31 I2.75 J0
X9.997 Y31.193 I-0.2 J0
G1 X8.603 Y30.807
G2 X8.35 Y31 I-0.053 J0.193
G1 Z-5 F50
G3 X6.65 Y31 I-0.85 J0 F150
X10.25 Y31 I1.8 J0
X4.75 Y31 I-2.75 J0
X10.25 Y31 I2.75 J0
G0 Z15
X39.65 Y73
Z5
G1 Z2.5 F150
Z-1 F50
G3 X35.35 Y73 I-2.15 J0 F150
X39.65 Y73 I2.15 J0
G2 X40.337 Y74.198 I1.388 J0
G3 X40.575 Y75.558 I-0.457 J0.781
X34.424 Y70.442 I-3.075 J-2.558
X40.575 Y75.558 I3.075 J2.558
X40.222 Y75.444 I-0.154 J-0.128
G1 X40.049 Y72.986
G2 X39.65 Y73 I-0.2 J0.014
G1 Z-2 F50
G3 X35.35 Y73 I-2.15 J0 F150
X39.65 Y73 I2.15 J0
G2 X40.337 Y74.198 I1.388 J0
G3 X40.575 Y75.558 I-0.457 J0.781
X34.424 Y70.442 I-3.075 J-2.558
X40.575 Y75.558 I3.075 J2.558
X40.222 Y75.444 I-0.154 J-0.128
G1 X40.049 Y72.986
G2 X39.65 Y73 I-0.2 J0.014
G1 Z-3 F50
G3 X35.35 Y73 I-2.15 J0 F150
X39.65 Y73 I2.15 J0
G2 X40.337 Y74.198 I1.388 J0
G3 X40.575 Y75.558 I-0.457 J0.781
X34.424 Y70.442 I-3.075 J-2.558
X40.575 Y75.558 I3.075 J2.558
X40.222 Y75.444 I-0.154 J-0.128
G1 X40.049 Y72.986
G2 X39.65 Y73 I-0.2 J0.014
G1 Z-4 F50
G3 X35.35 Y73 I-2.15 J0 F150
X39.65 Y73 I2.15 J0
G2 X40.337 Y74.198 I1.388 J0
G3 X40.575 Y75.558 I-0.457 J0.781
X34.424 Y70.442 I-3.075 J-2.558
X40.575 Y75.558 I3.075 J2.558
X40.222 Y75.444 I-0.154 J-0.128
G1 X40.049 Y72.986
G2 X39.65 Y73 I-0.2 J0.014
G1 Z-5 F50
G3 X35.35 Y73 I-2.15 J0 F150
X39.65 Y73 I2.15 J0
G2 X40.337 Y74.198 I1.388 J0
G3 X40.575 Y75.558 I-0.457 J0.781
X34.424 Y70.442 I-3.075 J-2.558
X40.575 Y75.558 I3.075 J2.558
G0 Z15
X36.21 Y224.72
Z5
G1 Z2.5 F150
Z-1 F50
G3 X38.79 Y221.28 I1.29 J-1.72 F150
X36.21 Y224.72 I-1.29 J1.72
G2 X34.84 Y224.551 I-0.833 J1.11
G3 X33.608 Y223.926 I-0.351 J-0.835
X41.391 Y222.074 I3.891 J-0.926
X33.608 Y223.926 I-3.891 J0.926
X34.022 Y223.479 I0.356 J-0.085
G1 X35.774 Y223.756
X35.835 Y223.766
X35.895 Y223.787
X36.579 Y224.092
G3 X36.745 Y224.613 I-0.149 J0.335
X36.21 Y224.72 I-0.316 J-0.186
G1 Z-2 F50
G3 X38.79 Y221.28 I1.29 J-1.72 F150
X36.21 Y224.72 I-1.29 J1.72
G2 X34.84 Y224.551 I-0.833 J1.11
G3 X33.608 Y223.926 I-0.351 J-0.835
X41.391 Y222.074 I3.891 J-0.926
X33.608 Y223.926 I-3.891 J0.926
X34.022 Y223.479 I0.356 J-0.085
G1 X35.774 Y223.756
X35.835 Y223.766
X35.895 Y223.787
X36.579 Y224.092
G3 X36.745 Y224.613 I-0.149 J0.335
X36.21 Y224.72 I-0.316 J-0.186
G1 Z-3 F50
G3 X38.79 Y221.28 I1.29 J-1.72 F150
X36.21 Y224.72 I-1.29 J1.72
G2 X34.84 Y224.551 I-0.833 J1.11
G3 X33.608 Y223.926 I-0.351 J-0.835
X41.391 Y222.074 I3.891 J-0.926
X33.608 Y223.926 I-3.891 J0.926
X34.022 Y223.479 I0.356 J-0.085
G1 X35.774 Y223.756
X35.835 Y223.766
X35.895 Y223.787
X36.579 Y224.092
G3 X36.745 Y224.613 I-0.149 J0.335
X36.21 Y224.72 I-0.316 J-0.186
G1 Z-4 F50
G3 X38.79 Y221.28 I1.29 J-1.72 F150
X36.21 Y224.72 I-1.29 J1.72
G2 X34.84 Y224.551 I-0.833 J1.11
G3 X33.608 Y223.926 I-0.351 J-0.835
X41.391 Y222.074 I3.891 J-0.926
X33.608 Y223.926 I-3.891 J0.926
X34.022 Y223.479 I0.356 J-0.085
G1 X35.774 Y223.756
X35.835 Y223.766
X35.895 Y223.787
X36.579 Y224.092
G3 X36.745 Y224.613 I-0.149 J0.335
X36.21 Y224.72 I-0.316 J-0.186
G1 Z-5 F50
G3 X38.79 Y221.28 I1.29 J-1.72 F150
X36.21 Y224.72 I-1.29 J1.72
G2 X34.84 Y224.551 I-0.833 J1.11
G3 X33.608 Y223.926 I-0.351 J-0.835
X41.391 Y222.074 I3.891 J-0.926
X33.608 Y223.926 I-3.891 J0.926
G0 Z15
X7.958 Y282
Z5
G1 Z2.5 F150
Z-1 F50
G3 X6.258 Y282 I-0.85 J0 F150
X9.858 Y282 I1.8 J0
X4.358 Y282 I-2.75 J0
X9.858 Y282 I2.75 J0
X9.605 Y282.193 I-0.2 J0
G1 X8.212 Y281.807
G2 X7.958 Y282 I-0.053 J0.193
G1 Z-2 F50
G3 X6.258 Y282 I-0.85 J0 F150
X9.858 Y282 I1.8 J0
X4.358 Y282 I-2.75 J0
X9.858 Y282 I2.75 J0
X9.605 Y282.193 I-0.2 J0
G1 X8.212 Y281.807
G2 X7.958 Y282 I-0.053 J0.193
G1 Z-3 F50
G3 X6.258 Y282 I-0.85 J0 F150
X9.858 Y282 I1.8 J0
X4.358 Y282 I-2.75 J0
X9.858 Y282 I2.75 J0
X9.605 Y282.193 I-0.2 J0
G1 X8.212 Y281.807
G2 X7.958 Y282 I-0.053 J0.193
G1 Z-4 F50
G3 X6.258 Y282 I-0.85 J0 F150
X9.858 Y282 I1.8 J0
X4.358 Y282 I-2.75 J0
X9.858 Y282 I2.75 J0
X9.605 Y282.193 I-0.2 J0
G1 X8.212 Y281.807
G2 X7.958 Y282 I-0.053 J0.193
G1 Z-5 F50
G3 X6.258 Y282 I-0.85 J0 F150
X9.858 Y282 I1.8 J0
X4.358 Y282 I-2.75 J0
X9.858 Y282 I2.75 J0
G0 Z15
X44.85
Z5
G1 Z2.5 F150
Z-1 F50
G3 X43.15 Y282 I-0.85 J0 F150
X46.75 Y282 I1.8 J0
X41.25 Y282 I-2.75 J0
X46.75 Y282 I2.75 J0
X46.497 Y282.193 I-0.2 J0
G1 X45.103 Y281.807
G2 X44.85 Y282 I-0.053 J0.193
G1 Z-2 F50
G3 X43.15 Y282 I-0.85 J0 F150
X46.75 Y282 I1.8 J0
X41.25 Y282 I-2.75 J0
X46.75 Y282 I2.75 J0
X46.497 Y282.193 I-0.2 J0
G1 X45.103 Y281.807
G2 X44.85 Y282 I-0.053 J0.193
G1 Z-3 F50
G3 X43.15 Y282 I-0.85 J0 F150
X46.75 Y282 I1.8 J0
X41.25 Y282 I-2.75 J0
X46.75 Y282 I2.75 J0
X46.497 Y282.193 I-0.2 J0
G1 X45.103 Y281.807
G2 X44.85 Y282 I-0.053 J0.193
G1 Z-4 F50
G3 X43.15 Y282 I-0.85 J0 F150
X46.75 Y282 I1.8 J0
X41.25 Y282 I-2.75 J0
X46.75 Y282 I2.75 J0
X46.497 Y282.193 I-0.2 J0
G1 X45.103 Y281.807
G2 X44.85 Y282 I-0.053 J0.193
G1 Z-5 F50
G3 X43.15 Y282 I-0.85 J0 F150
X46.75 Y282 I1.8 J0
X41.25 Y282 I-2.75 J0
X46.75 Y282 I2.75 J0
G0 Z15
X100.85
Z5
G1 Z2.5 F150
Z-1 F50
G3 X99.15 Y282 I-0.85 J0 F150
X102.75 Y282 I1.8 J0
X97.25 Y282 I-2.75 J0
X102.75 Y282 I2.75 J0
X102.497 Y282.193 I-0.2 J0
G1 X101.103 Y281.807
G2 X100.85 Y282 I-0.053 J0.193
G1 Z-2 F50
G3 X99.15 Y282 I-0.85 J0 F150
X102.75 Y282 I1.8 J0
X97.25 Y282 I-2.75 J0
X102.75 Y282 I2.75 J0
X102.497 Y282.193 I-0.2 J0
G1 X101.103 Y281.807
G2 X100.85 Y282 I-0.053 J0.193
G1 Z-3 F50
G3 X99.15 Y282 I-0.85 J0 F150
X102.75 Y282 I1.8 J0
X97.25 Y282 I-2.75 J0
X102.75 Y282 I2.75 J0
X102.497 Y282.193 I-0.2 J0
G1 X101.103 Y281.807
G2 X100.85 Y282 I-0.053 J0.193
G1 Z-4 F50
G3 X99.15 Y282 I-0.85 J0 F150
X102.75 Y282 I1.8 J0
X97.25 Y282 I-2.75 J0
X102.75 Y282 I2.75 J0
X102.497 Y282.193 I-0.2 J0
G1 X101.103 Y281.807
G2 X100.85 Y282 I-0.053 J0.193
G1 Z-5 F50
G3 X99.15 Y282 I-0.85 J0 F150
X102.75 Y282 I1.8 J0
X97.25 Y282 I-2.75 J0
X102.75 Y282 I2.75 J0
G0 Z15
X122.43
Z5
G1 Z2.5 F150
Z-1 F50
G3 X120.73 Y282 I-0.85 J0 F150
X124.33 Y282 I1.8 J0
X118.83 Y282 I-2.75 J0
X124.33 Y282 I2.75 J0
X124.077 Y282.193 I-0.2 J0
G1 X122.683 Y281.807
G2 X122.43 Y282 I-0.053 J0.193
G1 Z-2 F50
G3 X120.73 Y282 I-0.85 J0 F150
X124.33 Y282 I1.8 J0
X118.83 Y282 I-2.75 J0
X124.33 Y282 I2.75 J0
X124.077 Y282.193 I-0.2 J0
G1 X122.683 Y281.807
G2 X122.43 Y282 I-0.053 J0.193
G1 Z-3 F50
G3 X120.73 Y282 I-0.85 J0 F150
X124.33 Y282 I1.8 J0
X118.83 Y282 I-2.75 J0
X124.33 Y282 I2.75 J0
X124.077 Y282.193 I-0.2 J0
G1 X122.683 Y281.807
G2 X122.43 Y282 I-0.053 J0.193
G1 Z-4 F50
G3 X120.73 Y282 I-0.85 J0 F150
X124.33 Y282 I1.8 J0
X118.83 Y282 I-2.75 J0
X124.33 Y282 I2.75 J0
X124.077 Y282.193 I-0.2 J0
G1 X122.683 Y281.807
G2 X122.43 Y282 I-0.053 J0.193
G1 Z-5 F50
G3 X120.73 Y282 I-0.85 J0 F150
X124.33 Y282 I1.8 J0
X118.83 Y282 I-2.75 J0
X124.33 Y282 I2.75 J0
G0 Z15
X198.35
Z5
G1 Z2.5 F150
Z-1 F50
G3 X196.65 Y282 I-0.85 J0 F150
X200.25 Y282 I1.8 J0
X194.75 Y282 I-2.75 J0
X200.25 Y282 I2.75 J0
X199.997 Y282.193 I-0.2 J0
G1 X198.603 Y281.807
G2 X198.35 Y282 I-0.053 J0.193
G1 Z-2 F50
G3 X196.65 Y282 I-0.85 J0 F150
X200.25 Y282 I1.8 J0
X194.75 Y282 I-2.75 J0
X200.25 Y282 I2.75 J0
X199.997 Y282.193 I-0.2 J0
G1 X198.603 Y281.807
G2 X198.35 Y282 I-0.053 J0.193
G1 Z-3 F50
G3 X196.65 Y282 I-0.85 J0 F150
X200.25 Y282 I1.8 J0
X194.75 Y282 I-2.75 J0
X200.25 Y282 I2.75 J0
X199.997 Y282.193 I-0.2 J0
G1 X198.603 Y281.807
G2 X198.35 Y282 I-0.053 J0.193
G1 Z-4 F50
G3 X196.65 Y282 I-0.85 J0 F150
X200.25 Y282 I1.8 J0
X194.75 Y282 I-2.75 J0
X200.25 Y282 I2.75 J0
X199.997 Y282.193 I-0.2 J0
G1 X198.603 Y281.807
G2 X198.35 Y282 I-0.053 J0.193
G1 Z-5 F50
G3 X196.65 Y282 I-0.85 J0 F150
X200.25 Y282 I1.8 J0
X194.75 Y282 I-2.75 J0
X200.25 Y282 I2.75 J0
G0 Z15
X122.43 Y191.192
Z5
G1 Z2.5 F150
Z-1 F50
G3 X120.73 Y191.192 I-0.85 J0 F150
X124.33 Y191.192 I1.8 J0
X118.83 Y191.192 I-2.75 J0
X124.33 Y191.192 I2.75 J0
X124.077 Y191.385 I-0.2 J0
G1 X122.683 Y190.999
G2 X122.43 Y191.192 I-0.053 J0.193
G1 Z-2 F50
G3 X120.73 Y191.192 I-0.85 J0 F150
X124.33 Y191.192 I1.8 J0
X118.83 Y191.192 I-2.75 J0
X124.33 Y191.192 I2.75 J0
X124.077 Y191.385 I-0.2 J0
G1 X122.683 Y190.999
G2 X122.43 Y191.192 I-0.053 J0.193
G1 Z-3 F50
G3 X120.73 Y191.192 I-0.85 J0 F150
X124.33 Y191.192 I1.8 J0
X118.83 Y191.192 I-2.75 J0
X124.33 Y191.192 I2.75 J0
X124.077 Y191.385 I-0.2 J0
G1 X122.683 Y190.999
G2 X122.43 Y191.192 I-0.053 J0.193
G1 Z-4 F50
G3 X120.73 Y191.192 I-0.85 J0 F150
X124.33 Y191.192 I1.8 J0
X118.83 Y191.192 I-2.75 J0
X124.33 Y191.192 I2.75 J0
X124.077 Y191.385 I-0.2 J0
G1 X122.683 Y190.999
G2 X122.43 Y191.192 I-0.053 J0.193
G1 Z-5 F50
G3 X120.73 Y191.192 I-0.85 J0 F150
X124.33 Y191.192 I1.8 J0
X118.83 Y191.192 I-2.75 J0
X124.33 Y191.192 I2.75 J0
G0 Z15
X197.927
Z5
G1 Z2.5 F150
Z-1 F50
G3 X196.227 Y191.192 I-0.85 J0 F150
X199.827 Y191.192 I1.8 J0
X194.327 Y191.192 I-2.75 J0
X199.827 Y191.192 I2.75 J0
X199.574 Y191.385 I-0.2 J0
G1 X198.18 Y190.999
G2 X197.927 Y191.192 I-0.053 J0.193
G1 Z-2 F50
G3 X196.227 Y191.192 I-0.85 J0 F150
X199.827 Y191.192 I1.8 J0
X194.327 Y191.192 I-2.75 J0
X199.827 Y191.192 I2.75 J0
X199.574 Y191.385 I-0.2 J0
G1 X198.18 Y190.999
G2 X197.927 Y191.192 I-0.053 J0.193
G1 Z-3 F50
G3 X196.227 Y191.192 I-0.85 J0 F150
X199.827 Y191.192 I1.8 J0
X194.327 Y191.192 I-2.75 J0
X199.827 Y191.192 I2.75 J0
X199.574 Y191.385 I-0.2 J0
G1 X198.18 Y190.999
G2 X197.927 Y191.192 I-0.053 J0.193
G1 Z-4 F50
G3 X196.227 Y191.192 I-0.85 J0 F150
X199.827 Y191.192 I1.8 J0
X194.327 Y191.192 I-2.75 J0
X199.827 Y191.192 I2.75 J0
X199.574 Y191.385 I-0.2 J0
G1 X198.18 Y190.999
G2 X197.927 Y191.192 I-0.053 J0.193
G1 Z-5 F50
G3 X196.227 Y191.192 I-0.85 J0 F150
X199.827 Y191.192 I1.8 J0
X194.327 Y191.192 I-2.75 J0
X199.827 Y191.192 I2.75 J0
G0 Z15
X201.35 Y8
Z5
G1 Z2.5 F150
Z-1 F50
G3 X199.65 Y8 I-0.85 J0 F150
X203.25 Y8 I1.8 J0
X197.75 Y8 I-2.75 J0
X203.25 Y8 I2.75 J0
X202.997 Y8.193 I-0.2 J0
G1 X201.603 Y7.807
G2 X201.35 Y8 I-0.053 J0.193
G1 Z-2 F50
G3 X199.65 Y8 I-0.85 J0 F150
X203.25 Y8 I1.8 J0
X197.75 Y8 I-2.75 J0
X203.25 Y8 I2.75 J0
X202.997 Y8.193 I-0.2 J0
G1 X201.603 Y7.807
G2 X201.35 Y8 I-0.053 J0.193
G1 Z-3 F50
G3 X199.65 Y8 I-0.85 J0 F150
X203.25 Y8 I1.8 J0
X197.75 Y8 I-2.75 J0
X203.25 Y8 I2.75 J0
X202.997 Y8.193 I-0.2 J0
G1 X201.603 Y7.807
G2 X201.35 Y8 I-0.053 J0.193
G1 Z-4 F50
G3 X199.65 Y8 I-0.85 J0 F150
X203.25 Y8 I1.8 J0
X197.75 Y8 I-2.75 J0
X203.25 Y8 I2.75 J0
X202.997 Y8.193 I-0.2 J0
G1 X201.603 Y7.807
G2 X201.35 Y8 I-0.053 J0.193
G1 Z-5 F50
G3 X199.65 Y8 I-0.85 J0 F150
X203.25 Y8 I1.8 J0
X197.75 Y8 I-2.75 J0
X203.25 Y8 I2.75 J0
G0 Z15
M9
M5
M30
