(bottom_drill)
(Machine)
(  vendor: Autodesk)
(  model: Generic 3-axis)
(  description: This machine has XY axis on the Table and Z axis on the Head)
G90 G94
G17
G21

(bottom_drill)
T1
S12000 M3
G54
M8
G0 X103.777 Y152.851
Z15
Z5
G1 Z2.5 F150
Z-1 F50
G3 X103.777 Y153.051 I0 J0.1 F150
X103.777 Y152.851 I0 J-0.1
G1 Z-2 F50
G3 X103.777 Y153.051 I0 J0.1 F150
X103.777 Y152.851 I0 J-0.1
G1 Z-3 F50
G3 X103.777 Y153.051 I0 J0.1 F150
X103.777 Y152.851 I0 J-0.1
G1 Z-4 F50
G3 X103.777 Y153.051 I0 J0.1 F150
X103.777 Y152.851 I0 J-0.1
G1 Z-5 F50
G3 X103.777 Y153.051 I0 J0.1 F150
X103.777 Y152.851 I0 J-0.1
G1 Z-6 F50
G3 X103.777 Y153.051 I0 J0.1 F150
X103.777 Y152.851 I0 J-0.1
G1 Z-7 F50
G3 X103.777 Y153.051 I0 J0.1 F150
X103.777 Y152.851 I0 J-0.1
G1 Z-8 F50
G3 X103.777 Y153.051 I0 J0.1 F150
X103.777 Y152.851 I0 J-0.1
G1 Z-9 F50
G3 X103.777 Y153.051 I0 J0.1 F150
X103.777 Y152.851 I0 J-0.1
G1 Z-10 F50
G3 X103.777 Y153.051 I0 J0.1 F150
X103.777 Y152.851 I0 J-0.1
G1 Z-11 F50
G3 X103.777 Y153.051 I0 J0.1 F150
X103.777 Y152.851 I0 J-0.1
G1 Z-12 F50
G3 X103.777 Y153.051 I0 J0.1 F150
X103.777 Y152.851 I0 J-0.1
G0 Z5
X121.58 Y191.792
G1 Z2.5 F50
Z-1
G3 X121.58 Y190.592 I0 J-0.6 F150
X121.58 Y191.792 I0 J0.6
G1 Z-2 F50
G3 X121.58 Y190.592 I0 J-0.6 F150
X121.58 Y191.792 I0 J0.6
G1 Z-3 F50
G3 X121.58 Y190.592 I0 J-0.6 F150
X121.58 Y191.792 I0 J0.6
G1 Z-4 F50
G3 X121.58 Y190.592 I0 J-0.6 F150
X121.58 Y191.792 I0 J0.6
G1 Z-5 F50
G3 X121.58 Y190.592 I0 J-0.6 F150
X121.58 Y191.792 I0 J0.6
G1 Z-6 F50
G3 X121.58 Y190.592 I0 J-0.6 F150
X121.58 Y191.792 I0 J0.6
G1 Z-7 F50
G3 X121.58 Y190.592 I0 J-0.6 F150
X121.58 Y191.792 I0 J0.6
G1 Z-8 F50
G3 X121.58 Y190.592 I0 J-0.6 F150
X121.58 Y191.792 I0 J0.6
G1 Z-9 F50
G3 X121.58 Y190.592 I0 J-0.6 F150
X121.58 Y191.792 I0 J0.6
G1 Z-10 F50
G3 X121.58 Y190.592 I0 J-0.6 F150
X121.58 Y191.792 I0 J0.6
G1 Z-11 F50
G3 X121.58 Y190.592 I0 J-0.6 F150
X121.58 Y191.792 I0 J0.6
G1 Z-12 F50
G3 X121.58 Y190.592 I0 J-0.6 F150
X121.58 Y191.792 I0 J0.6
G0 Z5
X174.897 Y153.051
G1 Z2.5 F50
Z-1
G3 X174.897 Y152.851 I0 J-0.1 F150
X174.897 Y153.051 I0 J0.1
G1 Z-2 F50
G3 X174.897 Y152.851 I0 J-0.1 F150
X174.897 Y153.051 I0 J0.1
G1 Z-3 F50
G3 X174.897 Y152.851 I0 J-0.1 F150
X174.897 Y153.051 I0 J0.1
G1 Z-4 F50
G3 X174.897 Y152.851 I0 J-0.1 F150
X174.897 Y153.051 I0 J0.1
G1 Z-5 F50
G3 X174.897 Y152.851 I0 J-0.1 F150
X174.897 Y153.051 I0 J0.1
G1 Z-6 F50
G3 X174.897 Y152.851 I0 J-0.1 F150
X174.897 Y153.051 I0 J0.1
G1 Z-7 F50
G3 X174.897 Y152.851 I0 J-0.1 F150
X174.897 Y153.051 I0 J0.1
G1 Z-8 F50
G3 X174.897 Y152.851 I0 J-0.1 F150
X174.897 Y153.051 I0 J0.1
G1 Z-9 F50
G3 X174.897 Y152.851 I0 J-0.1 F150
X174.897 Y153.051 I0 J0.1
G1 Z-10 F50
G3 X174.897 Y152.851 I0 J-0.1 F150
X174.897 Y153.051 I0 J0.1
G1 Z-11 F50
G3 X174.897 Y152.851 I0 J-0.1 F150
X174.897 Y153.051 I0 J0.1
G1 Z-12 F50
G3 X174.897 Y152.851 I0 J-0.1 F150
X174.897 Y153.051 I0 J0.1
G0 Z5
X195.01 Y146.193
G1 Z2.5 F50
Z-1
G3 X195.21 Y146.193 I0.1 J0 F150
X195.01 Y146.193 I-0.1 J0
G1 Z-2 F50
G3 X195.21 Y146.193 I0.1 J0 F150
X195.01 Y146.193 I-0.1 J0
G1 Z-3 F50
G3 X195.21 Y146.193 I0.1 J0 F150
X195.01 Y146.193 I-0.1 J0
G1 Z-4 F50
G3 X195.21 Y146.193 I0.1 J0 F150
X195.01 Y146.193 I-0.1 J0
G1 Z-5 F50
G3 X195.21 Y146.193 I0.1 J0 F150
X195.01 Y146.193 I-0.1 J0
G1 Z-6 F50
G3 X195.21 Y146.193 I0.1 J0 F150
X195.01 Y146.193 I-0.1 J0
G1 Z-7 F50
G3 X195.21 Y146.193 I0.1 J0 F150
X195.01 Y146.193 I-0.1 J0
G1 Z-8 F50
G3 X195.21 Y146.193 I0.1 J0 F150
X195.01 Y146.193 I-0.1 J0
G1 Z-9 F50
G3 X195.21 Y146.193 I0.1 J0 F150
X195.01 Y146.193 I-0.1 J0
G1 Z-10 F50
G3 X195.21 Y146.193 I0.1 J0 F150
X195.01 Y146.193 I-0.1 J0
G1 Z-11 F50
G3 X195.21 Y146.193 I0.1 J0 F150
X195.01 Y146.193 I-0.1 J0
G1 Z-12 F50
G3 X195.21 Y146.193 I0.1 J0 F150
X195.01 Y146.193 I-0.1 J0
G0 Z5
Y172.863
G1 Z2.5 F50
Z-1
G3 X195.21 Y172.863 I0.1 J0 F150
X195.01 Y172.863 I-0.1 J0
G1 Z-2 F50
G3 X195.21 Y172.863 I0.1 J0 F150
X195.01 Y172.863 I-0.1 J0
G1 Z-3 F50
G3 X195.21 Y172.863 I0.1 J0 F150
X195.01 Y172.863 I-0.1 J0
G1 Z-4 F50
G3 X195.21 Y172.863 I0.1 J0 F150
X195.01 Y172.863 I-0.1 J0
G1 Z-5 F50
G3 X195.21 Y172.863 I0.1 J0 F150
X195.01 Y172.863 I-0.1 J0
G1 Z-6 F50
G3 X195.21 Y172.863 I0.1 J0 F150
X195.01 Y172.863 I-0.1 J0
G1 Z-7 F50
G3 X195.21 Y172.863 I0.1 J0 F150
X195.01 Y172.863 I-0.1 J0
G1 Z-8 F50
G3 X195.21 Y172.863 I0.1 J0 F150
X195.01 Y172.863 I-0.1 J0
G1 Z-9 F50
G3 X195.21 Y172.863 I0.1 J0 F150
X195.01 Y172.863 I-0.1 J0
G1 Z-10 F50
G3 X195.21 Y172.863 I0.1 J0 F150
X195.01 Y172.863 I-0.1 J0
G1 Z-11 F50
G3 X195.21 Y172.863 I0.1 J0 F150
X195.01 Y172.863 I-0.1 J0
G1 Z-12 F50
G3 X195.21 Y172.863 I0.1 J0 F150
X195.01 Y172.863 I-0.1 J0
G0 Z5
X197.077 Y191.792
G1 Z2.5 F50
Z-1
G3 X197.077 Y190.592 I0 J-0.6 F150
X197.077 Y191.792 I0 J0.6
G1 Z-2 F50
G3 X197.077 Y190.592 I0 J-0.6 F150
X197.077 Y191.792 I0 J0.6
G1 Z-3 F50
G3 X197.077 Y190.592 I0 J-0.6 F150
X197.077 Y191.792 I0 J0.6
G1 Z-4 F50
G3 X197.077 Y190.592 I0 J-0.6 F150
X197.077 Y191.792 I0 J0.6
G1 Z-5 F50
G3 X197.077 Y190.592 I0 J-0.6 F150
X197.077 Y191.792 I0 J0.6
G1 Z-6 F50
G3 X197.077 Y190.592 I0 J-0.6 F150
X197.077 Y191.792 I0 J0.6
G1 Z-7 F50
G3 X197.077 Y190.592 I0 J-0.6 F150
X197.077 Y191.792 I0 J0.6
G1 Z-8 F50
G3 X197.077 Y190.592 I0 J-0.6 F150
X197.077 Y191.792 I0 J0.6
G1 Z-9 F50
G3 X197.077 Y190.592 I0 J-0.6 F150
X197.077 Y191.792 I0 J0.6
G1 Z-10 F50
G3 X197.077 Y190.592 I0 J-0.6 F150
X197.077 Y191.792 I0 J0.6
G1 Z-11 F50
G3 X197.077 Y190.592 I0 J-0.6 F150
X197.077 Y191.792 I0 J0.6
G1 Z-12 F50
G3 X197.077 Y190.592 I0 J-0.6 F150
X197.077 Y191.792 I0 J0.6
G0 Z5
X197.5 Y281.4
G1 Z2.5 F50
Z-1
G3 X197.5 Y282.6 I0 J0.6 F150
X197.5 Y281.4 I0 J-0.6
G1 Z-2 F50
G3 X197.5 Y282.6 I0 J0.6 F150
X197.5 Y281.4 I0 J-0.6
G1 Z-3 F50
G3 X197.5 Y282.6 I0 J0.6 F150
X197.5 Y281.4 I0 J-0.6
G1 Z-4 F50
G3 X197.5 Y282.6 I0 J0.6 F150
X197.5 Y281.4 I0 J-0.6
G1 Z-5 F50
G3 X197.5 Y282.6 I0 J0.6 F150
X197.5 Y281.4 I0 J-0.6
G1 Z-6 F50
G3 X197.5 Y282.6 I0 J0.6 F150
X197.5 Y281.4 I0 J-0.6
G1 Z-7 F50
G3 X197.5 Y282.6 I0 J0.6 F150
X197.5 Y281.4 I0 J-0.6
G1 Z-8 F50
G3 X197.5 Y282.6 I0 J0.6 F150
X197.5 Y281.4 I0 J-0.6
G1 Z-9 F50
G3 X197.5 Y282.6 I0 J0.6 F150
X197.5 Y281.4 I0 J-0.6
G1 Z-10 F50
G3 X197.5 Y282.6 I0 J0.6 F150
X197.5 Y281.4 I0 J-0.6
G1 Z-11 F50
G3 X197.5 Y282.6 I0 J0.6 F150
X197.5 Y281.4 I0 J-0.6
G1 Z-12 F50
G3 X197.5 Y282.6 I0 J0.6 F150
X197.5 Y281.4 I0 J-0.6
G0 Z5
X167.6 Y280.1
G1 Z2.5 F50
Z-1
G3 X167.6 Y279.9 I0 J-0.1 F150
X167.6 Y280.1 I0 J0.1
G1 Z-2 F50
G3 X167.6 Y279.9 I0 J-0.1 F150
X167.6 Y280.1 I0 J0.1
G1 Z-3 F50
G3 X167.6 Y279.9 I0 J-0.1 F150
X167.6 Y280.1 I0 J0.1
G1 Z-4 F50
G3 X167.6 Y279.9 I0 J-0.1 F150
X167.6 Y280.1 I0 J0.1
G1 Z-5 F50
G3 X167.6 Y279.9 I0 J-0.1 F150
X167.6 Y280.1 I0 J0.1
G1 Z-6 F50
G3 X167.6 Y279.9 I0 J-0.1 F150
X167.6 Y280.1 I0 J0.1
G1 Z-7 F50
G3 X167.6 Y279.9 I0 J-0.1 F150
X167.6 Y280.1 I0 J0.1
G1 Z-8 F50
G3 X167.6 Y279.9 I0 J-0.1 F150
X167.6 Y280.1 I0 J0.1
G1 Z-9 F50
G3 X167.6 Y279.9 I0 J-0.1 F150
X167.6 Y280.1 I0 J0.1
G1 Z-10 F50
G3 X167.6 Y279.9 I0 J-0.1 F150
X167.6 Y280.1 I0 J0.1
G1 Z-11 F50
G3 X167.6 Y279.9 I0 J-0.1 F150
X167.6 Y280.1 I0 J0.1
G1 Z-12 F50
G3 X167.6 Y279.9 I0 J-0.1 F150
X167.6 Y280.1 I0 J0.1
G0 Z5
X158.1 Y281.1
G1 Z2.5 F50
Z-1
G3 X158.1 Y279.9 I0 J-0.6 F150
X158.1 Y281.1 I0 J0.6
G1 Z-2 F50
G3 X158.1 Y279.9 I0 J-0.6 F150
X158.1 Y281.1 I0 J0.6
G1 Z-3 F50
G3 X158.1 Y279.9 I0 J-0.6 F150
X158.1 Y281.1 I0 J0.6
G1 Z-4 F50
G3 X158.1 Y279.9 I0 J-0.6 F150
X158.1 Y281.1 I0 J0.6
G1 Z-5 F50
G3 X158.1 Y279.9 I0 J-0.6 F150
X158.1 Y281.1 I0 J0.6
G1 Z-6 F50
G3 X158.1 Y279.9 I0 J-0.6 F150
X158.1 Y281.1 I0 J0.6
G1 Z-7 F50
G3 X158.1 Y279.9 I0 J-0.6 F150
X158.1 Y281.1 I0 J0.6
G1 Z-8 F50
G3 X158.1 Y279.9 I0 J-0.6 F150
X158.1 Y281.1 I0 J0.6
G1 Z-9 F50
G3 X158.1 Y279.9 I0 J-0.6 F150
X158.1 Y281.1 I0 J0.6
G1 Z-10 F50
G3 X158.1 Y279.9 I0 J-0.6 F150
X158.1 Y281.1 I0 J0.6
G1 Z-11 F50
G3 X158.1 Y279.9 I0 J-0.6 F150
X158.1 Y281.1 I0 J0.6
G1 Z-12 F50
G3 X158.1 Y279.9 I0 J-0.6 F150
X158.1 Y281.1 I0 J0.6
G0 Z5
X146.1
G1 Z2.5 F50
Z-1
G3 X146.1 Y279.9 I0 J-0.6 F150
X146.1 Y281.1 I0 J0.6
G1 Z-2 F50
G3 X146.1 Y279.9 I0 J-0.6 F150
X146.1 Y281.1 I0 J0.6
G1 Z-3 F50
G3 X146.1 Y279.9 I0 J-0.6 F150
X146.1 Y281.1 I0 J0.6
G1 Z-4 F50
G3 X146.1 Y279.9 I0 J-0.6 F150
X146.1 Y281.1 I0 J0.6
G1 Z-5 F50
G3 X146.1 Y279.9 I0 J-0.6 F150
X146.1 Y281.1 I0 J0.6
G1 Z-6 F50
G3 X146.1 Y279.9 I0 J-0.6 F150
X146.1 Y281.1 I0 J0.6
G1 Z-7 F50
G3 X146.1 Y279.9 I0 J-0.6 F150
X146.1 Y281.1 I0 J0.6
G1 Z-8 F50
G3 X146.1 Y279.9 I0 J-0.6 F150
X146.1 Y281.1 I0 J0.6
G1 Z-9 F50
G3 X146.1 Y279.9 I0 J-0.6 F150
X146.1 Y281.1 I0 J0.6
G1 Z-10 F50
G3 X146.1 Y279.9 I0 J-0.6 F150
X146.1 Y281.1 I0 J0.6
G1 Z-11 F50
G3 X146.1 Y279.9 I0 J-0.6 F150
X146.1 Y281.1 I0 J0.6
G1 Z-12 F50
G3 X146.1 Y279.9 I0 J-0.6 F150
X146.1 Y281.1 I0 J0.6
G0 Z5
X136.6 Y279.9
G1 Z2.5 F50
Z-1
G3 X136.6 Y280.1 I0 J0.1 F150
X136.6 Y279.9 I0 J-0.1
G1 Z-2 F50
G3 X136.6 Y280.1 I0 J0.1 F150
X136.6 Y279.9 I0 J-0.1
G1 Z-3 F50
G3 X136.6 Y280.1 I0 J0.1 F150
X136.6 Y279.9 I0 J-0.1
G1 Z-4 F50
G3 X136.6 Y280.1 I0 J0.1 F150
X136.6 Y279.9 I0 J-0.1
G1 Z-5 F50
G3 X136.6 Y280.1 I0 J0.1 F150
X136.6 Y279.9 I0 J-0.1
G1 Z-6 F50
G3 X136.6 Y280.1 I0 J0.1 F150
X136.6 Y279.9 I0 J-0.1
G1 Z-7 F50
G3 X136.6 Y280.1 I0 J0.1 F150
X136.6 Y279.9 I0 J-0.1
G1 Z-8 F50
G3 X136.6 Y280.1 I0 J0.1 F150
X136.6 Y279.9 I0 J-0.1
G1 Z-9 F50
G3 X136.6 Y280.1 I0 J0.1 F150
X136.6 Y279.9 I0 J-0.1
G1 Z-10 F50
G3 X136.6 Y280.1 I0 J0.1 F150
X136.6 Y279.9 I0 J-0.1
G1 Z-11 F50
G3 X136.6 Y280.1 I0 J0.1 F150
X136.6 Y279.9 I0 J-0.1
G1 Z-12 F50
G3 X136.6 Y280.1 I0 J0.1 F150
X136.6 Y279.9 I0 J-0.1
G0 Z5
X121.58 Y282.6
G1 Z2.5 F50
Z-1
G3 X121.58 Y281.4 I0 J-0.6 F150
X121.58 Y282.6 I0 J0.6
G1 Z-2 F50
G3 X121.58 Y281.4 I0 J-0.6 F150
X121.58 Y282.6 I0 J0.6
G1 Z-3 F50
G3 X121.58 Y281.4 I0 J-0.6 F150
X121.58 Y282.6 I0 J0.6
G1 Z-4 F50
G3 X121.58 Y281.4 I0 J-0.6 F150
X121.58 Y282.6 I0 J0.6
G1 Z-5 F50
G3 X121.58 Y281.4 I0 J-0.6 F150
X121.58 Y282.6 I0 J0.6
G1 Z-6 F50
G3 X121.58 Y281.4 I0 J-0.6 F150
X121.58 Y282.6 I0 J0.6
G1 Z-7 F50
G3 X121.58 Y281.4 I0 J-0.6 F150
X121.58 Y282.6 I0 J0.6
G1 Z-8 F50
G3 X121.58 Y281.4 I0 J-0.6 F150
X121.58 Y282.6 I0 J0.6
G1 Z-9 F50
G3 X121.58 Y281.4 I0 J-0.6 F150
X121.58 Y282.6 I0 J0.6
G1 Z-10 F50
G3 X121.58 Y281.4 I0 J-0.6 F150
X121.58 Y282.6 I0 J0.6
G1 Z-11 F50
G3 X121.58 Y281.4 I0 J-0.6 F150
X121.58 Y282.6 I0 J0.6
G1 Z-12 F50
G3 X121.58 Y281.4 I0 J-0.6 F150
X121.58 Y282.6 I0 J0.6
G0 Z5
X100 Y281.4
G1 Z2.5 F50
Z-1
G3 X100 Y282.6 I0 J0.6 F150
X100 Y281.4 I0 J-0.6
G1 Z-2 F50
G3 X100 Y282.6 I0 J0.6 F150
X100 Y281.4 I0 J-0.6
G1 Z-3 F50
G3 X100 Y282.6 I0 J0.6 F150
X100 Y281.4 I0 J-0.6
G1 Z-4 F50
G3 X100 Y282.6 I0 J0.6 F150
X100 Y281.4 I0 J-0.6
G1 Z-5 F50
G3 X100 Y282.6 I0 J0.6 F150
X100 Y281.4 I0 J-0.6
G1 Z-6 F50
G3 X100 Y282.6 I0 J0.6 F150
X100 Y281.4 I0 J-0.6
G1 Z-7 F50
G3 X100 Y282.6 I0 J0.6 F150
X100 Y281.4 I0 J-0.6
G1 Z-8 F50
G3 X100 Y282.6 I0 J0.6 F150
X100 Y281.4 I0 J-0.6
G1 Z-9 F50
G3 X100 Y282.6 I0 J0.6 F150
X100 Y281.4 I0 J-0.6
G1 Z-10 F50
G3 X100 Y282.6 I0 J0.6 F150
X100 Y281.4 I0 J-0.6
G1 Z-11 F50
G3 X100 Y282.6 I0 J0.6 F150
X100 Y281.4 I0 J-0.6
G1 Z-12 F50
G3 X100 Y282.6 I0 J0.6 F150
X100 Y281.4 I0 J-0.6
G0 Z5
X44
G1 Z2.5 F50
Z-1
G3 X44 Y282.6 I0 J0.6 F150
X44 Y281.4 I0 J-0.6
G1 Z-2 F50
G3 X44 Y282.6 I0 J0.6 F150
X44 Y281.4 I0 J-0.6
G1 Z-3 F50
G3 X44 Y282.6 I0 J0.6 F150
X44 Y281.4 I0 J-0.6
G1 Z-4 F50
G3 X44 Y282.6 I0 J0.6 F150
X44 Y281.4 I0 J-0.6
G1 Z-5 F50
G3 X44 Y282.6 I0 J0.6 F150
X44 Y281.4 I0 J-0.6
G1 Z-6 F50
G3 X44 Y282.6 I0 J0.6 F150
X44 Y281.4 I0 J-0.6
G1 Z-7 F50
G3 X44 Y282.6 I0 J0.6 F150
X44 Y281.4 I0 J-0.6
G1 Z-8 F50
G3 X44 Y282.6 I0 J0.6 F150
X44 Y281.4 I0 J-0.6
G1 Z-9 F50
G3 X44 Y282.6 I0 J0.6 F150
X44 Y281.4 I0 J-0.6
G1 Z-10 F50
G3 X44 Y282.6 I0 J0.6 F150
X44 Y281.4 I0 J-0.6
G1 Z-11 F50
G3 X44 Y282.6 I0 J0.6 F150
X44 Y281.4 I0 J-0.6
G1 Z-12 F50
G3 X44 Y282.6 I0 J0.6 F150
X44 Y281.4 I0 J-0.6
G0 Z5
X7.108 Y282.6
G1 Z2.5 F50
Z-1
G3 X7.108 Y281.4 I0 J-0.6 F150
X7.108 Y282.6 I0 J0.6
G1 Z-2 F50
G3 X7.108 Y281.4 I0 J-0.6 F150
X7.108 Y282.6 I0 J0.6
G1 Z-3 F50
G3 X7.108 Y281.4 I0 J-0.6 F150
X7.108 Y282.6 I0 J0.6
G1 Z-4 F50
G3 X7.108 Y281.4 I0 J-0.6 F150
X7.108 Y282.6 I0 J0.6
G1 Z-5 F50
G3 X7.108 Y281.4 I0 J-0.6 F150
X7.108 Y282.6 I0 J0.6
G1 Z-6 F50
G3 X7.108 Y281.4 I0 J-0.6 F150
X7.108 Y282.6 I0 J0.6
G1 Z-7 F50
G3 X7.108 Y281.4 I0 J-0.6 F150
X7.108 Y282.6 I0 J0.6
G1 Z-8 F50
G3 X7.108 Y281.4 I0 J-0.6 F150
X7.108 Y282.6 I0 J0.6
G1 Z-9 F50
G3 X7.108 Y281.4 I0 J-0.6 F150
X7.108 Y282.6 I0 J0.6
G1 Z-10 F50
G3 X7.108 Y281.4 I0 J-0.6 F150
X7.108 Y282.6 I0 J0.6
G1 Z-11 F50
G3 X7.108 Y281.4 I0 J-0.6 F150
X7.108 Y282.6 I0 J0.6
G1 Z-12 F50
G3 X7.108 Y281.4 I0 J-0.6 F150
X7.108 Y282.6 I0 J0.6
G0 Z5
X38.4 Y223
G1 Z2.5 F50
Z-1
X38.407 Y222.975 F150
X38.425 Y222.957
X38.45 Y222.95
X38.475 Y222.957
X38.493 Y222.975
X38.5 Y223
G3 X36.5 Y223 I-1 J0
X38.5 Y223 I1 J0
G1 X38.4
Z-2 F50
X38.407 Y222.975 F150
X38.425 Y222.957
X38.45 Y222.95
X38.475 Y222.957
X38.493 Y222.975
X38.5 Y223
G3 X36.5 Y223 I-1 J0
X38.5 Y223 I1 J0
G1 X38.4
Z-3 F50
X38.407 Y222.975 F150
X38.425 Y222.957
X38.45 Y222.95
X38.475 Y222.957
X38.493 Y222.975
X38.5 Y223
G3 X36.5 Y223 I-1 J0
X38.5 Y223 I1 J0
G1 X38.4
Z-4 F50
X38.407 Y222.975 F150
X38.425 Y222.957
X38.45 Y222.95
X38.475 Y222.957
X38.493 Y222.975
X38.5 Y223
G3 X36.5 Y223 I-1 J0
X38.5 Y223 I1 J0
G1 X38.4
Z-5 F50
X38.407 Y222.975 F150
X38.425 Y222.957
X38.45 Y222.95
X38.475 Y222.957
X38.493 Y222.975
X38.5 Y223
G3 X36.5 Y223 I-1 J0
X38.5 Y223 I1 J0
G1 X38.4
Z-6 F50
X38.407 Y222.975 F150
X38.425 Y222.957
X38.45 Y222.95
X38.475 Y222.957
X38.493 Y222.975
X38.5 Y223
G3 X36.5 Y223 I-1 J0
X38.5 Y223 I1 J0
G1 X38.4
Z-7 F50
X38.407 Y222.975 F150
X38.425 Y222.957
X38.45 Y222.95
X38.475 Y222.957
X38.493 Y222.975
X38.5 Y223
G3 X36.5 Y223 I-1 J0
X38.5 Y223 I1 J0
G1 X38.4
Z-8 F50
X38.407 Y222.975 F150
X38.425 Y222.957
X38.45 Y222.95
X38.475 Y222.957
X38.493 Y222.975
X38.5 Y223
G3 X36.5 Y223 I-1 J0
X38.5 Y223 I1 J0
G1 X38.4
Z-9 F50
X38.407 Y222.975 F150
X38.425 Y222.957
X38.45 Y222.95
X38.475 Y222.957
X38.493 Y222.975
X38.5 Y223
G3 X36.5 Y223 I-1 J0
X38.5 Y223 I1 J0
G1 X38.4
Z-10 F50
X38.407 Y222.975 F150
X38.425 Y222.957
X38.45 Y222.95
X38.475 Y222.957
X38.493 Y222.975
X38.5 Y223
G3 X36.5 Y223 I-1 J0
X38.5 Y223 I1 J0
G1 X38.4
Z-11 F50
X38.407 Y222.975 F150
X38.425 Y222.957
X38.45 Y222.95
X38.475 Y222.957
X38.493 Y222.975
X38.5 Y223
G3 X36.5 Y223 I-1 J0
X38.5 Y223 I1 J0
G1 X38.4
Z-12 F50
X38.407 Y222.975 F150
X38.425 Y222.957
X38.45 Y222.95
X38.475 Y222.957
X38.493 Y222.975
X38.5 Y223
G3 X36.5 Y223 I-1 J0
X38.5 Y223 I1 J0
G0 Z5
X38.4 Y73
G1 Z2.5 F50
Z-1
X38.407 Y72.975 F150
X38.425 Y72.957
X38.45 Y72.95
X38.475 Y72.957
X38.493 Y72.975
X38.5 Y73
G3 X36.5 Y73 I-1 J0
X38.5 Y73 I1 J0
G1 X38.4
Z-2 F50
X38.407 Y72.975 F150
X38.425 Y72.957
X38.45 Y72.95
X38.475 Y72.957
X38.493 Y72.975
X38.5 Y73
G3 X36.5 Y73 I-1 J0
X38.5 Y73 I1 J0
G1 X38.4
Z-3 F50
X38.407 Y72.975 F150
X38.425 Y72.957
X38.45 Y72.95
X38.475 Y72.957
X38.493 Y72.975
X38.5 Y73
G3 X36.5 Y73 I-1 J0
X38.5 Y73 I1 J0
G1 X38.4
Z-4 F50
X38.407 Y72.975 F150
X38.425 Y72.957
X38.45 Y72.95
X38.475 Y72.957
X38.493 Y72.975
X38.5 Y73
G3 X36.5 Y73 I-1 J0
X38.5 Y73 I1 J0
G1 X38.4
Z-5 F50
X38.407 Y72.975 F150
X38.425 Y72.957
X38.45 Y72.95
X38.475 Y72.957
X38.493 Y72.975
X38.5 Y73
G3 X36.5 Y73 I-1 J0
X38.5 Y73 I1 J0
G1 X38.4
Z-6 F50
X38.407 Y72.975 F150
X38.425 Y72.957
X38.45 Y72.95
X38.475 Y72.957
X38.493 Y72.975
X38.5 Y73
G3 X36.5 Y73 I-1 J0
X38.5 Y73 I1 J0
G1 X38.4
Z-7 F50
X38.407 Y72.975 F150
X38.425 Y72.957
X38.45 Y72.95
X38.475 Y72.957
X38.493 Y72.975
X38.5 Y73
G3 X36.5 Y73 I-1 J0
X38.5 Y73 I1 J0
G1 X38.4
Z-8 F50
X38.407 Y72.975 F150
X38.425 Y72.957
X38.45 Y72.95
X38.475 Y72.957
X38.493 Y72.975
X38.5 Y73
G3 X36.5 Y73 I-1 J0
X38.5 Y73 I1 J0
G1 X38.4
Z-9 F50
X38.407 Y72.975 F150
X38.425 Y72.957
X38.45 Y72.95
X38.475 Y72.957
X38.493 Y72.975
X38.5 Y73
G3 X36.5 Y73 I-1 J0
X38.5 Y73 I1 J0
G1 X38.4
Z-10 F50
X38.407 Y72.975 F150
X38.425 Y72.957
X38.45 Y72.95
X38.475 Y72.957
X38.493 Y72.975
X38.5 Y73
G3 X36.5 Y73 I-1 J0
X38.5 Y73 I1 J0
G1 X38.4
Z-11 F50
X38.407 Y72.975 F150
X38.425 Y72.957
X38.45 Y72.95
X38.475 Y72.957
X38.493 Y72.975
X38.5 Y73
G3 X36.5 Y73 I-1 J0
X38.5 Y73 I1 J0
G1 X38.4
Z-12 F50
X38.407 Y72.975 F150
X38.425 Y72.957
X38.45 Y72.95
X38.475 Y72.957
X38.493 Y72.975
X38.5 Y73
G3 X36.5 Y73 I-1 J0
X38.5 Y73 I1 J0
G0 Z5
X7.5 Y30.4
G1 Z2.5 F50
Z-1
G3 X7.5 Y31.6 I0 J0.6 F150
X7.5 Y30.4 I0 J-0.6
G1 Z-2 F50
G3 X7.5 Y31.6 I0 J0.6 F150
X7.5 Y30.4 I0 J-0.6
G1 Z-3 F50
G3 X7.5 Y31.6 I0 J0.6 F150
X7.5 Y30.4 I0 J-0.6
G1 Z-4 F50
G3 X7.5 Y31.6 I0 J0.6 F150
X7.5 Y30.4 I0 J-0.6
G1 Z-5 F50
G3 X7.5 Y31.6 I0 J0.6 F150
X7.5 Y30.4 I0 J-0.6
G1 Z-6 F50
G3 X7.5 Y31.6 I0 J0.6 F150
X7.5 Y30.4 I0 J-0.6
G1 Z-7 F50
G3 X7.5 Y31.6 I0 J0.6 F150
X7.5 Y30.4 I0 J-0.6
G1 Z-8 F50
G3 X7.5 Y31.6 I0 J0.6 F150
X7.5 Y30.4 I0 J-0.6
G1 Z-9 F50
G3 X7.5 Y31.6 I0 J0.6 F150
X7.5 Y30.4 I0 J-0.6
G1 Z-10 F50
G3 X7.5 Y31.6 I0 J0.6 F150
X7.5 Y30.4 I0 J-0.6
G1 Z-11 F50
G3 X7.5 Y31.6 I0 J0.6 F150
X7.5 Y30.4 I0 J-0.6
G1 Z-12 F50
G3 X7.5 Y31.6 I0 J0.6 F150
X7.5 Y30.4 I0 J-0.6
G0 Z5
X18.048 Y13.436
G1 Z2.5 F50
Z-1
G3 X17.848 Y13.436 I-0.1 J0 F150
X18.048 Y13.436 I0.1 J0
G1 Z-2 F50
G3 X17.848 Y13.436 I-0.1 J0 F150
X18.048 Y13.436 I0.1 J0
G1 Z-3 F50
G3 X17.848 Y13.436 I-0.1 J0 F150
X18.048 Y13.436 I0.1 J0
G1 Z-4 F50
G3 X17.848 Y13.436 I-0.1 J0 F150
X18.048 Y13.436 I0.1 J0
G1 Z-5 F50
G3 X17.848 Y13.436 I-0.1 J0 F150
X18.048 Y13.436 I0.1 J0
G1 Z-6 F50
G3 X17.848 Y13.436 I-0.1 J0 F150
X18.048 Y13.436 I0.1 J0
G1 Z-7 F50
G3 X17.848 Y13.436 I-0.1 J0 F150
X18.048 Y13.436 I0.1 J0
G1 Z-8 F50
G3 X17.848 Y13.436 I-0.1 J0 F150
X18.048 Y13.436 I0.1 J0
G1 Z-9 F50
G3 X17.848 Y13.436 I-0.1 J0 F150
X18.048 Y13.436 I0.1 J0
G1 Z-10 F50
G3 X17.848 Y13.436 I-0.1 J0 F150
X18.048 Y13.436 I0.1 J0
G1 Z-11 F50
G3 X17.848 Y13.436 I-0.1 J0 F150
X18.048 Y13.436 I0.1 J0
G1 Z-12 F50
G3 X17.848 Y13.436 I-0.1 J0 F150
X18.048 Y13.436 I0.1 J0
G0 Z5
X6.9 Y8
G1 Z2.5 F50
Z-1
G3 X8.1 Y8 I0.6 J0 F150
X6.9 Y8 I-0.6 J0
G1 Z-2 F50
G3 X8.1 Y8 I0.6 J0 F150
X6.9 Y8 I-0.6 J0
G1 Z-3 F50
G3 X8.1 Y8 I0.6 J0 F150
X6.9 Y8 I-0.6 J0
G1 Z-4 F50
G3 X8.1 Y8 I0.6 J0 F150
X6.9 Y8 I-0.6 J0
G1 Z-5 F50
G3 X8.1 Y8 I0.6 J0 F150
X6.9 Y8 I-0.6 J0
G1 Z-6 F50
G3 X8.1 Y8 I0.6 J0 F150
X6.9 Y8 I-0.6 J0
G1 Z-7 F50
G3 X8.1 Y8 I0.6 J0 F150
X6.9 Y8 I-0.6 J0
G1 Z-8 F50
G3 X8.1 Y8 I0.6 J0 F150
X6.9 Y8 I-0.6 J0
G1 Z-9 F50
G3 X8.1 Y8 I0.6 J0 F150
X6.9 Y8 I-0.6 J0
G1 Z-10 F50
G3 X8.1 Y8 I0.6 J0 F150
X6.9 Y8 I-0.6 J0
G1 Z-11 F50
G3 X8.1 Y8 I0.6 J0 F150
X6.9 Y8 I-0.6 J0
G1 Z-12 F50
G3 X8.1 Y8 I0.6 J0 F150
X6.9 Y8 I-0.6 J0
G0 Z5
X73.728 Y13.436
G1 Z2.5 F50
Z-1
G3 X73.928 Y13.436 I0.1 J0 F150
X73.728 Y13.436 I-0.1 J0
G1 Z-2 F50
G3 X73.928 Y13.436 I0.1 J0 F150
X73.728 Y13.436 I-0.1 J0
G1 Z-3 F50
G3 X73.928 Y13.436 I0.1 J0 F150
X73.728 Y13.436 I-0.1 J0
G1 Z-4 F50
G3 X73.928 Y13.436 I0.1 J0 F150
X73.728 Y13.436 I-0.1 J0
G1 Z-5 F50
G3 X73.928 Y13.436 I0.1 J0 F150
X73.728 Y13.436 I-0.1 J0
G1 Z-6 F50
G3 X73.928 Y13.436 I0.1 J0 F150
X73.728 Y13.436 I-0.1 J0
G1 Z-7 F50
G3 X73.928 Y13.436 I0.1 J0 F150
X73.728 Y13.436 I-0.1 J0
G1 Z-8 F50
G3 X73.928 Y13.436 I0.1 J0 F150
X73.728 Y13.436 I-0.1 J0
G1 Z-9 F50
G3 X73.928 Y13.436 I0.1 J0 F150
X73.728 Y13.436 I-0.1 J0
G1 Z-10 F50
G3 X73.928 Y13.436 I0.1 J0 F150
X73.728 Y13.436 I-0.1 J0
G1 Z-11 F50
G3 X73.928 Y13.436 I0.1 J0 F150
X73.728 Y13.436 I-0.1 J0
G1 Z-12 F50
G3 X73.928 Y13.436 I0.1 J0 F150
X73.728 Y13.436 I-0.1 J0
G0 Z5
X103.777 Y46.371
G1 Z2.5 F50
Z-1
G3 X103.777 Y46.171 I0 J-0.1 F150
X103.777 Y46.371 I0 J0.1
G1 Z-2 F50
G3 X103.777 Y46.171 I0 J-0.1 F150
X103.777 Y46.371 I0 J0.1
G1 Z-3 F50
G3 X103.777 Y46.171 I0 J-0.1 F150
X103.777 Y46.371 I0 J0.1
G1 Z-4 F50
G3 X103.777 Y46.171 I0 J-0.1 F150
X103.777 Y46.371 I0 J0.1
G1 Z-5 F50
G3 X103.777 Y46.171 I0 J-0.1 F150
X103.777 Y46.371 I0 J0.1
G1 Z-6 F50
G3 X103.777 Y46.171 I0 J-0.1 F150
X103.777 Y46.371 I0 J0.1
G1 Z-7 F50
G3 X103.777 Y46.171 I0 J-0.1 F150
X103.777 Y46.371 I0 J0.1
G1 Z-8 F50
G3 X103.777 Y46.171 I0 J-0.1 F150
X103.777 Y46.371 I0 J0.1
G1 Z-9 F50
G3 X103.777 Y46.171 I0 J-0.1 F150
X103.777 Y46.371 I0 J0.1
G1 Z-10 F50
G3 X103.777 Y46.171 I0 J-0.1 F150
X103.777 Y46.371 I0 J0.1
G1 Z-11 F50
G3 X103.777 Y46.171 I0 J-0.1 F150
X103.777 Y46.371 I0 J0.1
G1 Z-12 F50
G3 X103.777 Y46.171 I0 J-0.1 F150
X103.777 Y46.371 I0 J0.1
G0 Z5
X129.608 Y13.436
G1 Z2.5 F50
Z-1
G3 X129.808 Y13.436 I0.1 J0 F150
X129.608 Y13.436 I-0.1 J0
G1 Z-2 F50
G3 X129.808 Y13.436 I0.1 J0 F150
X129.608 Y13.436 I-0.1 J0
G1 Z-3 F50
G3 X129.808 Y13.436 I0.1 J0 F150
X129.608 Y13.436 I-0.1 J0
G1 Z-4 F50
G3 X129.808 Y13.436 I0.1 J0 F150
X129.608 Y13.436 I-0.1 J0
G1 Z-5 F50
G3 X129.808 Y13.436 I0.1 J0 F150
X129.608 Y13.436 I-0.1 J0
G1 Z-6 F50
G3 X129.808 Y13.436 I0.1 J0 F150
X129.608 Y13.436 I-0.1 J0
G1 Z-7 F50
G3 X129.808 Y13.436 I0.1 J0 F150
X129.608 Y13.436 I-0.1 J0
G1 Z-8 F50
G3 X129.808 Y13.436 I0.1 J0 F150
X129.608 Y13.436 I-0.1 J0
G1 Z-9 F50
G3 X129.808 Y13.436 I0.1 J0 F150
X129.608 Y13.436 I-0.1 J0
G1 Z-10 F50
G3 X129.808 Y13.436 I0.1 J0 F150
X129.608 Y13.436 I-0.1 J0
G1 Z-11 F50
G3 X129.808 Y13.436 I0.1 J0 F150
X129.608 Y13.436 I-0.1 J0
G1 Z-12 F50
G3 X129.808 Y13.436 I0.1 J0 F150
X129.608 Y13.436 I-0.1 J0
G0 Z5
X139.274 Y14.799
G1 Z2.5 F50
Z-1
X139.282 Y14.76 F150
X139.303 Y14.728
X139.336 Y14.706
X139.374 Y14.699
X139.412 Y14.706
X139.445 Y14.728
X139.466 Y14.76
X139.474 Y14.799
X139.466 Y14.837
X139.445 Y14.869
X139.412 Y14.891
X139.374 Y14.899
X139.336 Y14.891
X139.303 Y14.869
X139.282 Y14.837
X139.274 Y14.799
Z-2 F50
X139.282 Y14.76 F150
X139.303 Y14.728
X139.336 Y14.706
X139.374 Y14.699
X139.412 Y14.706
X139.445 Y14.728
X139.466 Y14.76
X139.474 Y14.799
X139.466 Y14.837
X139.445 Y14.869
X139.412 Y14.891
X139.374 Y14.899
X139.336 Y14.891
X139.303 Y14.869
X139.282 Y14.837
X139.274 Y14.799
Z-3 F50
X139.282 Y14.76 F150
X139.303 Y14.728
X139.336 Y14.706
X139.374 Y14.699
X139.412 Y14.706
X139.445 Y14.728
X139.466 Y14.76
X139.474 Y14.799
X139.466 Y14.837
X139.445 Y14.869
X139.412 Y14.891
X139.374 Y14.899
X139.336 Y14.891
X139.303 Y14.869
X139.282 Y14.837
X139.274 Y14.799
Z-4 F50
X139.282 Y14.76 F150
X139.303 Y14.728
X139.336 Y14.706
X139.374 Y14.699
X139.412 Y14.706
X139.445 Y14.728
X139.466 Y14.76
X139.474 Y14.799
X139.466 Y14.837
X139.445 Y14.869
X139.412 Y14.891
X139.374 Y14.899
X139.336 Y14.891
X139.303 Y14.869
X139.282 Y14.837
X139.274 Y14.799
Z-5 F50
X139.282 Y14.76 F150
X139.303 Y14.728
X139.336 Y14.706
X139.374 Y14.699
X139.412 Y14.706
X139.445 Y14.728
X139.466 Y14.76
X139.474 Y14.799
X139.466 Y14.837
X139.445 Y14.869
X139.412 Y14.891
X139.374 Y14.899
X139.336 Y14.891
X139.303 Y14.869
X139.282 Y14.837
X139.274 Y14.799
Z-6 F50
X139.282 Y14.76 F150
X139.303 Y14.728
X139.336 Y14.706
X139.374 Y14.699
X139.412 Y14.706
X139.445 Y14.728
X139.466 Y14.76
X139.474 Y14.799
X139.466 Y14.837
X139.445 Y14.869
X139.412 Y14.891
X139.374 Y14.899
X139.336 Y14.891
X139.303 Y14.869
X139.282 Y14.837
X139.274 Y14.799
Z-7 F50
X139.282 Y14.76 F150
X139.303 Y14.728
X139.336 Y14.706
X139.374 Y14.699
X139.412 Y14.706
X139.445 Y14.728
X139.466 Y14.76
X139.474 Y14.799
X139.466 Y14.837
X139.445 Y14.869
X139.412 Y14.891
X139.374 Y14.899
X139.336 Y14.891
X139.303 Y14.869
X139.282 Y14.837
X139.274 Y14.799
Z-8 F50
X139.282 Y14.76 F150
X139.303 Y14.728
X139.336 Y14.706
X139.374 Y14.699
X139.412 Y14.706
X139.445 Y14.728
X139.466 Y14.76
X139.474 Y14.799
X139.466 Y14.837
X139.445 Y14.869
X139.412 Y14.891
X139.374 Y14.899
X139.336 Y14.891
X139.303 Y14.869
X139.282 Y14.837
X139.274 Y14.799
Z-9 F50
X139.282 Y14.76 F150
X139.303 Y14.728
X139.336 Y14.706
X139.374 Y14.699
X139.412 Y14.706
X139.445 Y14.728
X139.466 Y14.76
X139.474 Y14.799
X139.466 Y14.837
X139.445 Y14.869
X139.412 Y14.891
X139.374 Y14.899
X139.336 Y14.891
X139.303 Y14.869
X139.282 Y14.837
X139.274 Y14.799
Z-10 F50
X139.282 Y14.76 F150
X139.303 Y14.728
X139.336 Y14.706
X139.374 Y14.699
X139.412 Y14.706
X139.445 Y14.728
X139.466 Y14.76
X139.474 Y14.799
X139.466 Y14.837
X139.445 Y14.869
X139.412 Y14.891
X139.374 Y14.899
X139.336 Y14.891
X139.303 Y14.869
X139.282 Y14.837
X139.274 Y14.799
Z-11 F50
X139.282 Y14.76 F150
X139.303 Y14.728
X139.336 Y14.706
X139.374 Y14.699
X139.412 Y14.706
X139.445 Y14.728
X139.466 Y14.76
X139.474 Y14.799
X139.466 Y14.837
X139.445 Y14.869
X139.412 Y14.891
X139.374 Y14.899
X139.336 Y14.891
X139.303 Y14.869
X139.282 Y14.837
X139.274 Y14.799
Z-12 F50
X139.282 Y14.76 F150
X139.303 Y14.728
X139.336 Y14.706
X139.374 Y14.699
X139.412 Y14.706
X139.445 Y14.728
X139.466 Y14.76
X139.474 Y14.799
X139.466 Y14.837
X139.445 Y14.869
X139.412 Y14.891
X139.374 Y14.899
X139.336 Y14.891
X139.303 Y14.869
X139.282 Y14.837
X139.274 Y14.799
G0 Z5
X185.824
G1 Z2.5 F50
Z-1
G3 X186.024 Y14.799 I0.1 J0 F150
X185.824 Y14.799 I-0.1 J0
G1 Z-2 F50
G3 X186.024 Y14.799 I0.1 J0 F150
X185.824 Y14.799 I-0.1 J0
G1 Z-3 F50
G3 X186.024 Y14.799 I0.1 J0 F150
X185.824 Y14.799 I-0.1 J0
G1 Z-4 F50
G3 X186.024 Y14.799 I0.1 J0 F150
X185.824 Y14.799 I-0.1 J0
G1 Z-5 F50
G3 X186.024 Y14.799 I0.1 J0 F150
X185.824 Y14.799 I-0.1 J0
G1 Z-6 F50
G3 X186.024 Y14.799 I0.1 J0 F150
X185.824 Y14.799 I-0.1 J0
G1 Z-7 F50
G3 X186.024 Y14.799 I0.1 J0 F150
X185.824 Y14.799 I-0.1 J0
G1 Z-8 F50
G3 X186.024 Y14.799 I0.1 J0 F150
X185.824 Y14.799 I-0.1 J0
G1 Z-9 F50
G3 X186.024 Y14.799 I0.1 J0 F150
X185.824 Y14.799 I-0.1 J0
G1 Z-10 F50
G3 X186.024 Y14.799 I0.1 J0 F150
X185.824 Y14.799 I-0.1 J0
G1 Z-11 F50
G3 X186.024 Y14.799 I0.1 J0 F150
X185.824 Y14.799 I-0.1 J0
G1 Z-12 F50
G3 X186.024 Y14.799 I0.1 J0 F150
X185.824 Y14.799 I-0.1 J0
G0 Z5
X201.1 Y8
G1 Z2.5 F50
Z-1
G3 X199.9 Y8 I-0.6 J0 F150
X201.1 Y8 I0.6 J0
G1 Z-2 F50
G3 X199.9 Y8 I-0.6 J0 F150
X201.1 Y8 I0.6 J0
G1 Z-3 F50
G3 X199.9 Y8 I-0.6 J0 F150
X201.1 Y8 I0.6 J0
G1 Z-4 F50
G3 X199.9 Y8 I-0.6 J0 F150
X201.1 Y8 I0.6 J0
G1 Z-5 F50
G3 X199.9 Y8 I-0.6 J0 F150
X201.1 Y8 I0.6 J0
G1 Z-6 F50
G3 X199.9 Y8 I-0.6 J0 F150
X201.1 Y8 I0.6 J0
G1 Z-7 F50
G3 X199.9 Y8 I-0.6 J0 F150
X201.1 Y8 I0.6 J0
G1 Z-8 F50
G3 X199.9 Y8 I-0.6 J0 F150
X201.1 Y8 I0.6 J0
G1 Z-9 F50
G3 X199.9 Y8 I-0.6 J0 F150
X201.1 Y8 I0.6 J0
G1 Z-10 F50
G3 X199.9 Y8 I-0.6 J0 F150
X201.1 Y8 I0.6 J0
G1 Z-11 F50
G3 X199.9 Y8 I-0.6 J0 F150
X201.1 Y8 I0.6 J0
G1 Z-12 F50
G3 X199.9 Y8 I-0.6 J0 F150
X201.1 Y8 I0.6 J0
G0 Z5
X174.897 Y46.371
G1 Z2.5 F50
Z-1
G3 X174.897 Y46.171 I0 J-0.1 F150
X174.897 Y46.371 I0 J0.1
G1 Z-2 F50
G3 X174.897 Y46.171 I0 J-0.1 F150
X174.897 Y46.371 I0 J0.1
G1 Z-3 F50
G3 X174.897 Y46.171 I0 J-0.1 F150
X174.897 Y46.371 I0 J0.1
G1 Z-4 F50
G3 X174.897 Y46.171 I0 J-0.1 F150
X174.897 Y46.371 I0 J0.1
G1 Z-5 F50
G3 X174.897 Y46.171 I0 J-0.1 F150
X174.897 Y46.371 I0 J0.1
G1 Z-6 F50
G3 X174.897 Y46.171 I0 J-0.1 F150
X174.897 Y46.371 I0 J0.1
G1 Z-7 F50
G3 X174.897 Y46.171 I0 J-0.1 F150
X174.897 Y46.371 I0 J0.1
G1 Z-8 F50
G3 X174.897 Y46.171 I0 J-0.1 F150
X174.897 Y46.371 I0 J0.1
G1 Z-9 F50
G3 X174.897 Y46.171 I0 J-0.1 F150
X174.897 Y46.371 I0 J0.1
G1 Z-10 F50
G3 X174.897 Y46.171 I0 J-0.1 F150
X174.897 Y46.371 I0 J0.1
G1 Z-11 F50
G3 X174.897 Y46.171 I0 J-0.1 F150
X174.897 Y46.371 I0 J0.1
G1 Z-12 F50
G3 X174.897 Y46.171 I0 J-0.1 F150
X174.897 Y46.371 I0 J0.1
G0 Z15
M9
M5
M30
