(cover_left_drill)
(Machine)
(  vendor: Autodesk)
(  model: Generic 3-axis)
(  description: This machine has XY axis on the Table and Z axis on the Head)
G90 G94
G17
G21

(cover_left_drill)
T1
S12000 M3
G54
M8
G0 X86.842 Y93.808
Z15
Z4.5
G1 Z2 F150
Z-1.417 F50
G3 X85.642 Y93.808 I-0.6 J0 F150
X86.842 Y93.808 I0.6 J0
G1 Z-2.333 F50
G3 X85.642 Y93.808 I-0.6 J0 F150
X86.842 Y93.808 I0.6 J0
G1 Z-3.25 F50
G3 X85.642 Y93.808 I-0.6 J0 F150
X86.842 Y93.808 I0.6 J0
G1 Z-4.167 F50
G3 X85.642 Y93.808 I-0.6 J0 F150
X86.842 Y93.808 I0.6 J0
G1 Z-5.083 F50
G3 X85.642 Y93.808 I-0.6 J0 F150
X86.842 Y93.808 I0.6 J0
G1 Z-6 F50
G3 X85.642 Y93.808 I-0.6 J0 F150
X86.842 Y93.808 I0.6 J0
G0 Z5
X10.745 Y94.408
Z4.5
G1 Z2 F50
Z-1.417
G3 X10.745 Y93.208 I0 J-0.6 F150
X10.745 Y94.408 I0 J0.6
G1 Z-2.333 F50
G3 X10.745 Y93.208 I0 J-0.6 F150
X10.745 Y94.408 I0 J0.6
G1 Z-3.25 F50
G3 X10.745 Y93.208 I0 J-0.6 F150
X10.745 Y94.408 I0 J0.6
G1 Z-4.167 F50
G3 X10.745 Y93.208 I0 J-0.6 F150
X10.745 Y94.408 I0 J0.6
G1 Z-5.083 F50
G3 X10.745 Y93.208 I0 J-0.6 F150
X10.745 Y94.408 I0 J0.6
G1 Z-6 F50
G3 X10.745 Y93.208 I0 J-0.6 F150
X10.745 Y94.408 I0 J0.6
G0 Z5
X11.345 Y8
Z4.5
G1 Z2 F50
Z-1.417
G3 X10.145 Y8 I-0.6 J0 F150
X11.345 Y8 I0.6 J0
G1 Z-2.333 F50
G3 X10.145 Y8 I-0.6 J0 F150
X11.345 Y8 I0.6 J0
G1 Z-3.25 F50
G3 X10.145 Y8 I-0.6 J0 F150
X11.345 Y8 I0.6 J0
G1 Z-4.167 F50
G3 X10.145 Y8 I-0.6 J0 F150
X11.345 Y8 I0.6 J0
G1 Z-5.083 F50
G3 X10.145 Y8 I-0.6 J0 F150
X11.345 Y8 I0.6 J0
G1 Z-6 F50
G3 X10.145 Y8 I-0.6 J0 F150
X11.345 Y8 I0.6 J0
G0 Z5
X86.065
Z4.5
G1 Z2 F50
Z-1.417
G3 X87.265 Y8 I0.6 J0 F150
X86.065 Y8 I-0.6 J0
G1 Z-2.333 F50
G3 X87.265 Y8 I0.6 J0 F150
X86.065 Y8 I-0.6 J0
G1 Z-3.25 F50
G3 X87.265 Y8 I0.6 J0 F150
X86.065 Y8 I-0.6 J0
G1 Z-4.167 F50
G3 X87.265 Y8 I0.6 J0 F150
X86.065 Y8 I-0.6 J0
G1 Z-5.083 F50
G3 X87.265 Y8 I0.6 J0 F150
X86.065 Y8 I-0.6 J0
G1 Z-6 F50
G3 X87.265 Y8 I0.6 J0 F150
X86.065 Y8 I-0.6 J0
G0 Z15
M9
M5
M30
