(cover_left_holes)
(Machine)
(  vendor: Autodesk)
(  model: Generic 3-axis)
(  description: This machine has XY axis on the Table and Z axis on the Head)
G90 G94
G17
G21

(cover_left_holes)
T1
S12000 M3
G54
M8
G0 X45.642 Y40.991
Z15
Z5
G1 Z2 F50
Z-0.929
G3 X35.642 Y40.991 I-5 J0 F150
X45.642 Y40.991 I5 J0
G1 Z-1.857 F50
G3 X35.642 Y40.991 I-5 J0 F150
X45.642 Y40.991 I5 J0
G1 Z-2.786 F50
G3 X35.642 Y40.991 I-5 J0 F150
X45.642 Y40.991 I5 J0
G1 Z-3.714 F50
G3 X35.642 Y40.991 I-5 J0 F150
X45.642 Y40.991 I5 J0
G1 Z-4.5 F50
G3 X43.568 Y45.046 I-5 J0 F150
G1 Z-4.643 F50
G3 X41.755 Y45.865 I-2.925 J-4.055 F150
G1 Z-4.5
G3 X36.977 Y44.391 I-1.113 J-4.875
G1 Z-4.643 F50
G3 X36.136 Y38.825 I3.665 J-3.401 F150
G1 Z-4.5
G3 X40.265 Y36.005 I4.507 J2.166
G1 Z-4.643 F50
G3 X45.617 Y40.485 I0.378 J4.986 F150
G1 Z-4.5
G3 X43.568 Y45.046 I-4.974 J0.506
G1 Z-5.571 F50
G3 X41.755 Y45.865 I-2.925 J-4.055 F150
G1 Z-4.5
G3 X36.977 Y44.391 I-1.113 J-4.875
G1 Z-5.571 F50
G3 X36.136 Y38.825 I3.665 J-3.401 F150
G1 Z-4.5
G3 X40.265 Y36.005 I4.507 J2.166
G1 Z-5.571 F50
G3 X45.617 Y40.485 I0.378 J4.986 F150
G1 Z-4.5
G3 X43.568 Y45.046 I-4.974 J0.506
G1 Z-6.5 F50
G3 X41.755 Y45.865 I-2.925 J-4.055 F150
G1 Z-4.5
G3 X36.977 Y44.391 I-1.113 J-4.875
G1 Z-6.5 F50
G3 X36.136 Y38.825 I3.665 J-3.401 F150
G1 Z-4.5
G3 X40.265 Y36.005 I4.507 J2.166
G1 Z-6.5 F50
G3 X45.617 Y40.485 I0.378 J4.986 F150
G1 Z-4.5
G3 X45.642 Y40.991 I-4.974 J0.506
G0 Z5
X42.765 Y69
G1 Z2 F50
Z-0.929
G3 X38.765 Y69 I-2 J0 F150
X42.765 Y69 I2 J0
G1 Z-1.857 F50
G3 X38.765 Y69 I-2 J0 F150
X42.765 Y69 I2 J0
G1 Z-2.786 F50
G3 X38.765 Y69 I-2 J0 F150
X42.765 Y69 I2 J0
G1 Z-3.714 F50
G3 X38.765 Y69 I-2 J0 F150
X42.765 Y69 I2 J0
G1 Z-4.643 F50
G3 X42.598 Y69.8 I-2 J0 F150
G1 Z-4.5
G3 X38.932 Y69.8 I-1.833 J-0.8
G1 Z-4.643 F50
G3 X38.819 Y68.54 I1.833 J-0.8 F150
G1 Z-4.5
G3 X42.426 Y67.886 I1.946 J0.46
G1 Z-4.643 F50
G3 X42.765 Y69 I-1.661 J1.114 F150
G1 Z-5.571 F50
G3 X42.598 Y69.8 I-2 J0 F150
G1 Z-4.5
G3 X38.932 Y69.8 I-1.833 J-0.8
G1 Z-5.571 F50
G3 X38.819 Y68.54 I1.833 J-0.8 F150
G1 Z-4.5
G3 X42.426 Y67.886 I1.946 J0.46
G1 Z-5.571 F50
G3 X42.765 Y69 I-1.661 J1.114 F150
G1 Z-6.5 F50
G3 X42.598 Y69.8 I-2 J0 F150
G1 Z-4.5
G3 X38.932 Y69.8 I-1.833 J-0.8
G1 Z-6.5 F50
G3 X38.819 Y68.54 I1.833 J-0.8 F150
G1 Z-4.5
G3 X42.426 Y67.886 I1.946 J0.46
G1 Z-6.5 F50
G3 X42.765 Y69 I-1.661 J1.114 F150
G0 Z15
M9
M5
M30
