(cover_right_drill)
(Machine)
(  vendor: Autodesk)
(  model: Generic 3-axis)
(  description: This machine has XY axis on the Table and Z axis on the Head)
G90 G94
G17
G21

(cover_right_drill)
T1
S12000 M3
G54
M8
G0 X28.265 Y42.799
Z15
Z5
G1 Z2.5 F150
Z-1 F50
G3 X28.065 Y42.799 I-0.1 J0 F150
X28.265 Y42.799 I0.1 J0
G1 Z-2 F50
G3 X28.065 Y42.799 I-0.1 J0 F150
X28.265 Y42.799 I0.1 J0
G1 Z-3 F50
G3 X28.065 Y42.799 I-0.1 J0 F150
X28.265 Y42.799 I0.1 J0
G1 Z-4 F50
G3 X28.065 Y42.799 I-0.1 J0 F150
X28.265 Y42.799 I0.1 J0
G1 Z-5 F50
G3 X28.065 Y42.799 I-0.1 J0 F150
X28.265 Y42.799 I0.1 J0
G1 Z-6 F50
G3 X28.065 Y42.799 I-0.1 J0 F150
X28.265 Y42.799 I0.1 J0
G1 Z-7 F50
G3 X28.065 Y42.799 I-0.1 J0 F150
X28.265 Y42.799 I0.1 J0
G1 X28.261 Y42.827 Z-6.993
X28.249 Y42.854 Z-6.987
X28.229 Y42.875 Z-6.98
X28.199 Y42.893 Z-6.952
X28.165 Y42.899 Z-6.924
X28.134 Y42.894 Z-6.866
X28.124 Y42.89 Z-6.8
G0 Z5
X11.345 Y4.608
G1 Z2.5 F50
Z-1
G3 X10.145 Y4.608 I-0.6 J0 F150
X11.345 Y4.608 I0.6 J0
G1 Z-2 F50
G3 X10.145 Y4.608 I-0.6 J0 F150
X11.345 Y4.608 I0.6 J0
G1 Z-3 F50
G3 X10.145 Y4.608 I-0.6 J0 F150
X11.345 Y4.608 I0.6 J0
G1 Z-4 F50
G3 X10.145 Y4.608 I-0.6 J0 F150
X11.345 Y4.608 I0.6 J0
G1 Z-5 F50
G3 X10.145 Y4.608 I-0.6 J0 F150
X11.345 Y4.608 I0.6 J0
G1 Z-6 F50
G3 X10.145 Y4.608 I-0.6 J0 F150
X11.345 Y4.608 I0.6 J0
G1 Z-7 F50
G3 X10.145 Y4.608 I-0.6 J0 F150
X11.345 Y4.608 I0.6 J0
G1 X11.339 Y4.657 Z-6.987
X11.321 Y4.703 Z-6.973
X11.3 Y4.734 Z-6.937
X11.275 Y4.76 Z-6.9
X11.253 Y4.776 Z-6.8
G0 Z5
X86.842 Y4.608
G1 Z2.5 F50
Z-1
G3 X85.642 Y4.608 I-0.6 J0 F150
X86.842 Y4.608 I0.6 J0
G1 Z-2 F50
G3 X85.642 Y4.608 I-0.6 J0 F150
X86.842 Y4.608 I0.6 J0
G1 Z-3 F50
G3 X85.642 Y4.608 I-0.6 J0 F150
X86.842 Y4.608 I0.6 J0
G1 Z-4 F50
G3 X85.642 Y4.608 I-0.6 J0 F150
X86.842 Y4.608 I0.6 J0
G1 Z-5 F50
G3 X85.642 Y4.608 I-0.6 J0 F150
X86.842 Y4.608 I0.6 J0
G1 Z-6 F50
G3 X85.642 Y4.608 I-0.6 J0 F150
X86.842 Y4.608 I0.6 J0
G1 Z-7 F50
G3 X85.642 Y4.608 I-0.6 J0 F150
X86.842 Y4.608 I0.6 J0
G1 X86.836 Y4.657 Z-6.987
X86.818 Y4.703 Z-6.973
X86.797 Y4.734 Z-6.937
X86.772 Y4.76 Z-6.9
X86.75 Y4.776 Z-6.8
G0 Z5
X82.165 Y42.699
G1 Z2.5 F50
Z-1
G3 X82.165 Y42.899 I0 J0.1 F150
X82.165 Y42.699 I0 J-0.1
G1 Z-2 F50
G3 X82.165 Y42.899 I0 J0.1 F150
X82.165 Y42.699 I0 J-0.1
G1 Z-3 F50
G3 X82.165 Y42.899 I0 J0.1 F150
X82.165 Y42.699 I0 J-0.1
G1 Z-4 F50
G3 X82.165 Y42.899 I0 J0.1 F150
X82.165 Y42.699 I0 J-0.1
G1 Z-5 F50
G3 X82.165 Y42.899 I0 J0.1 F150
X82.165 Y42.699 I0 J-0.1
G1 Z-6 F50
G3 X82.165 Y42.899 I0 J0.1 F150
X82.165 Y42.699 I0 J-0.1
G1 Z-7 F50
G3 X82.165 Y42.899 I0 J0.1 F150
X82.165 Y42.699 I0 J-0.1
G1 X82.194 Y42.703 Z-6.993
X82.22 Y42.715 Z-6.987
X82.242 Y42.734 Z-6.98
X82.259 Y42.765 Z-6.952
X82.265 Y42.799 Z-6.924
X82.26 Y42.83 Z-6.866
X82.256 Y42.84 Z-6.8
G0 Z5
X82.165 Y154.699
G1 Z2.5 F50
Z-1
G3 X82.165 Y154.899 I0 J0.1 F150
X82.165 Y154.699 I0 J-0.1
G1 Z-2 F50
G3 X82.165 Y154.899 I0 J0.1 F150
X82.165 Y154.699 I0 J-0.1
G1 Z-3 F50
G3 X82.165 Y154.899 I0 J0.1 F150
X82.165 Y154.699 I0 J-0.1
G1 Z-4 F50
G3 X82.165 Y154.899 I0 J0.1 F150
X82.165 Y154.699 I0 J-0.1
G1 Z-5 F50
G3 X82.165 Y154.899 I0 J0.1 F150
X82.165 Y154.699 I0 J-0.1
G1 Z-6 F50
G3 X82.165 Y154.899 I0 J0.1 F150
X82.165 Y154.699 I0 J-0.1
G1 Z-7 F50
G3 X82.165 Y154.899 I0 J0.1 F150
X82.165 Y154.699 I0 J-0.1
G1 X82.194 Y154.703 Z-6.993
X82.22 Y154.715 Z-6.987
X82.242 Y154.735 Z-6.98
X82.259 Y154.765 Z-6.952
X82.265 Y154.799 Z-6.924
X82.26 Y154.83 Z-6.866
X82.256 Y154.841 Z-6.8
G0 Z5
X87.065 Y180.8
G1 Z2.5 F50
Z-1
G3 X88.265 Y180.8 I0.6 J0 F150
X87.065 Y180.8 I-0.6 J0
G1 Z-2 F50
G3 X88.265 Y180.8 I0.6 J0 F150
X87.065 Y180.8 I-0.6 J0
G1 Z-3 F50
G3 X88.265 Y180.8 I0.6 J0 F150
X87.065 Y180.8 I-0.6 J0
G1 Z-4 F50
G3 X88.265 Y180.8 I0.6 J0 F150
X87.065 Y180.8 I-0.6 J0
G1 Z-5 F50
G3 X88.265 Y180.8 I0.6 J0 F150
X87.065 Y180.8 I-0.6 J0
G1 Z-6 F50
G3 X88.265 Y180.8 I0.6 J0 F150
X87.065 Y180.8 I-0.6 J0
G1 Z-7 F50
G3 X88.265 Y180.8 I0.6 J0 F150
X87.065 Y180.8 I-0.6 J0
G1 X87.071 Y180.751 Z-6.987
X87.09 Y180.704 Z-6.973
X87.11 Y180.674 Z-6.937
X87.136 Y180.648 Z-6.9
X87.157 Y180.632 Z-6.8
G0 Z5
X28.165 Y154.699
G1 Z2.5 F50
Z-1
X28.203 Y154.707 F150
X28.236 Y154.728
X28.258 Y154.761
X28.265 Y154.799
X28.258 Y154.837
X28.236 Y154.87
X28.203 Y154.891
X28.165 Y154.899
X28.127 Y154.891
X28.094 Y154.87
X28.073 Y154.837
X28.065 Y154.799
X28.073 Y154.761
X28.094 Y154.728
X28.127 Y154.707
X28.165 Y154.699
Z-2 F50
X28.203 Y154.707 F150
X28.236 Y154.728
X28.258 Y154.761
X28.265 Y154.799
X28.258 Y154.837
X28.236 Y154.87
X28.203 Y154.891
X28.165 Y154.899
X28.127 Y154.891
X28.094 Y154.87
X28.073 Y154.837
X28.065 Y154.799
X28.073 Y154.761
X28.094 Y154.728
X28.127 Y154.707
X28.165 Y154.699
Z-3 F50
X28.203 Y154.707 F150
X28.236 Y154.728
X28.258 Y154.761
X28.265 Y154.799
X28.258 Y154.837
X28.236 Y154.87
X28.203 Y154.891
X28.165 Y154.899
X28.127 Y154.891
X28.094 Y154.87
X28.073 Y154.837
X28.065 Y154.799
X28.073 Y154.761
X28.094 Y154.728
X28.127 Y154.707
X28.165 Y154.699
Z-4 F50
X28.203 Y154.707 F150
X28.236 Y154.728
X28.258 Y154.761
X28.265 Y154.799
X28.258 Y154.837
X28.236 Y154.87
X28.203 Y154.891
X28.165 Y154.899
X28.127 Y154.891
X28.094 Y154.87
X28.073 Y154.837
X28.065 Y154.799
X28.073 Y154.761
X28.094 Y154.728
X28.127 Y154.707
X28.165 Y154.699
Z-5 F50
X28.203 Y154.707 F150
X28.236 Y154.728
X28.258 Y154.761
X28.265 Y154.799
X28.258 Y154.837
X28.236 Y154.87
X28.203 Y154.891
X28.165 Y154.899
X28.127 Y154.891
X28.094 Y154.87
X28.073 Y154.837
X28.065 Y154.799
X28.073 Y154.761
X28.094 Y154.728
X28.127 Y154.707
X28.165 Y154.699
Z-6 F50
X28.203 Y154.707 F150
X28.236 Y154.728
X28.258 Y154.761
X28.265 Y154.799
X28.258 Y154.837
X28.236 Y154.87
X28.203 Y154.891
X28.165 Y154.899
X28.127 Y154.891
X28.094 Y154.87
X28.073 Y154.837
X28.065 Y154.799
X28.073 Y154.761
X28.094 Y154.728
X28.127 Y154.707
X28.165 Y154.699
Z-7 F50
X28.203 Y154.707 F150
X28.236 Y154.728
X28.258 Y154.761
X28.265 Y154.799
X28.258 Y154.837
X28.236 Y154.87
X28.203 Y154.891
X28.165 Y154.899
X28.127 Y154.891
X28.094 Y154.87
X28.073 Y154.837
X28.065 Y154.799
X28.073 Y154.761
X28.094 Y154.728
X28.127 Y154.707
X28.165 Y154.699
X28.194 Y154.703 Z-6.993
X28.22 Y154.715 Z-6.987
X28.242 Y154.735 Z-6.98
X28.259 Y154.765 Z-6.952
X28.265 Y154.799 Z-6.924
X28.26 Y154.83 Z-6.866
X28.256 Y154.841 Z-6.8
G0 Z5
X10.228 Y180.853
G1 Z2.5 F50
Z-1
G3 X11.428 Y180.853 I0.6 J0 F150
X10.228 Y180.853 I-0.6 J0
G1 Z-2 F50
G3 X11.428 Y180.853 I0.6 J0 F150
X10.228 Y180.853 I-0.6 J0
G1 Z-3 F50
G3 X11.428 Y180.853 I0.6 J0 F150
X10.228 Y180.853 I-0.6 J0
G1 Z-4 F50
G3 X11.428 Y180.853 I0.6 J0 F150
X10.228 Y180.853 I-0.6 J0
G1 Z-5 F50
G3 X11.428 Y180.853 I0.6 J0 F150
X10.228 Y180.853 I-0.6 J0
G1 Z-6 F50
G3 X11.428 Y180.853 I0.6 J0 F150
X10.228 Y180.853 I-0.6 J0
G1 Z-7 F50
G3 X11.428 Y180.853 I0.6 J0 F150
X10.228 Y180.853 I-0.6 J0
G1 X10.234 Y180.804 Z-6.987
X10.252 Y180.757 Z-6.973
X10.273 Y180.727 Z-6.937
X10.298 Y180.701 Z-6.9
X10.32 Y180.685 Z-6.8
G0 Z15
M9
M5
M30
