(cover_right_cutout)
(Machine)
(  vendor: Autodesk)
(  model: Generic 3-axis)
(  description: This machine has XY axis on the Table and Z axis on the Head)
G90 G94
G17
G21

(cover_right_cutout)
T1
S12000 M3
G54
M8
G0 X100.165 Y188.51
Z15
Z5
G1 Z2 F50
Z-1
Y0 F150
G2 X99.165 Y-1 I-1 J0
G1 X0
G2 X-1 Y0 I0 J1
G1 Y190.8
G2 X0 Y191.8 I1 J0
G1 X99.165
G2 X100.165 Y190.8 I0 J-1
G1 Y188.51
Z-2 F50
Y0 F150
G2 X99.165 Y-1 I-1 J0
G1 X0
G2 X-1 Y0 I0 J1
G1 Y190.8
G2 X0 Y191.8 I1 J0
G1 X99.165
G2 X100.165 Y190.8 I0 J-1
G1 Y188.51
Z-3 F50
Y0 F150
G2 X99.165 Y-1 I-1 J0
G1 X0
G2 X-1 Y0 I0 J1
G1 Y190.8
G2 X0 Y191.8 I1 J0
G1 X99.165
G2 X100.165 Y190.8 I0 J-1
G1 Y188.51
Z-4 F50
Y0 F150
G2 X99.165 Y-1 I-1 J0
G1 X0
G2 X-1 Y0 I0 J1
G1 Y190.8
G2 X0 Y191.8 I1 J0
G1 X99.165
G2 X100.165 Y190.8 I0 J-1
G1 Y188.51
Z-5 F50
Y145.972 F150
Z-4
Y139.972
Z-5 F50
Y39.682 F150
Z-4
Y33.682
Z-5 F50
Y0 F150
G2 X99.165 Y-1 I-1 J0
G1 X0
G2 X-1 Y0 I0 J1
G1 Y190.8
G2 X0 Y191.8 I1 J0
G1 X23.145
Z-4
X29.145
Z-5 F50
X73.439 F150
Z-4
X79.439
Z-5 F50
X99.165 F150
G2 X100.165 Y190.8 I0 J-1
G1 Y188.51
Z-6 F50
Y145.972 F150
Z-4
Y139.972
Z-6 F50
Y39.682 F150
Z-4
Y33.682
Z-6 F50
Y0 F150
G2 X99.165 Y-1 I-1 J0
G1 X0
G2 X-1 Y0 I0 J1
G1 Y190.8
G2 X0 Y191.8 I1 J0
G1 X23.145
Z-4
X29.145
Z-6 F50
X73.439 F150
Z-4
X79.439
Z-6 F50
X99.165 F150
G2 X100.165 Y190.8 I0 J-1
G1 Y188.51
Z-7 F50
Y145.972 F150
Z-4
Y139.972
Z-7 F50
Y39.682 F150
Z-4
Y33.682
Z-7 F50
Y0 F150
G2 X99.165 Y-1 I-1 J0
G1 X0
G2 X-1 Y0 I0 J1
G1 Y190.8
G2 X0 Y191.8 I1 J0
G1 X23.145
Z-4
X29.145
Z-7 F50
X73.439 F150
Z-4
X79.439
Z-7 F50
X99.165 F150
G2 X100.165 Y190.8 I0 J-1
G1 Y188.51
G0 Z15
M9
M5
M30
