(cover_left_cutout)
(Machine)
(  vendor: Autodesk)
(  model: Generic 3-axis)
(  description: This machine has XY axis on the Table and Z axis on the Head)
G90 G94
G17
G21

(cover_left_cutout)
T1
S12000 M3
G54
M8
G0 X-1 Y49.4
Z15
Z5
G1 Z2 F50
Z-0.929
Y98.8 F150
G2 X0 Y99.8 I1 J0
G1 X99.165
G2 X100.165 Y98.8 I0 J-1
G1 Y0
G2 X99.165 Y-1 I-1 J0
G1 X0
G2 X-1 Y0 I0 J1
G1 Y49.4
Z-1.857 F50
Y98.8 F150
G2 X0 Y99.8 I1 J0
G1 X99.165
G2 X100.165 Y98.8 I0 J-1
G1 Y0
G2 X99.165 Y-1 I-1 J0
G1 X0
G2 X-1 Y0 I0 J1
G1 Y49.4
Z-2.786 F50
Y98.8 F150
G2 X0 Y99.8 I1 J0
G1 X99.165
G2 X100.165 Y98.8 I0 J-1
G1 Y0
G2 X99.165 Y-1 I-1 J0
G1 X0
G2 X-1 Y0 I0 J1
G1 Y49.4
Z-3.714 F50
Y98.8 F150
G2 X0 Y99.8 I1 J0
G1 X99.165
G2 X100.165 Y98.8 I0 J-1
G1 Y0
G2 X99.165 Y-1 I-1 J0
G1 X0
G2 X-1 Y0 I0 J1
G1 Y49.4
Z-4.643 F50
Y98.8 F150
G2 X0 Y99.8 I1 J0
G1 X99.165
G2 X100.165 Y98.8 I0 J-1
G1 Y0
G2 X99.165 Y-1 I-1 J0
G1 X0
G2 X-1 Y0 I0 J1
G1 Y49.4
Z-5.571 F50
Y98.8 F150
G2 X0 Y99.8 I1 J0
G1 X99.165
G2 X100.165 Y98.8 I0 J-1
G1 Y0
G2 X99.165 Y-1 I-1 J0
G1 X0
G2 X-1 Y0 I0 J1
G1 Y49.4
Z-6.5 F50
Y69.578 F150
Z-6
Y73.578
Z-6.5 F50
Y98.8 F150
G2 X0 Y99.8 I1 J0
G1 X99.165
G2 X100.165 Y98.8 I0 J-1
G1 Y0
G2 X99.165 Y-1 I-1 J0
G1 X77.243
Z-6
X73.243
Z-6.5 F50
X39.732 F150
Z-6
X35.732
Z-6.5 F50
X0 F150
G2 X-1 Y0 I0 J1
G1 Y28.516
Z-6
Y32.516
Z-6.5 F50
Y49.4 F150
G0 Z15
M9
M5
M30
