(covr_right_hole)
(Machine)
(  vendor: Autodesk)
(  model: Generic 3-axis)
(  description: This machine has XY axis on the Table and Z axis on the Head)
G90 G94
G17
G21

(cover_right_holes)
T1
S12000 M3
G54
M8
G0 X83.165 Y119.573
Z15
Z5
G1 Z2 F50
Z-1
Y147.296 F150
G3 X82.165 Y148.296 I-1 J0
G1 X24.72
G2 X23.72 Y149.296 I0 J1
G1 Y152.296
G3 X22.72 Y153.296 I-1 J0
G1 X14.165
G3 X13.165 Y152.296 I0 J-1
G1 Y140.299
G3 X14.165 Y139.299 I1 J0
G1 X24.72
G2 X25.72 Y138.299 I0 J-1
G1 Y52.799
G3 X26.72 Y51.799 I1 J0
G1 X82.165
G3 X83.165 Y52.799 I0 J1
G1 Y119.573
Z-2 F50
Y147.296 F150
G3 X82.165 Y148.296 I-1 J0
G1 X24.72
G2 X23.72 Y149.296 I0 J1
G1 Y152.296
G3 X22.72 Y153.296 I-1 J0
G1 X14.165
G3 X13.165 Y152.296 I0 J-1
G1 Y140.299
G3 X14.165 Y139.299 I1 J0
G1 X24.72
G2 X25.72 Y138.299 I0 J-1
G1 Y52.799
G3 X26.72 Y51.799 I1 J0
G1 X82.165
G3 X83.165 Y52.799 I0 J1
G1 Y119.573
Z-3 F50
Y147.296 F150
G3 X82.165 Y148.296 I-1 J0
G1 X24.72
G2 X23.72 Y149.296 I0 J1
G1 Y152.296
G3 X22.72 Y153.296 I-1 J0
G1 X14.165
G3 X13.165 Y152.296 I0 J-1
G1 Y140.299
G3 X14.165 Y139.299 I1 J0
G1 X24.72
G2 X25.72 Y138.299 I0 J-1
G1 Y52.799
G3 X26.72 Y51.799 I1 J0
G1 X82.165
G3 X83.165 Y52.799 I0 J1
G1 Y119.573
Z-4 F50
Y147.296 F150
G3 X82.165 Y148.296 I-1 J0
G1 X24.72
G2 X23.72 Y149.296 I0 J1
G1 Y152.296
G3 X22.72 Y153.296 I-1 J0
G1 X14.165
G3 X13.165 Y152.296 I0 J-1
G1 Y140.299
G3 X14.165 Y139.299 I1 J0
G1 X24.72
G2 X25.72 Y138.299 I0 J-1
G1 Y52.799
G3 X26.72 Y51.799 I1 J0
G1 X82.165
G3 X83.165 Y52.799 I0 J1
G1 Y119.573
Z-5 F50
Y125.232 F150
Z-4
Y131.232
Z-5 F50
Y147.296 F150
G3 X82.165 Y148.296 I-1 J0
G1 X56.994
Z-4
X50.994
Z-5 F50
X24.72 F150
G2 X23.72 Y149.296 I0 J1
G1 Y152.296
G3 X22.742 Y153.296 I-1 J0
G1 Z-4
X22.72
X16.742
Z-5 F50
X14.165 F150
G3 X13.165 Y152.296 I0 J-1
G1 Y149.666
Z-4
Y143.666
Z-5 F50
Y140.299 F150
G3 X14.165 Y139.299 I1 J0
G1 X24.72
G2 X25.72 Y138.299 I0 J-1
G1 Y124.759
Z-4
Y118.759
Z-5 F50
Y73.446 F150
Z-4
Y67.446
Z-5 F50
Y52.799 F150
G3 X26.72 Y51.799 I1 J0
G1 X50.353
Z-4
X56.353
Z-5 F50
X82.165 F150
G3 X83.165 Y52.799 I0 J1
G1 Y78.656
Z-4
Y84.656
Z-5 F50
Y119.573 F150
Z-6 F50
Y125.232 F150
Z-4
Y131.232
Z-6 F50
Y147.296 F150
G3 X82.165 Y148.296 I-1 J0
G1 X56.994
Z-4
X50.994
Z-6 F50
X24.72 F150
G2 X23.72 Y149.296 I0 J1
G1 Y152.296
G3 X22.742 Y153.296 I-1 J0
G1 Z-4
X22.72
X16.742
Z-6 F50
X14.165 F150
G3 X13.165 Y152.296 I0 J-1
G1 Y149.666
Z-4
Y143.666
Z-6 F50
Y140.299 F150
G3 X14.165 Y139.299 I1 J0
G1 X24.72
G2 X25.72 Y138.299 I0 J-1
G1 Y124.759
Z-4
Y118.759
Z-6 F50
Y73.446 F150
Z-4
Y67.446
Z-6 F50
Y52.799 F150
G3 X26.72 Y51.799 I1 J0
G1 X50.353
Z-4
X56.353
Z-6 F50
X82.165 F150
G3 X83.165 Y52.799 I0 J1
G1 Y78.656
Z-4
Y84.656
Z-6 F50
Y119.573 F150
G0 Z15
M9
M5
M30
