(face_drill)
(Machine)
(  vendor: Autodesk)
(  model: Generic 3-axis)
(  description: This machine has XY axis on the Table and Z axis on the Head)
G90 G94
G17
G21

(face_drill)
T1
S12000 M3
G54
M8
G0 X45 Y84.4
Z15
Z5
G1 Z2.5 F150
Z-0.929 F50
G3 X45 Y83.6 I0 J-0.4 F150
X45 Y84.4 I0 J0.4
G1 Z-1.857 F50
G3 X45 Y83.6 I0 J-0.4 F150
X45 Y84.4 I0 J0.4
G1 Z-2.786 F50
G3 X45 Y83.6 I0 J-0.4 F150
X45 Y84.4 I0 J0.4
G1 Z-3.714 F50
G3 X45 Y83.6 I0 J-0.4 F150
X45 Y84.4 I0 J0.4
G1 Z-4.643 F50
G3 X45 Y83.6 I0 J-0.4 F150
X45 Y84.4 I0 J0.4
G1 Z-5.571 F50
G3 X45 Y83.6 I0 J-0.4 F150
X45 Y84.4 I0 J0.4
G1 Z-6.5 F50
G3 X45 Y83.6 I0 J-0.4 F150
X45 Y84.4 I0 J0.4
G0 Z5
X39.6 Y10
G1 Z2.5 F50
Z-0.929
G3 X40.4 Y10 I0.4 J0 F150
X39.6 Y10 I-0.4 J0
G1 Z-1.857 F50
G3 X40.4 Y10 I0.4 J0 F150
X39.6 Y10 I-0.4 J0
G1 Z-2.786 F50
G3 X40.4 Y10 I0.4 J0 F150
X39.6 Y10 I-0.4 J0
G1 Z-3.714 F50
G3 X40.4 Y10 I0.4 J0 F150
X39.6 Y10 I-0.4 J0
G1 Z-4.643 F50
G3 X40.4 Y10 I0.4 J0 F150
X39.6 Y10 I-0.4 J0
G1 Z-5.571 F50
G3 X40.4 Y10 I0.4 J0 F150
X39.6 Y10 I-0.4 J0
G1 Z-6.5 F50
G3 X40.4 Y10 I0.4 J0 F150
X39.6 Y10 I-0.4 J0
G0 Z5
X10 Y10.6
G1 Z2.5 F50
Z-0.929
G3 X10 Y9.4 I0 J-0.6 F150
X10 Y10.6 I0 J0.6
G1 Z-1.857 F50
G3 X10 Y9.4 I0 J-0.6 F150
X10 Y10.6 I0 J0.6
G1 Z-2.786 F50
G3 X10 Y9.4 I0 J-0.6 F150
X10 Y10.6 I0 J0.6
G1 Z-3.714 F50
G3 X10 Y9.4 I0 J-0.6 F150
X10 Y10.6 I0 J0.6
G1 Z-4.643 F50
G3 X10 Y9.4 I0 J-0.6 F150
X10 Y10.6 I0 J0.6
G1 Z-5.571 F50
G3 X10 Y9.4 I0 J-0.6 F150
X10 Y10.6 I0 J0.6
G1 Z-6.5 F50
G3 X10 Y9.4 I0 J-0.6 F150
X10 Y10.6 I0 J0.6
G0 Z5
Y279.65
G1 Z2.5 F50
Z-0.929
G3 X10 Y280.85 I0 J0.6 F150
X10 Y279.65 I0 J-0.6
G1 Z-1.857 F50
G3 X10 Y280.85 I0 J0.6 F150
X10 Y279.65 I0 J-0.6
G1 Z-2.786 F50
G3 X10 Y280.85 I0 J0.6 F150
X10 Y279.65 I0 J-0.6
G1 Z-3.714 F50
G3 X10 Y280.85 I0 J0.6 F150
X10 Y279.65 I0 J-0.6
G1 Z-4.643 F50
G3 X10 Y280.85 I0 J0.6 F150
X10 Y279.65 I0 J-0.6
G1 Z-5.571 F50
G3 X10 Y280.85 I0 J0.6 F150
X10 Y279.65 I0 J-0.6
G1 Z-6.5 F50
G3 X10 Y280.85 I0 J0.6 F150
X10 Y279.65 I0 J-0.6
G0 Z5
X40 Y280.65
G1 Z2.5 F50
Z-0.929
G3 X40 Y279.85 I0 J-0.4 F150
X40 Y280.65 I0 J0.4
G1 Z-1.857 F50
G3 X40 Y279.85 I0 J-0.4 F150
X40 Y280.65 I0 J0.4
G1 Z-2.786 F50
G3 X40 Y279.85 I0 J-0.4 F150
X40 Y280.65 I0 J0.4
G1 Z-3.714 F50
G3 X40 Y279.85 I0 J-0.4 F150
X40 Y280.65 I0 J0.4
G1 Z-4.643 F50
G3 X40 Y279.85 I0 J-0.4 F150
X40 Y280.65 I0 J0.4
G1 Z-5.571 F50
G3 X40 Y279.85 I0 J-0.4 F150
X40 Y280.65 I0 J0.4
G1 Z-6.5 F50
G3 X40 Y279.85 I0 J-0.4 F150
X40 Y280.65 I0 J0.4
G0 Z15
M9
M5
M30
