(front_hole)
(Machine)
(  vendor: Autodesk)
(  model: Generic 3-axis)
(  description: This machine has XY axis on the Table and Z axis on the Head)
G90 G94
G17
G21

(front_hole)
T1
S12000 M3
G54
M8
G0 X15.25 Y160.528
Z15
Z5
G1 Z2 F50
Z-0.929
Y165.028 F150
X6.25
Y154.028
X15.25
Y160.528
Z-1.857 F50
Y165.028 F150
X6.25
Y154.028
X15.25
Y160.528
Z-2.786 F50
Y165.028 F150
X6.25
Y154.028
X15.25
Y160.528
Z-3.714 F50
Y165.028 F150
X6.25
Y154.028
X15.25
Y160.528
Z-4.643 F50
Y165.028 F150
X12.064
Z-4.5
X8.064
Z-4.643 F50
X6.25 F150
Y160.449
Z-4.5
Y156.449
Z-4.643 F50
Y154.028 F150
X9.482
Z-4.5
X13.482
Z-4.643 F50
X15.25 F150
Y155.394
Z-4.5
Y159.394
Z-4.643 F50
Y160.528 F150
Z-5.571 F50
Y165.028 F150
X12.064
Z-4.5
X8.064
Z-5.571 F50
X6.25 F150
Y160.449
Z-4.5
Y156.449
Z-5.571 F50
Y154.028 F150
X9.482
Z-4.5
X13.482
Z-5.571 F50
X15.25 F150
Y155.394
Z-4.5
Y159.394
Z-5.571 F50
Y160.528 F150
Z-6.5 F50
Y165.028 F150
X12.064
Z-4.5
X8.064
Z-6.5 F50
X6.25 F150
Y160.449
Z-4.5
Y156.449
Z-6.5 F50
Y154.028 F150
X9.482
Z-4.5
X13.482
Z-6.5 F50
X15.25 F150
Y155.394
Z-4.5
Y159.394
Z-6.5 F50
Y160.528 F150
G0 Z15
M9
M5
M30
