(front_drill)
(Machine)
(  vendor: Autodesk)
(  model: Generic 3-axis)
(  description: This machine has XY axis on the Table and Z axis on the Head)
G90 G94
G17
G21

(front_drill)
T1
S12000 M3
G54
M8
G0 X50 Y191.6
Z15
Z5
G1 Z2.5 F150
Z-0.929 F50
G3 X50 Y190.4 I0 J-0.6 F150
X50 Y191.6 I0 J0.6
G1 Z-1.857 F50
G3 X50 Y190.4 I0 J-0.6 F150
X50 Y191.6 I0 J0.6
G1 Z-2.786 F50
G3 X50 Y190.4 I0 J-0.6 F150
X50 Y191.6 I0 J0.6
G1 Z-3.714 F50
G3 X50 Y190.4 I0 J-0.6 F150
X50 Y191.6 I0 J0.6
G1 Z-4.643 F50
G3 X50 Y190.4 I0 J-0.6 F150
X50 Y191.6 I0 J0.6
G1 Z-5.571 F50
G3 X50 Y190.4 I0 J-0.6 F150
X50 Y191.6 I0 J0.6
G1 Z-6.5 F50
G3 X50 Y190.4 I0 J-0.6 F150
X50 Y191.6 I0 J0.6
G0 Z5
X10 Y190.4
G1 Z2.5 F50
Z-0.929
G3 X10 Y191.6 I0 J0.6 F150
X10 Y190.4 I0 J-0.6
G1 Z-1.857 F50
G3 X10 Y191.6 I0 J0.6 F150
X10 Y190.4 I0 J-0.6
G1 Z-2.786 F50
G3 X10 Y191.6 I0 J0.6 F150
X10 Y190.4 I0 J-0.6
G1 Z-3.714 F50
G3 X10 Y191.6 I0 J0.6 F150
X10 Y190.4 I0 J-0.6
G1 Z-4.643 F50
G3 X10 Y191.6 I0 J0.6 F150
X10 Y190.4 I0 J-0.6
G1 Z-5.571 F50
G3 X10 Y191.6 I0 J0.6 F150
X10 Y190.4 I0 J-0.6
G1 Z-6.5 F50
G3 X10 Y191.6 I0 J0.6 F150
X10 Y190.4 I0 J-0.6
G0 Z5
Y283.4
G1 Z2.5 F50
Z-0.929
G3 X10 Y284.6 I0 J0.6 F150
X10 Y283.4 I0 J-0.6
G1 Z-1.857 F50
G3 X10 Y284.6 I0 J0.6 F150
X10 Y283.4 I0 J-0.6
G1 Z-2.786 F50
G3 X10 Y284.6 I0 J0.6 F150
X10 Y283.4 I0 J-0.6
G1 Z-3.714 F50
G3 X10 Y284.6 I0 J0.6 F150
X10 Y283.4 I0 J-0.6
G1 Z-4.643 F50
G3 X10 Y284.6 I0 J0.6 F150
X10 Y283.4 I0 J-0.6
G1 Z-5.571 F50
G3 X10 Y284.6 I0 J0.6 F150
X10 Y283.4 I0 J-0.6
G1 Z-6.5 F50
G3 X10 Y284.6 I0 J0.6 F150
X10 Y283.4 I0 J-0.6
G0 Z5
X50 Y284.6
G1 Z2.5 F50
Z-0.929
G3 X50 Y283.4 I0 J-0.6 F150
X50 Y284.6 I0 J0.6
G1 Z-1.857 F50
G3 X50 Y283.4 I0 J-0.6 F150
X50 Y284.6 I0 J0.6
G1 Z-2.786 F50
G3 X50 Y283.4 I0 J-0.6 F150
X50 Y284.6 I0 J0.6
G1 Z-3.714 F50
G3 X50 Y283.4 I0 J-0.6 F150
X50 Y284.6 I0 J0.6
G1 Z-4.643 F50
G3 X50 Y283.4 I0 J-0.6 F150
X50 Y284.6 I0 J0.6
G1 Z-5.571 F50
G3 X50 Y283.4 I0 J-0.6 F150
X50 Y284.6 I0 J0.6
G1 Z-6.5 F50
G3 X50 Y283.4 I0 J-0.6 F150
X50 Y284.6 I0 J0.6
G0 Z5
X50.6 Y7.5
G1 Z2.5 F50
Z-0.929
G3 X49.4 Y7.5 I-0.6 J0 F150
X50.6 Y7.5 I0.6 J0
G1 Z-1.857 F50
G3 X49.4 Y7.5 I-0.6 J0 F150
X50.6 Y7.5 I0.6 J0
G1 Z-2.786 F50
G3 X49.4 Y7.5 I-0.6 J0 F150
X50.6 Y7.5 I0.6 J0
G1 Z-3.714 F50
G3 X49.4 Y7.5 I-0.6 J0 F150
X50.6 Y7.5 I0.6 J0
G1 Z-4.643 F50
G3 X49.4 Y7.5 I-0.6 J0 F150
X50.6 Y7.5 I0.6 J0
G1 Z-5.571 F50
G3 X49.4 Y7.5 I-0.6 J0 F150
X50.6 Y7.5 I0.6 J0
G1 Z-6.5 F50
G3 X49.4 Y7.5 I-0.6 J0 F150
X50.6 Y7.5 I0.6 J0
G0 Z5
X9.4
G1 Z2.5 F50
Z-0.929
G3 X10.6 Y7.5 I0.6 J0 F150
X9.4 Y7.5 I-0.6 J0
G1 Z-1.857 F50
G3 X10.6 Y7.5 I0.6 J0 F150
X9.4 Y7.5 I-0.6 J0
G1 Z-2.786 F50
G3 X10.6 Y7.5 I0.6 J0 F150
X9.4 Y7.5 I-0.6 J0
G1 Z-3.714 F50
G3 X10.6 Y7.5 I0.6 J0 F150
X9.4 Y7.5 I-0.6 J0
G1 Z-4.643 F50
G3 X10.6 Y7.5 I0.6 J0 F150
X9.4 Y7.5 I-0.6 J0
G1 Z-5.571 F50
G3 X10.6 Y7.5 I0.6 J0 F150
X9.4 Y7.5 I-0.6 J0
G1 Z-6.5 F50
G3 X10.6 Y7.5 I0.6 J0 F150
X9.4 Y7.5 I-0.6 J0
G0 Z15
M9
M5
M30
