(front_cutout)
(Machine)
(  vendor: Autodesk)
(  model: Generic 3-axis)
(  description: This machine has XY axis on the Table and Z axis on the Head)
G90 G94
G17
G21

(front_cutout)
T1
S12000 M3
G54
M8
G0 X-1 Y0
Z15
Z5
G1 Z2 F50
Z-0.929
Y290 F150
G2 X0 Y291 I1 J0
G1 X60
G2 X61 Y290 I0 J-1
G1 Y0
G2 X60 Y-1 I-1 J0
G1 X0
G2 X-1 Y0 I0 J1
G1 Z-1.857 F50
Y290 F150
G2 X0 Y291 I1 J0
G1 X60
G2 X61 Y290 I0 J-1
G1 Y0
G2 X60 Y-1 I-1 J0
G1 X0
G2 X-1 Y0 I0 J1
G1 Z-2.786 F50
Y290 F150
G2 X0 Y291 I1 J0
G1 X60
G2 X61 Y290 I0 J-1
G1 Y0
G2 X60 Y-1 I-1 J0
G1 X0
G2 X-1 Y0 I0 J1
G1 Z-3.714 F50
Y290 F150
G2 X0 Y291 I1 J0
G1 X60
G2 X61 Y290 I0 J-1
G1 Y0
G2 X60 Y-1 I-1 J0
G1 X0
G2 X-1 Y0 I0 J1
G1 Z-4.643 F50
Y290 F150
G2 X0 Y291 I1 J0
G1 X60
G2 X61 Y290 I0 J-1
G1 Y0
G2 X60 Y-1 I-1 J0
G1 X0
G2 X-1 Y0 I0 J1
G1 Z-5.571 F50
Y290 F150
G2 X0 Y291 I1 J0
G1 X60
G2 X61 Y290 I0 J-1
G1 Y0
G2 X60 Y-1 I-1 J0
G1 X0
G2 X-1 Y0 I0 J1
G1 Z-6.5 F50
Y290 F150
G2 X0 Y291 I1 J0
G1 X60
G2 X61 Y290 I0 J-1
G1 Y0
G2 X60 Y-1 I-1 J0
G1 X0
G2 X-1 Y0 I0 J1
G0 Z15
M9
M5
M30
