(spindle_drill)
(Machine)
(  vendor: Autodesk)
(  model: Generic 3-axis)
(  description: This machine has XY axis on the Table and Z axis on the Head)
G90 G94
G17
G21

(spindle_drill)
T1
S12000 M3
G54
M8
G0 X40.5 Y140.1
Z15
Z5
G1 Z2.5 F150
Z-1 F50
G3 X40.5 Y138.9 I0 J-0.6 F150
X40.5 Y140.1 I0 J0.6
G1 Z-2 F50
G3 X40.5 Y138.9 I0 J-0.6 F150
X40.5 Y140.1 I0 J0.6
G1 Z-3 F50
G3 X40.5 Y138.9 I0 J-0.6 F150
X40.5 Y140.1 I0 J0.6
G1 Z-4 F50
G3 X40.5 Y138.9 I0 J-0.6 F150
X40.5 Y140.1 I0 J0.6
G1 Z-5 F50
G3 X40.5 Y138.9 I0 J-0.6 F150
X40.5 Y140.1 I0 J0.6
G1 Z-6 F50
G3 X40.5 Y138.9 I0 J-0.6 F150
X40.5 Y140.1 I0 J0.6
G1 Z-7 F50
G3 X40.5 Y138.9 I0 J-0.6 F150
X40.5 Y140.1 I0 J0.6
G1 Z-8 F50
G3 X40.5 Y138.9 I0 J-0.6 F150
X40.5 Y140.1 I0 J0.6
G1 Z-9 F50
G3 X40.5 Y138.9 I0 J-0.6 F150
X40.5 Y140.1 I0 J0.6
G1 Z-10 F50
G3 X40.5 Y138.9 I0 J-0.6 F150
X40.5 Y140.1 I0 J0.6
G1 Z-11 F50
G3 X40.5 Y138.9 I0 J-0.6 F150
X40.5 Y140.1 I0 J0.6
G1 Z-12 F50
G3 X40.5 Y138.9 I0 J-0.6 F150
X40.5 Y140.1 I0 J0.6
G0 Z5
X73.5
G1 Z2.5 F50
Z-1
G3 X73.5 Y138.9 I0 J-0.6 F150
X73.5 Y140.1 I0 J0.6
G1 Z-2 F50
G3 X73.5 Y138.9 I0 J-0.6 F150
X73.5 Y140.1 I0 J0.6
G1 Z-3 F50
G3 X73.5 Y138.9 I0 J-0.6 F150
X73.5 Y140.1 I0 J0.6
G1 Z-4 F50
G3 X73.5 Y138.9 I0 J-0.6 F150
X73.5 Y140.1 I0 J0.6
G1 Z-5 F50
G3 X73.5 Y138.9 I0 J-0.6 F150
X73.5 Y140.1 I0 J0.6
G1 Z-6 F50
G3 X73.5 Y138.9 I0 J-0.6 F150
X73.5 Y140.1 I0 J0.6
G1 Z-7 F50
G3 X73.5 Y138.9 I0 J-0.6 F150
X73.5 Y140.1 I0 J0.6
G1 Z-8 F50
G3 X73.5 Y138.9 I0 J-0.6 F150
X73.5 Y140.1 I0 J0.6
G1 Z-9 F50
G3 X73.5 Y138.9 I0 J-0.6 F150
X73.5 Y140.1 I0 J0.6
G1 Z-10 F50
G3 X73.5 Y138.9 I0 J-0.6 F150
X73.5 Y140.1 I0 J0.6
G1 Z-11 F50
G3 X73.5 Y138.9 I0 J-0.6 F150
X73.5 Y140.1 I0 J0.6
G1 Z-12 F50
G3 X73.5 Y138.9 I0 J-0.6 F150
X73.5 Y140.1 I0 J0.6
G0 Z5
X98.5 Y188.9
G1 Z2.5 F50
Z-1
G3 X98.5 Y189.1 I0 J0.1 F150
X98.5 Y188.9 I0 J-0.1
G1 Z-2 F50
G3 X98.5 Y189.1 I0 J0.1 F150
X98.5 Y188.9 I0 J-0.1
G1 Z-3 F50
G3 X98.5 Y189.1 I0 J0.1 F150
X98.5 Y188.9 I0 J-0.1
G1 Z-4 F50
G3 X98.5 Y189.1 I0 J0.1 F150
X98.5 Y188.9 I0 J-0.1
G1 Z-5 F50
G3 X98.5 Y189.1 I0 J0.1 F150
X98.5 Y188.9 I0 J-0.1
G1 Z-6 F50
G3 X98.5 Y189.1 I0 J0.1 F150
X98.5 Y188.9 I0 J-0.1
G1 Z-7 F50
G3 X98.5 Y189.1 I0 J0.1 F150
X98.5 Y188.9 I0 J-0.1
G1 Z-8 F50
G3 X98.5 Y189.1 I0 J0.1 F150
X98.5 Y188.9 I0 J-0.1
G1 Z-9 F50
G3 X98.5 Y189.1 I0 J0.1 F150
X98.5 Y188.9 I0 J-0.1
G1 Z-10 F50
G3 X98.5 Y189.1 I0 J0.1 F150
X98.5 Y188.9 I0 J-0.1
G1 Z-11 F50
G3 X98.5 Y189.1 I0 J0.1 F150
X98.5 Y188.9 I0 J-0.1
G1 Z-12 F50
G3 X98.5 Y189.1 I0 J0.1 F150
X98.5 Y188.9 I0 J-0.1
G0 Z5
X99.1 Y67
G1 Z2.5 F50
Z-1
G3 X97.9 Y67 I-0.6 J0 F150
X99.1 Y67 I0.6 J0
G1 Z-2 F50
G3 X97.9 Y67 I-0.6 J0 F150
X99.1 Y67 I0.6 J0
G1 Z-3 F50
G3 X97.9 Y67 I-0.6 J0 F150
X99.1 Y67 I0.6 J0
G1 Z-4 F50
G3 X97.9 Y67 I-0.6 J0 F150
X99.1 Y67 I0.6 J0
G1 Z-5 F50
G3 X97.9 Y67 I-0.6 J0 F150
X99.1 Y67 I0.6 J0
G1 Z-6 F50
G3 X97.9 Y67 I-0.6 J0 F150
X99.1 Y67 I0.6 J0
G1 Z-7 F50
G3 X97.9 Y67 I-0.6 J0 F150
X99.1 Y67 I0.6 J0
G1 Z-8 F50
G3 X97.9 Y67 I-0.6 J0 F150
X99.1 Y67 I0.6 J0
G1 Z-9 F50
G3 X97.9 Y67 I-0.6 J0 F150
X99.1 Y67 I0.6 J0
G1 Z-10 F50
G3 X97.9 Y67 I-0.6 J0 F150
X99.1 Y67 I0.6 J0
G1 Z-11 F50
G3 X97.9 Y67 I-0.6 J0 F150
X99.1 Y67 I0.6 J0
G1 Z-12 F50
G3 X97.9 Y67 I-0.6 J0 F150
X99.1 Y67 I0.6 J0
G0 Z5
X100.31 Y45.03
G1 Z2.5 F50
Z-1
G3 X100.11 Y45.03 I-0.1 J0 F150
X100.31 Y45.03 I0.1 J0
G1 Z-2 F50
G3 X100.11 Y45.03 I-0.1 J0 F150
X100.31 Y45.03 I0.1 J0
G1 Z-3 F50
G3 X100.11 Y45.03 I-0.1 J0 F150
X100.31 Y45.03 I0.1 J0
G1 Z-4 F50
G3 X100.11 Y45.03 I-0.1 J0 F150
X100.31 Y45.03 I0.1 J0
G1 Z-5 F50
G3 X100.11 Y45.03 I-0.1 J0 F150
X100.31 Y45.03 I0.1 J0
G1 Z-6 F50
G3 X100.11 Y45.03 I-0.1 J0 F150
X100.31 Y45.03 I0.1 J0
G1 Z-7 F50
G3 X100.11 Y45.03 I-0.1 J0 F150
X100.31 Y45.03 I0.1 J0
G1 Z-8 F50
G3 X100.11 Y45.03 I-0.1 J0 F150
X100.31 Y45.03 I0.1 J0
G1 Z-9 F50
G3 X100.11 Y45.03 I-0.1 J0 F150
X100.31 Y45.03 I0.1 J0
G1 Z-10 F50
G3 X100.11 Y45.03 I-0.1 J0 F150
X100.31 Y45.03 I0.1 J0
G1 Z-11 F50
G3 X100.11 Y45.03 I-0.1 J0 F150
X100.31 Y45.03 I0.1 J0
G1 Z-12 F50
G3 X100.11 Y45.03 I-0.1 J0 F150
X100.31 Y45.03 I0.1 J0
G0 Z5
X88.78 Y45.13
G1 Z2.5 F50
Z-1
G3 X88.78 Y44.93 I0 J-0.1 F150
X88.78 Y45.13 I0 J0.1
G1 Z-2 F50
G3 X88.78 Y44.93 I0 J-0.1 F150
X88.78 Y45.13 I0 J0.1
G1 Z-3 F50
G3 X88.78 Y44.93 I0 J-0.1 F150
X88.78 Y45.13 I0 J0.1
G1 Z-4 F50
G3 X88.78 Y44.93 I0 J-0.1 F150
X88.78 Y45.13 I0 J0.1
G1 Z-5 F50
G3 X88.78 Y44.93 I0 J-0.1 F150
X88.78 Y45.13 I0 J0.1
G1 Z-6 F50
G3 X88.78 Y44.93 I0 J-0.1 F150
X88.78 Y45.13 I0 J0.1
G1 Z-7 F50
G3 X88.78 Y44.93 I0 J-0.1 F150
X88.78 Y45.13 I0 J0.1
G1 Z-8 F50
G3 X88.78 Y44.93 I0 J-0.1 F150
X88.78 Y45.13 I0 J0.1
G1 Z-9 F50
G3 X88.78 Y44.93 I0 J-0.1 F150
X88.78 Y45.13 I0 J0.1
G1 Z-10 F50
G3 X88.78 Y44.93 I0 J-0.1 F150
X88.78 Y45.13 I0 J0.1
G1 Z-11 F50
G3 X88.78 Y44.93 I0 J-0.1 F150
X88.78 Y45.13 I0 J0.1
G1 Z-12 F50
G3 X88.78 Y44.93 I0 J-0.1 F150
X88.78 Y45.13 I0 J0.1
G0 Z5
X88.88 Y27.25
G1 Z2.5 F50
Z-1
G3 X88.68 Y27.25 I-0.1 J0 F150
X88.88 Y27.25 I0.1 J0
G1 Z-2 F50
G3 X88.68 Y27.25 I-0.1 J0 F150
X88.88 Y27.25 I0.1 J0
G1 Z-3 F50
G3 X88.68 Y27.25 I-0.1 J0 F150
X88.88 Y27.25 I0.1 J0
G1 Z-4 F50
G3 X88.68 Y27.25 I-0.1 J0 F150
X88.88 Y27.25 I0.1 J0
G1 Z-5 F50
G3 X88.68 Y27.25 I-0.1 J0 F150
X88.88 Y27.25 I0.1 J0
G1 Z-6 F50
G3 X88.68 Y27.25 I-0.1 J0 F150
X88.88 Y27.25 I0.1 J0
G1 Z-7 F50
G3 X88.68 Y27.25 I-0.1 J0 F150
X88.88 Y27.25 I0.1 J0
G1 Z-8 F50
G3 X88.68 Y27.25 I-0.1 J0 F150
X88.88 Y27.25 I0.1 J0
G1 Z-9 F50
G3 X88.68 Y27.25 I-0.1 J0 F150
X88.88 Y27.25 I0.1 J0
G1 Z-10 F50
G3 X88.68 Y27.25 I-0.1 J0 F150
X88.88 Y27.25 I0.1 J0
G1 Z-11 F50
G3 X88.68 Y27.25 I-0.1 J0 F150
X88.88 Y27.25 I0.1 J0
G1 Z-12 F50
G3 X88.68 Y27.25 I-0.1 J0 F150
X88.88 Y27.25 I0.1 J0
G0 Z5
X100.31
G1 Z2.5 F50
Z-1
G3 X100.11 Y27.25 I-0.1 J0 F150
X100.31 Y27.25 I0.1 J0
G1 Z-2 F50
G3 X100.11 Y27.25 I-0.1 J0 F150
X100.31 Y27.25 I0.1 J0
G1 Z-3 F50
G3 X100.11 Y27.25 I-0.1 J0 F150
X100.31 Y27.25 I0.1 J0
G1 Z-4 F50
G3 X100.11 Y27.25 I-0.1 J0 F150
X100.31 Y27.25 I0.1 J0
G1 Z-5 F50
G3 X100.11 Y27.25 I-0.1 J0 F150
X100.31 Y27.25 I0.1 J0
G1 Z-6 F50
G3 X100.11 Y27.25 I-0.1 J0 F150
X100.31 Y27.25 I0.1 J0
G1 Z-7 F50
G3 X100.11 Y27.25 I-0.1 J0 F150
X100.31 Y27.25 I0.1 J0
G1 Z-8 F50
G3 X100.11 Y27.25 I-0.1 J0 F150
X100.31 Y27.25 I0.1 J0
G1 Z-9 F50
G3 X100.11 Y27.25 I-0.1 J0 F150
X100.31 Y27.25 I0.1 J0
G1 Z-10 F50
G3 X100.11 Y27.25 I-0.1 J0 F150
X100.31 Y27.25 I0.1 J0
G1 Z-11 F50
G3 X100.11 Y27.25 I-0.1 J0 F150
X100.31 Y27.25 I0.1 J0
G1 Z-12 F50
G3 X100.11 Y27.25 I-0.1 J0 F150
X100.31 Y27.25 I0.1 J0
G0 Z5
X85.2 Y11.7
G1 Z2.5 F50
Z-1
G3 X85.2 Y11.9 I0 J0.1 F150
X85.2 Y11.7 I0 J-0.1
G1 Z-2 F50
G3 X85.2 Y11.9 I0 J0.1 F150
X85.2 Y11.7 I0 J-0.1
G1 Z-3 F50
G3 X85.2 Y11.9 I0 J0.1 F150
X85.2 Y11.7 I0 J-0.1
G1 Z-4 F50
G3 X85.2 Y11.9 I0 J0.1 F150
X85.2 Y11.7 I0 J-0.1
G1 Z-5 F50
G3 X85.2 Y11.9 I0 J0.1 F150
X85.2 Y11.7 I0 J-0.1
G1 Z-6 F50
G3 X85.2 Y11.9 I0 J0.1 F150
X85.2 Y11.7 I0 J-0.1
G1 Z-7 F50
G3 X85.2 Y11.9 I0 J0.1 F150
X85.2 Y11.7 I0 J-0.1
G1 Z-8 F50
G3 X85.2 Y11.9 I0 J0.1 F150
X85.2 Y11.7 I0 J-0.1
G1 Z-9 F50
G3 X85.2 Y11.9 I0 J0.1 F150
X85.2 Y11.7 I0 J-0.1
G1 Z-10 F50
G3 X85.2 Y11.9 I0 J0.1 F150
X85.2 Y11.7 I0 J-0.1
G1 Z-11 F50
G3 X85.2 Y11.9 I0 J0.1 F150
X85.2 Y11.7 I0 J-0.1
G1 Z-12 F50
G3 X85.2 Y11.9 I0 J0.1 F150
X85.2 Y11.7 I0 J-0.1
G0 Z5
X25.2 Y11.9
G1 Z2.5 F50
Z-1
G3 X25.2 Y11.7 I0 J-0.1 F150
X25.2 Y11.9 I0 J0.1
G1 Z-2 F50
G3 X25.2 Y11.7 I0 J-0.1 F150
X25.2 Y11.9 I0 J0.1
G1 Z-3 F50
G3 X25.2 Y11.7 I0 J-0.1 F150
X25.2 Y11.9 I0 J0.1
G1 Z-4 F50
G3 X25.2 Y11.7 I0 J-0.1 F150
X25.2 Y11.9 I0 J0.1
G1 Z-5 F50
G3 X25.2 Y11.7 I0 J-0.1 F150
X25.2 Y11.9 I0 J0.1
G1 Z-6 F50
G3 X25.2 Y11.7 I0 J-0.1 F150
X25.2 Y11.9 I0 J0.1
G1 Z-7 F50
G3 X25.2 Y11.7 I0 J-0.1 F150
X25.2 Y11.9 I0 J0.1
G1 Z-8 F50
G3 X25.2 Y11.7 I0 J-0.1 F150
X25.2 Y11.9 I0 J0.1
G1 Z-9 F50
G3 X25.2 Y11.7 I0 J-0.1 F150
X25.2 Y11.9 I0 J0.1
G1 Z-10 F50
G3 X25.2 Y11.7 I0 J-0.1 F150
X25.2 Y11.9 I0 J0.1
G1 Z-11 F50
G3 X25.2 Y11.7 I0 J-0.1 F150
X25.2 Y11.9 I0 J0.1
G1 Z-12 F50
G3 X25.2 Y11.7 I0 J-0.1 F150
X25.2 Y11.9 I0 J0.1
G0 Z5
X11.5 Y67.1
G1 Z2.5 F50
Z-1
G3 X11.5 Y66.9 I0 J-0.1 F150
X11.5 Y67.1 I0 J0.1
G1 Z-2 F50
G3 X11.5 Y66.9 I0 J-0.1 F150
X11.5 Y67.1 I0 J0.1
G1 Z-3 F50
G3 X11.5 Y66.9 I0 J-0.1 F150
X11.5 Y67.1 I0 J0.1
G1 Z-4 F50
G3 X11.5 Y66.9 I0 J-0.1 F150
X11.5 Y67.1 I0 J0.1
G1 Z-5 F50
G3 X11.5 Y66.9 I0 J-0.1 F150
X11.5 Y67.1 I0 J0.1
G1 Z-6 F50
G3 X11.5 Y66.9 I0 J-0.1 F150
X11.5 Y67.1 I0 J0.1
G1 Z-7 F50
G3 X11.5 Y66.9 I0 J-0.1 F150
X11.5 Y67.1 I0 J0.1
G1 Z-8 F50
G3 X11.5 Y66.9 I0 J-0.1 F150
X11.5 Y67.1 I0 J0.1
G1 Z-9 F50
G3 X11.5 Y66.9 I0 J-0.1 F150
X11.5 Y67.1 I0 J0.1
G1 Z-10 F50
G3 X11.5 Y66.9 I0 J-0.1 F150
X11.5 Y67.1 I0 J0.1
G1 Z-11 F50
G3 X11.5 Y66.9 I0 J-0.1 F150
X11.5 Y67.1 I0 J0.1
G1 Z-12 F50
G3 X11.5 Y66.9 I0 J-0.1 F150
X11.5 Y67.1 I0 J0.1
G0 Z15
M9
M5
M30
