(spindle_inset)
(Machine)
(  vendor: Autodesk)
(  model: Generic 3-axis)
(  description: This machine has XY axis on the Table and Z axis on the Head)
G90 G94
G17
G21

(spindle_inset)
T1
S12000 M3
G54
M8
G0 X42.15 Y139.5
Z15
Z5
G1 Z2.5 F150
Z-1 F50
G3 X38.85 Y139.5 I-1.65 J0 F150
X42.15 Y139.5 I1.65 J0
G2 X42.804 Y140.666 I1.366 J0
G3 X42.956 Y141.993 I-0.442 J0.724
X38.044 Y137.007 I-2.456 J-2.493
X42.956 Y141.993 I2.456 J2.493
X42.616 Y141.856 I-0.14 J-0.142
G1 X42.55 Y139.494
G2 X42.15 Y139.5 I-0.2 J0.006
G1 Z-2 F50
G3 X38.85 Y139.5 I-1.65 J0 F150
X42.15 Y139.5 I1.65 J0
G2 X42.804 Y140.666 I1.366 J0
G3 X42.956 Y141.993 I-0.442 J0.724
X38.044 Y137.007 I-2.456 J-2.493
X42.956 Y141.993 I2.456 J2.493
X42.616 Y141.856 I-0.14 J-0.142
G1 X42.55 Y139.494
G2 X42.15 Y139.5 I-0.2 J0.006
G1 Z-3 F50
G3 X38.85 Y139.5 I-1.65 J0 F150
X42.15 Y139.5 I1.65 J0
G2 X42.804 Y140.666 I1.366 J0
G3 X42.956 Y141.993 I-0.442 J0.724
X38.044 Y137.007 I-2.456 J-2.493
X42.956 Y141.993 I2.456 J2.493
X42.616 Y141.856 I-0.14 J-0.142
G1 X42.55 Y139.494
G2 X42.15 Y139.5 I-0.2 J0.006
G1 Z-4 F50
G3 X38.85 Y139.5 I-1.65 J0 F150
X42.15 Y139.5 I1.65 J0
G2 X42.804 Y140.666 I1.366 J0
G3 X42.956 Y141.993 I-0.442 J0.724
X38.044 Y137.007 I-2.456 J-2.493
X42.956 Y141.993 I2.456 J2.493
G0 Z15
X75.15 Y139.5
Z5
G1 Z2.5 F150
Z-1 F50
G3 X71.85 Y139.5 I-1.65 J0 F150
X75.15 Y139.5 I1.65 J0
G2 X75.804 Y140.666 I1.366 J0
G3 X75.956 Y141.993 I-0.442 J0.724
X71.044 Y137.007 I-2.456 J-2.493
X75.956 Y141.993 I2.456 J2.493
X75.616 Y141.856 I-0.14 J-0.142
G1 X75.55 Y139.494
G2 X75.15 Y139.5 I-0.2 J0.006
G1 Z-2 F50
G3 X71.85 Y139.5 I-1.65 J0 F150
X75.15 Y139.5 I1.65 J0
G2 X75.804 Y140.666 I1.366 J0
G3 X75.956 Y141.993 I-0.442 J0.724
X71.044 Y137.007 I-2.456 J-2.493
X75.956 Y141.993 I2.456 J2.493
X75.616 Y141.856 I-0.14 J-0.142
G1 X75.55 Y139.494
G2 X75.15 Y139.5 I-0.2 J0.006
G1 Z-3 F50
G3 X71.85 Y139.5 I-1.65 J0 F150
X75.15 Y139.5 I1.65 J0
G2 X75.804 Y140.666 I1.366 J0
G3 X75.956 Y141.993 I-0.442 J0.724
X71.044 Y137.007 I-2.456 J-2.493
X75.956 Y141.993 I2.456 J2.493
X75.616 Y141.856 I-0.14 J-0.142
G1 X75.55 Y139.494
G2 X75.15 Y139.5 I-0.2 J0.006
G1 Z-4 F50
G3 X71.85 Y139.5 I-1.65 J0 F150
X75.15 Y139.5 I1.65 J0
G2 X75.804 Y140.666 I1.366 J0
G3 X75.956 Y141.993 I-0.442 J0.724
X71.044 Y137.007 I-2.456 J-2.493
X75.956 Y141.993 I2.456 J2.493
G0 Z15
X100.15 Y67
Z5
G1 Z2.5 F150
Z-1 F50
G3 X96.85 Y67 I-1.65 J0 F150
X100.15 Y67 I1.65 J0
G2 X100.804 Y68.166 I1.366 J0
G3 X100.956 Y69.493 I-0.442 J0.724
X96.044 Y64.507 I-2.456 J-2.493
X100.956 Y69.493 I2.456 J2.493
X100.616 Y69.356 I-0.14 J-0.142
G1 X100.55 Y66.994
G2 X100.15 Y67 I-0.2 J0.006
G1 Z-2 F50
G3 X96.85 Y67 I-1.65 J0 F150
X100.15 Y67 I1.65 J0
G2 X100.804 Y68.166 I1.366 J0
G3 X100.956 Y69.493 I-0.442 J0.724
X96.044 Y64.507 I-2.456 J-2.493
X100.956 Y69.493 I2.456 J2.493
X100.616 Y69.356 I-0.14 J-0.142
G1 X100.55 Y66.994
G2 X100.15 Y67 I-0.2 J0.006
G1 Z-3 F50
G3 X96.85 Y67 I-1.65 J0 F150
X100.15 Y67 I1.65 J0
G2 X100.804 Y68.166 I1.366 J0
G3 X100.956 Y69.493 I-0.442 J0.724
X96.044 Y64.507 I-2.456 J-2.493
X100.956 Y69.493 I2.456 J2.493
X100.616 Y69.356 I-0.14 J-0.142
G1 X100.55 Y66.994
G2 X100.15 Y67 I-0.2 J0.006
G1 Z-4 F50
G3 X96.85 Y67 I-1.65 J0 F150
X100.15 Y67 I1.65 J0
G2 X100.804 Y68.166 I1.366 J0
G3 X100.956 Y69.493 I-0.442 J0.724
X96.044 Y64.507 I-2.456 J-2.493
X100.956 Y69.493 I2.456 J2.493
G0 Z15
M9
M5
M30
