(top_pockets)
(Machine)
(  vendor: Autodesk)
(  model: Generic 3-axis)
(  description: This machine has XY axis on the Table and Z axis on the Head)
G90 G94
G17
G21

(top_pockets)
T1
S12000 M3
G54
M8
G0 X53.835 Y152.28
Z15
Z5
G1 Z2.5 F150
Z-0.943 F50
X27.835 F150
G3 X27.835 Y151.72 I0 J-0.28
G1 X53.835
G3 X53.835 Y152.28 I0 J0.28
G2 X53.295 Y152.64 I0 J0.585
G3 X52.755 Y153 I-0.54 J-0.225
G1 X27.835
G3 X27.835 Y151 I0 J-1
G1 X53.835
G3 X53.835 Y153 I0 J1
G1 X52.755
G3 X52.646 Y152.525 I0 J-0.25
G1 X53.427 Y152.148
X53.46 Y152.135
X53.495 Y152.127
X53.628 Y152.105
X53.848 Y152.141
X53.875 Y152.152
X53.895 Y152.174
X53.904 Y152.202
X53.902 Y152.231
X53.887 Y152.256
X53.864 Y152.274
X53.835 Y152.28
Z-1.886 F50
X27.835 F150
G3 X27.835 Y151.72 I0 J-0.28
G1 X53.835
G3 X53.835 Y152.28 I0 J0.28
G2 X53.295 Y152.64 I0 J0.585
G3 X52.755 Y153 I-0.54 J-0.225
G1 X27.835
G3 X27.835 Y151 I0 J-1
G1 X53.835
G3 X53.835 Y153 I0 J1
G1 X52.755
G3 X52.646 Y152.525 I0 J-0.25
G1 X53.427 Y152.148
X53.46 Y152.135
X53.495 Y152.127
X53.628 Y152.105
X53.848 Y152.141
X53.875 Y152.152
X53.895 Y152.174
X53.904 Y152.202
X53.902 Y152.231
X53.887 Y152.256
X53.864 Y152.274
X53.835 Y152.28
Z-2.829 F50
X27.835 F150
G3 X27.835 Y151.72 I0 J-0.28
G1 X53.835
G3 X53.835 Y152.28 I0 J0.28
G2 X53.295 Y152.64 I0 J0.585
G3 X52.755 Y153 I-0.54 J-0.225
G1 X27.835
G3 X27.835 Y151 I0 J-1
G1 X53.835
G3 X53.835 Y153 I0 J1
G1 X52.755
G3 X52.646 Y152.525 I0 J-0.25
G1 X53.427 Y152.148
X53.46 Y152.135
X53.495 Y152.127
X53.628 Y152.105
X53.848 Y152.141
X53.875 Y152.152
X53.895 Y152.174
X53.904 Y152.202
X53.902 Y152.231
X53.887 Y152.256
X53.864 Y152.274
X53.835 Y152.28
Z-3.771 F50
X27.835 F150
G3 X27.835 Y151.72 I0 J-0.28
G1 X53.835
G3 X53.835 Y152.28 I0 J0.28
G2 X53.295 Y152.64 I0 J0.585
G3 X52.755 Y153 I-0.54 J-0.225
G1 X27.835
G3 X27.835 Y151 I0 J-1
G1 X53.835
G3 X53.835 Y153 I0 J1
G1 X52.755
G3 X52.646 Y152.525 I0 J-0.25
G1 X53.427 Y152.148
X53.46 Y152.135
X53.495 Y152.127
X53.628 Y152.105
X53.848 Y152.141
X53.875 Y152.152
X53.895 Y152.174
X53.904 Y152.202
X53.902 Y152.231
X53.887 Y152.256
X53.864 Y152.274
X53.835 Y152.28
Z-4.714 F50
X27.835 F150
G3 X27.835 Y151.72 I0 J-0.28
G1 X53.835
G3 X53.835 Y152.28 I0 J0.28
G2 X53.295 Y152.64 I0 J0.585
G3 X52.755 Y153 I-0.54 J-0.225
G1 X27.835
G3 X27.835 Y151 I0 J-1
G1 X53.835
G3 X53.835 Y153 I0 J1
G1 X52.755
G3 X52.646 Y152.525 I0 J-0.25
G1 X53.427 Y152.148
X53.46 Y152.135
X53.495 Y152.127
X53.628 Y152.105
X53.848 Y152.141
X53.875 Y152.152
X53.895 Y152.174
X53.904 Y152.202
X53.902 Y152.231
X53.887 Y152.256
X53.864 Y152.274
X53.835 Y152.28
Z-5.657 F50
X27.835 F150
G3 X27.835 Y151.72 I0 J-0.28
G1 X53.835
G3 X53.835 Y152.28 I0 J0.28
G2 X53.295 Y152.64 I0 J0.585
G3 X52.755 Y153 I-0.54 J-0.225
G1 X27.835
G3 X27.835 Y151 I0 J-1
G1 X53.835
G3 X53.835 Y153 I0 J1
G1 X52.755
G3 X52.646 Y152.525 I0 J-0.25
G1 X53.427 Y152.148
X53.46 Y152.135
X53.495 Y152.127
X53.628 Y152.105
X53.848 Y152.141
X53.875 Y152.152
X53.895 Y152.174
X53.904 Y152.202
X53.902 Y152.231
X53.887 Y152.256
X53.864 Y152.274
X53.835 Y152.28
Z-6.6 F50
X27.835 F150
G3 X27.835 Y151.72 I0 J-0.28
G1 X53.835
G3 X53.835 Y152.28 I0 J0.28
G2 X53.295 Y152.64 I0 J0.585
G3 X52.755 Y153 I-0.54 J-0.225
G1 X27.835
G3 X27.835 Y151 I0 J-1
G1 X53.835
G3 X53.835 Y153 I0 J1
G1 X52.755
G0 Z5
X53.835 Y172.28
G1 Z2.5 F50
Z-0.943
X27.835 F150
G3 X27.835 Y171.72 I0 J-0.28
G1 X53.835
G3 X53.835 Y172.28 I0 J0.28
G2 X53.295 Y172.64 I0 J0.585
G3 X52.755 Y173 I-0.54 J-0.225
G1 X27.835
G3 X27.835 Y171 I0 J-1
G1 X53.835
G3 X53.835 Y173 I0 J1
G1 X52.755
G3 X52.646 Y172.525 I0 J-0.25
G1 X53.427 Y172.148
X53.46 Y172.135
X53.495 Y172.127
X53.628 Y172.105
X53.848 Y172.141
X53.875 Y172.152
X53.895 Y172.174
X53.904 Y172.202
X53.902 Y172.231
X53.887 Y172.256
X53.864 Y172.274
X53.835 Y172.28
Z-1.886 F50
X27.835 F150
G3 X27.835 Y171.72 I0 J-0.28
G1 X53.835
G3 X53.835 Y172.28 I0 J0.28
G2 X53.295 Y172.64 I0 J0.585
G3 X52.755 Y173 I-0.54 J-0.225
G1 X27.835
G3 X27.835 Y171 I0 J-1
G1 X53.835
G3 X53.835 Y173 I0 J1
G1 X52.755
G3 X52.646 Y172.525 I0 J-0.25
G1 X53.427 Y172.148
X53.46 Y172.135
X53.495 Y172.127
X53.628 Y172.105
X53.848 Y172.141
X53.875 Y172.152
X53.895 Y172.174
X53.904 Y172.202
X53.902 Y172.231
X53.887 Y172.256
X53.864 Y172.274
X53.835 Y172.28
Z-2.829 F50
X27.835 F150
G3 X27.835 Y171.72 I0 J-0.28
G1 X53.835
G3 X53.835 Y172.28 I0 J0.28
G2 X53.295 Y172.64 I0 J0.585
G3 X52.755 Y173 I-0.54 J-0.225
G1 X27.835
G3 X27.835 Y171 I0 J-1
G1 X53.835
G3 X53.835 Y173 I0 J1
G1 X52.755
G3 X52.646 Y172.525 I0 J-0.25
G1 X53.427 Y172.148
X53.46 Y172.135
X53.495 Y172.127
X53.628 Y172.105
X53.848 Y172.141
X53.875 Y172.152
X53.895 Y172.174
X53.904 Y172.202
X53.902 Y172.231
X53.887 Y172.256
X53.864 Y172.274
X53.835 Y172.28
Z-3.771 F50
X27.835 F150
G3 X27.835 Y171.72 I0 J-0.28
G1 X53.835
G3 X53.835 Y172.28 I0 J0.28
G2 X53.295 Y172.64 I0 J0.585
G3 X52.755 Y173 I-0.54 J-0.225
G1 X27.835
G3 X27.835 Y171 I0 J-1
G1 X53.835
G3 X53.835 Y173 I0 J1
G1 X52.755
G3 X52.646 Y172.525 I0 J-0.25
G1 X53.427 Y172.148
X53.46 Y172.135
X53.495 Y172.127
X53.628 Y172.105
X53.848 Y172.141
X53.875 Y172.152
X53.895 Y172.174
X53.904 Y172.202
X53.902 Y172.231
X53.887 Y172.256
X53.864 Y172.274
X53.835 Y172.28
Z-4.714 F50
X27.835 F150
G3 X27.835 Y171.72 I0 J-0.28
G1 X53.835
G3 X53.835 Y172.28 I0 J0.28
G2 X53.295 Y172.64 I0 J0.585
G3 X52.755 Y173 I-0.54 J-0.225
G1 X27.835
G3 X27.835 Y171 I0 J-1
G1 X53.835
G3 X53.835 Y173 I0 J1
G1 X52.755
G3 X52.646 Y172.525 I0 J-0.25
G1 X53.427 Y172.148
X53.46 Y172.135
X53.495 Y172.127
X53.628 Y172.105
X53.848 Y172.141
X53.875 Y172.152
X53.895 Y172.174
X53.904 Y172.202
X53.902 Y172.231
X53.887 Y172.256
X53.864 Y172.274
X53.835 Y172.28
Z-5.657 F50
X27.835 F150
G3 X27.835 Y171.72 I0 J-0.28
G1 X53.835
G3 X53.835 Y172.28 I0 J0.28
G2 X53.295 Y172.64 I0 J0.585
G3 X52.755 Y173 I-0.54 J-0.225
G1 X27.835
G3 X27.835 Y171 I0 J-1
G1 X53.835
G3 X53.835 Y173 I0 J1
G1 X52.755
G3 X52.646 Y172.525 I0 J-0.25
G1 X53.427 Y172.148
X53.46 Y172.135
X53.495 Y172.127
X53.628 Y172.105
X53.848 Y172.141
X53.875 Y172.152
X53.895 Y172.174
X53.904 Y172.202
X53.902 Y172.231
X53.887 Y172.256
X53.864 Y172.274
X53.835 Y172.28
Z-6.6 F50
X27.835 F150
G3 X27.835 Y171.72 I0 J-0.28
G1 X53.835
G3 X53.835 Y172.28 I0 J0.28
G2 X53.295 Y172.64 I0 J0.585
G3 X52.755 Y173 I-0.54 J-0.225
G1 X27.835
G3 X27.835 Y171 I0 J-1
G1 X53.835
G3 X53.835 Y173 I0 J1
G1 X52.755
G0 Z5
X27.835 Y191.72
G1 Z2.5 F50
Z-0.943
X53.835 F150
G3 X53.835 Y192.28 I0 J0.28
G1 X27.835
G3 X27.835 Y191.72 I0 J-0.28
G2 X28.375 Y191.36 I0 J-0.585
G3 X28.915 Y191 I0.54 J0.225
G1 X53.835
G3 X53.835 Y193 I0 J1
G1 X27.835
G3 X27.835 Y191 I0 J-1
G1 X28.915
G3 X29.023 Y191.475 I0 J0.25
G1 X28.243 Y191.852
X28.21 Y191.865
X28.175 Y191.873
X28.042 Y191.895
X27.822 Y191.859
X27.795 Y191.848
X27.775 Y191.826
X27.765 Y191.798
X27.768 Y191.769
X27.782 Y191.744
X27.806 Y191.726
X27.835 Y191.72
Z-1.886 F50
X53.835 F150
G3 X53.835 Y192.28 I0 J0.28
G1 X27.835
G3 X27.835 Y191.72 I0 J-0.28
G2 X28.375 Y191.36 I0 J-0.585
G3 X28.915 Y191 I0.54 J0.225
G1 X53.835
G3 X53.835 Y193 I0 J1
G1 X27.835
G3 X27.835 Y191 I0 J-1
G1 X28.915
G3 X29.023 Y191.475 I0 J0.25
G1 X28.243 Y191.852
X28.21 Y191.865
X28.175 Y191.873
X28.042 Y191.895
X27.822 Y191.859
X27.795 Y191.848
X27.775 Y191.826
X27.765 Y191.798
X27.768 Y191.769
X27.782 Y191.744
X27.806 Y191.726
X27.835 Y191.72
Z-2.829 F50
X53.835 F150
G3 X53.835 Y192.28 I0 J0.28
G1 X27.835
G3 X27.835 Y191.72 I0 J-0.28
G2 X28.375 Y191.36 I0 J-0.585
G3 X28.915 Y191 I0.54 J0.225
G1 X53.835
G3 X53.835 Y193 I0 J1
G1 X27.835
G3 X27.835 Y191 I0 J-1
G1 X28.915
G3 X29.023 Y191.475 I0 J0.25
G1 X28.243 Y191.852
X28.21 Y191.865
X28.175 Y191.873
X28.042 Y191.895
X27.822 Y191.859
X27.795 Y191.848
X27.775 Y191.826
X27.765 Y191.798
X27.768 Y191.769
X27.782 Y191.744
X27.806 Y191.726
X27.835 Y191.72
Z-3.771 F50
X53.835 F150
G3 X53.835 Y192.28 I0 J0.28
G1 X27.835
G3 X27.835 Y191.72 I0 J-0.28
G2 X28.375 Y191.36 I0 J-0.585
G3 X28.915 Y191 I0.54 J0.225
G1 X53.835
G3 X53.835 Y193 I0 J1
G1 X27.835
G3 X27.835 Y191 I0 J-1
G1 X28.915
G3 X29.023 Y191.475 I0 J0.25
G1 X28.243 Y191.852
X28.21 Y191.865
X28.175 Y191.873
X28.042 Y191.895
X27.822 Y191.859
X27.795 Y191.848
X27.775 Y191.826
X27.765 Y191.798
X27.768 Y191.769
X27.782 Y191.744
X27.806 Y191.726
X27.835 Y191.72
Z-4.714 F50
X53.835 F150
G3 X53.835 Y192.28 I0 J0.28
G1 X27.835
G3 X27.835 Y191.72 I0 J-0.28
G2 X28.375 Y191.36 I0 J-0.585
G3 X28.915 Y191 I0.54 J0.225
G1 X53.835
G3 X53.835 Y193 I0 J1
G1 X27.835
G3 X27.835 Y191 I0 J-1
G1 X28.915
G3 X29.023 Y191.475 I0 J0.25
G1 X28.243 Y191.852
X28.21 Y191.865
X28.175 Y191.873
X28.042 Y191.895
X27.822 Y191.859
X27.795 Y191.848
X27.775 Y191.826
X27.765 Y191.798
X27.768 Y191.769
X27.782 Y191.744
X27.806 Y191.726
X27.835 Y191.72
Z-5.657 F50
X53.835 F150
G3 X53.835 Y192.28 I0 J0.28
G1 X27.835
G3 X27.835 Y191.72 I0 J-0.28
G2 X28.375 Y191.36 I0 J-0.585
G3 X28.915 Y191 I0.54 J0.225
G1 X53.835
G3 X53.835 Y193 I0 J1
G1 X27.835
G3 X27.835 Y191 I0 J-1
G1 X28.915
G3 X29.023 Y191.475 I0 J0.25
G1 X28.243 Y191.852
X28.21 Y191.865
X28.175 Y191.873
X28.042 Y191.895
X27.822 Y191.859
X27.795 Y191.848
X27.775 Y191.826
X27.765 Y191.798
X27.768 Y191.769
X27.782 Y191.744
X27.806 Y191.726
X27.835 Y191.72
Z-6.6 F50
X53.835 F150
G3 X53.835 Y192.28 I0 J0.28
G1 X27.835
G3 X27.835 Y191.72 I0 J-0.28
G2 X28.375 Y191.36 I0 J-0.585
G3 X28.915 Y191 I0.54 J0.225
G1 X53.835
G3 X53.835 Y193 I0 J1
G1 X27.835
G3 X27.835 Y191 I0 J-1
G1 X28.915
G0 Z5
X27.835 Y211.72
G1 Z2.5 F50
Z-0.943
X53.835 F150
G3 X53.835 Y212.28 I0 J0.28
G1 X27.835
G3 X27.835 Y211.72 I0 J-0.28
G2 X28.375 Y211.36 I0 J-0.585
G3 X28.915 Y211 I0.54 J0.225
G1 X53.835
G3 X53.835 Y213 I0 J1
G1 X27.835
G3 X27.835 Y211 I0 J-1
G1 X28.915
G3 X29.023 Y211.475 I0 J0.25
G1 X28.243 Y211.852
X28.21 Y211.865
X28.175 Y211.873
X28.042 Y211.895
X27.822 Y211.859
X27.795 Y211.848
X27.775 Y211.826
X27.765 Y211.798
X27.768 Y211.769
X27.782 Y211.744
X27.806 Y211.726
X27.835 Y211.72
Z-1.886 F50
X53.835 F150
G3 X53.835 Y212.28 I0 J0.28
G1 X27.835
G3 X27.835 Y211.72 I0 J-0.28
G2 X28.375 Y211.36 I0 J-0.585
G3 X28.915 Y211 I0.54 J0.225
G1 X53.835
G3 X53.835 Y213 I0 J1
G1 X27.835
G3 X27.835 Y211 I0 J-1
G1 X28.915
G3 X29.023 Y211.475 I0 J0.25
G1 X28.243 Y211.852
X28.21 Y211.865
X28.175 Y211.873
X28.042 Y211.895
X27.822 Y211.859
X27.795 Y211.848
X27.775 Y211.826
X27.765 Y211.798
X27.768 Y211.769
X27.782 Y211.744
X27.806 Y211.726
X27.835 Y211.72
Z-2.829 F50
X53.835 F150
G3 X53.835 Y212.28 I0 J0.28
G1 X27.835
G3 X27.835 Y211.72 I0 J-0.28
G2 X28.375 Y211.36 I0 J-0.585
G3 X28.915 Y211 I0.54 J0.225
G1 X53.835
G3 X53.835 Y213 I0 J1
G1 X27.835
G3 X27.835 Y211 I0 J-1
G1 X28.915
G3 X29.023 Y211.475 I0 J0.25
G1 X28.243 Y211.852
X28.21 Y211.865
X28.175 Y211.873
X28.042 Y211.895
X27.822 Y211.859
X27.795 Y211.848
X27.775 Y211.826
X27.765 Y211.798
X27.768 Y211.769
X27.782 Y211.744
X27.806 Y211.726
X27.835 Y211.72
Z-3.771 F50
X53.835 F150
G3 X53.835 Y212.28 I0 J0.28
G1 X27.835
G3 X27.835 Y211.72 I0 J-0.28
G2 X28.375 Y211.36 I0 J-0.585
G3 X28.915 Y211 I0.54 J0.225
G1 X53.835
G3 X53.835 Y213 I0 J1
G1 X27.835
G3 X27.835 Y211 I0 J-1
G1 X28.915
G3 X29.023 Y211.475 I0 J0.25
G1 X28.243 Y211.852
X28.21 Y211.865
X28.175 Y211.873
X28.042 Y211.895
X27.822 Y211.859
X27.795 Y211.848
X27.775 Y211.826
X27.765 Y211.798
X27.768 Y211.769
X27.782 Y211.744
X27.806 Y211.726
X27.835 Y211.72
Z-4.714 F50
X53.835 F150
G3 X53.835 Y212.28 I0 J0.28
G1 X27.835
G3 X27.835 Y211.72 I0 J-0.28
G2 X28.375 Y211.36 I0 J-0.585
G3 X28.915 Y211 I0.54 J0.225
G1 X53.835
G3 X53.835 Y213 I0 J1
G1 X27.835
G3 X27.835 Y211 I0 J-1
G1 X28.915
G3 X29.023 Y211.475 I0 J0.25
G1 X28.243 Y211.852
X28.21 Y211.865
X28.175 Y211.873
X28.042 Y211.895
X27.822 Y211.859
X27.795 Y211.848
X27.775 Y211.826
X27.765 Y211.798
X27.768 Y211.769
X27.782 Y211.744
X27.806 Y211.726
X27.835 Y211.72
Z-5.657 F50
X53.835 F150
G3 X53.835 Y212.28 I0 J0.28
G1 X27.835
G3 X27.835 Y211.72 I0 J-0.28
G2 X28.375 Y211.36 I0 J-0.585
G3 X28.915 Y211 I0.54 J0.225
G1 X53.835
G3 X53.835 Y213 I0 J1
G1 X27.835
G3 X27.835 Y211 I0 J-1
G1 X28.915
G3 X29.023 Y211.475 I0 J0.25
G1 X28.243 Y211.852
X28.21 Y211.865
X28.175 Y211.873
X28.042 Y211.895
X27.822 Y211.859
X27.795 Y211.848
X27.775 Y211.826
X27.765 Y211.798
X27.768 Y211.769
X27.782 Y211.744
X27.806 Y211.726
X27.835 Y211.72
Z-6.6 F50
X53.835 F150
G3 X53.835 Y212.28 I0 J0.28
G1 X27.835
G3 X27.835 Y211.72 I0 J-0.28
G2 X28.375 Y211.36 I0 J-0.585
G3 X28.915 Y211 I0.54 J0.225
G1 X53.835
G3 X53.835 Y213 I0 J1
G1 X27.835
G3 X27.835 Y211 I0 J-1
G1 X28.915
G0 Z5
X53.835 Y232.28
G1 Z2.5 F50
Z-0.943
X27.835 F150
G3 X27.835 Y231.72 I0 J-0.28
G1 X53.835
G3 X53.835 Y232.28 I0 J0.28
G2 X53.295 Y232.64 I0 J0.585
G3 X52.755 Y233 I-0.54 J-0.225
G1 X27.835
G3 X27.835 Y231 I0 J-1
G1 X53.835
G3 X53.835 Y233 I0 J1
G1 X52.755
G3 X52.646 Y232.525 I0 J-0.25
G1 X53.427 Y232.148
X53.46 Y232.135
X53.495 Y232.127
X53.628 Y232.105
X53.848 Y232.141
X53.875 Y232.152
X53.895 Y232.174
X53.904 Y232.202
X53.902 Y232.231
X53.887 Y232.256
X53.864 Y232.274
X53.835 Y232.28
Z-1.886 F50
X27.835 F150
G3 X27.835 Y231.72 I0 J-0.28
G1 X53.835
G3 X53.835 Y232.28 I0 J0.28
G2 X53.295 Y232.64 I0 J0.585
G3 X52.755 Y233 I-0.54 J-0.225
G1 X27.835
G3 X27.835 Y231 I0 J-1
G1 X53.835
G3 X53.835 Y233 I0 J1
G1 X52.755
G3 X52.646 Y232.525 I0 J-0.25
G1 X53.427 Y232.148
X53.46 Y232.135
X53.495 Y232.127
X53.628 Y232.105
X53.848 Y232.141
X53.875 Y232.152
X53.895 Y232.174
X53.904 Y232.202
X53.902 Y232.231
X53.887 Y232.256
X53.864 Y232.274
X53.835 Y232.28
Z-2.829 F50
X27.835 F150
G3 X27.835 Y231.72 I0 J-0.28
G1 X53.835
G3 X53.835 Y232.28 I0 J0.28
G2 X53.295 Y232.64 I0 J0.585
G3 X52.755 Y233 I-0.54 J-0.225
G1 X27.835
G3 X27.835 Y231 I0 J-1
G1 X53.835
G3 X53.835 Y233 I0 J1
G1 X52.755
G3 X52.646 Y232.525 I0 J-0.25
G1 X53.427 Y232.148
X53.46 Y232.135
X53.495 Y232.127
X53.628 Y232.105
X53.848 Y232.141
X53.875 Y232.152
X53.895 Y232.174
X53.904 Y232.202
X53.902 Y232.231
X53.887 Y232.256
X53.864 Y232.274
X53.835 Y232.28
Z-3.771 F50
X27.835 F150
G3 X27.835 Y231.72 I0 J-0.28
G1 X53.835
G3 X53.835 Y232.28 I0 J0.28
G2 X53.295 Y232.64 I0 J0.585
G3 X52.755 Y233 I-0.54 J-0.225
G1 X27.835
G3 X27.835 Y231 I0 J-1
G1 X53.835
G3 X53.835 Y233 I0 J1
G1 X52.755
G3 X52.646 Y232.525 I0 J-0.25
G1 X53.427 Y232.148
X53.46 Y232.135
X53.495 Y232.127
X53.628 Y232.105
X53.848 Y232.141
X53.875 Y232.152
X53.895 Y232.174
X53.904 Y232.202
X53.902 Y232.231
X53.887 Y232.256
X53.864 Y232.274
X53.835 Y232.28
Z-4.714 F50
X27.835 F150
G3 X27.835 Y231.72 I0 J-0.28
G1 X53.835
G3 X53.835 Y232.28 I0 J0.28
G2 X53.295 Y232.64 I0 J0.585
G3 X52.755 Y233 I-0.54 J-0.225
G1 X27.835
G3 X27.835 Y231 I0 J-1
G1 X53.835
G3 X53.835 Y233 I0 J1
G1 X52.755
G3 X52.646 Y232.525 I0 J-0.25
G1 X53.427 Y232.148
X53.46 Y232.135
X53.495 Y232.127
X53.628 Y232.105
X53.848 Y232.141
X53.875 Y232.152
X53.895 Y232.174
X53.904 Y232.202
X53.902 Y232.231
X53.887 Y232.256
X53.864 Y232.274
X53.835 Y232.28
Z-5.657 F50
X27.835 F150
G3 X27.835 Y231.72 I0 J-0.28
G1 X53.835
G3 X53.835 Y232.28 I0 J0.28
G2 X53.295 Y232.64 I0 J0.585
G3 X52.755 Y233 I-0.54 J-0.225
G1 X27.835
G3 X27.835 Y231 I0 J-1
G1 X53.835
G3 X53.835 Y233 I0 J1
G1 X52.755
G3 X52.646 Y232.525 I0 J-0.25
G1 X53.427 Y232.148
X53.46 Y232.135
X53.495 Y232.127
X53.628 Y232.105
X53.848 Y232.141
X53.875 Y232.152
X53.895 Y232.174
X53.904 Y232.202
X53.902 Y232.231
X53.887 Y232.256
X53.864 Y232.274
X53.835 Y232.28
Z-6.6 F50
X27.835 F150
G3 X27.835 Y231.72 I0 J-0.28
G1 X53.835
G3 X53.835 Y232.28 I0 J0.28
G2 X53.295 Y232.64 I0 J0.585
G3 X52.755 Y233 I-0.54 J-0.225
G1 X27.835
G3 X27.835 Y231 I0 J-1
G1 X53.835
G3 X53.835 Y233 I0 J1
G1 X52.755
G0 Z5
X74.235 Y217
G1 Z2.5 F50
Z-0.943
X74.242 Y216.975 F150
X74.26 Y216.957
X74.285 Y216.95
X74.31 Y216.957
X74.328 Y216.975
X74.335 Y217
G3 X72.335 Y217 I-1 J0
X74.335 Y217 I1 J0
G1 X74.235
Z-1.886 F50
X74.242 Y216.975 F150
X74.26 Y216.957
X74.285 Y216.95
X74.31 Y216.957
X74.328 Y216.975
X74.335 Y217
G3 X72.335 Y217 I-1 J0
X74.335 Y217 I1 J0
G1 X74.235
Z-2.829 F50
X74.242 Y216.975 F150
X74.26 Y216.957
X74.285 Y216.95
X74.31 Y216.957
X74.328 Y216.975
X74.335 Y217
G3 X72.335 Y217 I-1 J0
X74.335 Y217 I1 J0
G1 X74.235
Z-3.771 F50
X74.242 Y216.975 F150
X74.26 Y216.957
X74.285 Y216.95
X74.31 Y216.957
X74.328 Y216.975
X74.335 Y217
G3 X72.335 Y217 I-1 J0
X74.335 Y217 I1 J0
G1 X74.235
Z-4.714 F50
X74.242 Y216.975 F150
X74.26 Y216.957
X74.285 Y216.95
X74.31 Y216.957
X74.328 Y216.975
X74.335 Y217
G3 X72.335 Y217 I-1 J0
X74.335 Y217 I1 J0
G1 X74.235
Z-5.657 F50
X74.242 Y216.975 F150
X74.26 Y216.957
X74.285 Y216.95
X74.31 Y216.957
X74.328 Y216.975
X74.335 Y217
G3 X72.335 Y217 I-1 J0
X74.335 Y217 I1 J0
G1 X74.235
Z-6.6 F50
X74.242 Y216.975 F150
X74.26 Y216.957
X74.285 Y216.95
X74.31 Y216.957
X74.328 Y216.975
X74.335 Y217
G3 X72.335 Y217 I-1 J0
X74.335 Y217 I1 J0
G0 Z5
X105.835 Y254.4
G1 Z2.5 F50
Z-0.943
G3 X105.835 Y255.6 I0 J0.6 F150
X105.835 Y254.4 I0 J-0.6
G1 Z-1.886 F50
G3 X105.835 Y255.6 I0 J0.6 F150
X105.835 Y254.4 I0 J-0.6
G1 Z-2.829 F50
G3 X105.835 Y255.6 I0 J0.6 F150
X105.835 Y254.4 I0 J-0.6
G1 Z-3.771 F50
G3 X105.835 Y255.6 I0 J0.6 F150
X105.835 Y254.4 I0 J-0.6
G1 Z-4.714 F50
G3 X105.835 Y255.6 I0 J0.6 F150
X105.835 Y254.4 I0 J-0.6
G1 Z-5.657 F50
G3 X105.835 Y255.6 I0 J0.6 F150
X105.835 Y254.4 I0 J-0.6
G1 Z-6.6 F50
G3 X105.835 Y255.6 I0 J0.6 F150
X105.835 Y254.4 I0 J-0.6
G0 Z5
Y284.4
G1 Z2.5 F50
Z-0.943
G3 X105.835 Y285.6 I0 J0.6 F150
X105.835 Y284.4 I0 J-0.6
G1 Z-1.886 F50
G3 X105.835 Y285.6 I0 J0.6 F150
X105.835 Y284.4 I0 J-0.6
G1 Z-2.829 F50
G3 X105.835 Y285.6 I0 J0.6 F150
X105.835 Y284.4 I0 J-0.6
G1 Z-3.771 F50
G3 X105.835 Y285.6 I0 J0.6 F150
X105.835 Y284.4 I0 J-0.6
G1 Z-4.714 F50
G3 X105.835 Y285.6 I0 J0.6 F150
X105.835 Y284.4 I0 J-0.6
G1 Z-5.657 F50
G3 X105.835 Y285.6 I0 J0.6 F150
X105.835 Y284.4 I0 J-0.6
G1 Z-6.6 F50
G3 X105.835 Y285.6 I0 J0.6 F150
X105.835 Y284.4 I0 J-0.6
G0 Z5
X66.835
G1 Z2.5 F50
Z-0.943
G3 X66.835 Y285.6 I0 J0.6 F150
X66.835 Y284.4 I0 J-0.6
G1 Z-1.886 F50
G3 X66.835 Y285.6 I0 J0.6 F150
X66.835 Y284.4 I0 J-0.6
G1 Z-2.829 F50
G3 X66.835 Y285.6 I0 J0.6 F150
X66.835 Y284.4 I0 J-0.6
G1 Z-3.771 F50
G3 X66.835 Y285.6 I0 J0.6 F150
X66.835 Y284.4 I0 J-0.6
G1 Z-4.714 F50
G3 X66.835 Y285.6 I0 J0.6 F150
X66.835 Y284.4 I0 J-0.6
G1 Z-5.657 F50
G3 X66.835 Y285.6 I0 J0.6 F150
X66.835 Y284.4 I0 J-0.6
G1 Z-6.6 F50
G3 X66.835 Y285.6 I0 J0.6 F150
X66.835 Y284.4 I0 J-0.6
G0 Z5
X27.835 Y252.28
G1 Z2.5 F50
Z-0.943
G3 X27.835 Y251.72 I0 J-0.28 F150
G1 X53.835
G3 X53.835 Y252.28 I0 J0.28
G1 X27.835
G2 X27.42 Y252.498 I0 J0.503
G3 X26.953 Y252.471 I-0.226 J-0.156
X27.835 Y251 I0.882 J-0.471
G1 X53.835
G3 X53.835 Y253 I0 J1
G1 X27.835
G3 X26.953 Y252.471 I0 J-1
G1 X26.941 Y252.434
X26.942 Y252.394
X26.956 Y252.358
X26.982 Y252.328
X27.017 Y252.309
X27.546 Y252.122
X27.808 Y252.054
X27.847 Y252.051
X27.884 Y252.062
X27.916 Y252.084
X27.938 Y252.115
X27.949 Y252.152
X27.947 Y252.19
X27.932 Y252.226
X27.906 Y252.255
X27.873 Y252.274
X27.835 Y252.28
Z-1.886 F50
G3 X27.835 Y251.72 I0 J-0.28 F150
G1 X53.835
G3 X53.835 Y252.28 I0 J0.28
G1 X27.835
G2 X27.42 Y252.498 I0 J0.503
G3 X26.953 Y252.471 I-0.226 J-0.156
X27.835 Y251 I0.882 J-0.471
G1 X53.835
G3 X53.835 Y253 I0 J1
G1 X27.835
G3 X26.953 Y252.471 I0 J-1
G1 X26.941 Y252.434
X26.942 Y252.394
X26.956 Y252.358
X26.982 Y252.328
X27.017 Y252.309
X27.546 Y252.122
X27.808 Y252.054
X27.847 Y252.051
X27.884 Y252.062
X27.916 Y252.084
X27.938 Y252.115
X27.949 Y252.152
X27.947 Y252.19
X27.932 Y252.226
X27.906 Y252.255
X27.873 Y252.274
X27.835 Y252.28
Z-2.829 F50
G3 X27.835 Y251.72 I0 J-0.28 F150
G1 X53.835
G3 X53.835 Y252.28 I0 J0.28
G1 X27.835
G2 X27.42 Y252.498 I0 J0.503
G3 X26.953 Y252.471 I-0.226 J-0.156
X27.835 Y251 I0.882 J-0.471
G1 X53.835
G3 X53.835 Y253 I0 J1
G1 X27.835
G3 X26.953 Y252.471 I0 J-1
G1 X26.941 Y252.434
X26.942 Y252.394
X26.956 Y252.358
X26.982 Y252.328
X27.017 Y252.309
X27.546 Y252.122
X27.808 Y252.054
X27.847 Y252.051
X27.884 Y252.062
X27.916 Y252.084
X27.938 Y252.115
X27.949 Y252.152
X27.947 Y252.19
X27.932 Y252.226
X27.906 Y252.255
X27.873 Y252.274
X27.835 Y252.28
Z-3.771 F50
G3 X27.835 Y251.72 I0 J-0.28 F150
G1 X53.835
G3 X53.835 Y252.28 I0 J0.28
G1 X27.835
G2 X27.42 Y252.498 I0 J0.503
G3 X26.953 Y252.471 I-0.226 J-0.156
X27.835 Y251 I0.882 J-0.471
G1 X53.835
G3 X53.835 Y253 I0 J1
G1 X27.835
G3 X26.953 Y252.471 I0 J-1
G1 X26.941 Y252.434
X26.942 Y252.394
X26.956 Y252.358
X26.982 Y252.328
X27.017 Y252.309
X27.546 Y252.122
X27.808 Y252.054
X27.847 Y252.051
X27.884 Y252.062
X27.916 Y252.084
X27.938 Y252.115
X27.949 Y252.152
X27.947 Y252.19
X27.932 Y252.226
X27.906 Y252.255
X27.873 Y252.274
X27.835 Y252.28
Z-4.714 F50
G3 X27.835 Y251.72 I0 J-0.28 F150
G1 X53.835
G3 X53.835 Y252.28 I0 J0.28
G1 X27.835
G2 X27.42 Y252.498 I0 J0.503
G3 X26.953 Y252.471 I-0.226 J-0.156
X27.835 Y251 I0.882 J-0.471
G1 X53.835
G3 X53.835 Y253 I0 J1
G1 X27.835
G3 X26.953 Y252.471 I0 J-1
G1 X26.941 Y252.434
X26.942 Y252.394
X26.956 Y252.358
X26.982 Y252.328
X27.017 Y252.309
X27.546 Y252.122
X27.808 Y252.054
X27.847 Y252.051
X27.884 Y252.062
X27.916 Y252.084
X27.938 Y252.115
X27.949 Y252.152
X27.947 Y252.19
X27.932 Y252.226
X27.906 Y252.255
X27.873 Y252.274
X27.835 Y252.28
Z-5.657 F50
G3 X27.835 Y251.72 I0 J-0.28 F150
G1 X53.835
G3 X53.835 Y252.28 I0 J0.28
G1 X27.835
G2 X27.42 Y252.498 I0 J0.503
G3 X26.953 Y252.471 I-0.226 J-0.156
X27.835 Y251 I0.882 J-0.471
G1 X53.835
G3 X53.835 Y253 I0 J1
G1 X27.835
G3 X26.953 Y252.471 I0 J-1
G1 X26.941 Y252.434
X26.942 Y252.394
X26.956 Y252.358
X26.982 Y252.328
X27.017 Y252.309
X27.546 Y252.122
X27.808 Y252.054
X27.847 Y252.051
X27.884 Y252.062
X27.916 Y252.084
X27.938 Y252.115
X27.949 Y252.152
X27.947 Y252.19
X27.932 Y252.226
X27.906 Y252.255
X27.873 Y252.274
X27.835 Y252.28
Z-6.6 F50
G3 X27.835 Y251.72 I0 J-0.28 F150
G1 X53.835
G3 X53.835 Y252.28 I0 J0.28
G1 X27.835
G2 X27.42 Y252.498 I0 J0.503
G3 X26.953 Y252.471 I-0.226 J-0.156
X27.835 Y251 I0.882 J-0.471
G1 X53.835
G3 X53.835 Y253 I0 J1
G1 X27.835
G3 X26.953 Y252.471 I0 J-1
G0 Z5
X10.835 Y284.4
G1 Z2.5 F50
Z-0.943
G3 X10.835 Y285.6 I0 J0.6 F150
X10.835 Y284.4 I0 J-0.6
G1 Z-1.886 F50
G3 X10.835 Y285.6 I0 J0.6 F150
X10.835 Y284.4 I0 J-0.6
G1 Z-2.829 F50
G3 X10.835 Y285.6 I0 J0.6 F150
X10.835 Y284.4 I0 J-0.6
G1 Z-3.771 F50
G3 X10.835 Y285.6 I0 J0.6 F150
X10.835 Y284.4 I0 J-0.6
G1 Z-4.714 F50
G3 X10.835 Y285.6 I0 J0.6 F150
X10.835 Y284.4 I0 J-0.6
G1 Z-5.657 F50
G3 X10.835 Y285.6 I0 J0.6 F150
X10.835 Y284.4 I0 J-0.6
G1 Z-6.6 F50
G3 X10.835 Y285.6 I0 J0.6 F150
X10.835 Y284.4 I0 J-0.6
G0 Z5
X27.835 Y132.28
G1 Z2.5 F50
Z-0.943
G3 X27.835 Y131.72 I0 J-0.28 F150
G1 X53.835
G3 X53.835 Y132.28 I0 J0.28
G1 X27.835
G2 X27.42 Y132.498 I0 J0.503
G3 X26.953 Y132.471 I-0.226 J-0.156
X27.835 Y131 I0.882 J-0.471
G1 X53.835
G3 X53.835 Y133 I0 J1
G1 X27.835
G3 X26.953 Y132.471 I0 J-1
G1 X26.941 Y132.434
X26.942 Y132.394
X26.956 Y132.358
X26.982 Y132.328
X27.017 Y132.309
X27.546 Y132.122
X27.808 Y132.054
X27.847 Y132.051
X27.884 Y132.062
X27.916 Y132.084
X27.938 Y132.115
X27.949 Y132.152
X27.947 Y132.19
X27.932 Y132.226
X27.906 Y132.255
X27.873 Y132.274
X27.835 Y132.28
Z-1.886 F50
G3 X27.835 Y131.72 I0 J-0.28 F150
G1 X53.835
G3 X53.835 Y132.28 I0 J0.28
G1 X27.835
G2 X27.42 Y132.498 I0 J0.503
G3 X26.953 Y132.471 I-0.226 J-0.156
X27.835 Y131 I0.882 J-0.471
G1 X53.835
G3 X53.835 Y133 I0 J1
G1 X27.835
G3 X26.953 Y132.471 I0 J-1
G1 X26.941 Y132.434
X26.942 Y132.394
X26.956 Y132.358
X26.982 Y132.328
X27.017 Y132.309
X27.546 Y132.122
X27.808 Y132.054
X27.847 Y132.051
X27.884 Y132.062
X27.916 Y132.084
X27.938 Y132.115
X27.949 Y132.152
X27.947 Y132.19
X27.932 Y132.226
X27.906 Y132.255
X27.873 Y132.274
X27.835 Y132.28
Z-2.829 F50
G3 X27.835 Y131.72 I0 J-0.28 F150
G1 X53.835
G3 X53.835 Y132.28 I0 J0.28
G1 X27.835
G2 X27.42 Y132.498 I0 J0.503
G3 X26.953 Y132.471 I-0.226 J-0.156
X27.835 Y131 I0.882 J-0.471
G1 X53.835
G3 X53.835 Y133 I0 J1
G1 X27.835
G3 X26.953 Y132.471 I0 J-1
G1 X26.941 Y132.434
X26.942 Y132.394
X26.956 Y132.358
X26.982 Y132.328
X27.017 Y132.309
X27.546 Y132.122
X27.808 Y132.054
X27.847 Y132.051
X27.884 Y132.062
X27.916 Y132.084
X27.938 Y132.115
X27.949 Y132.152
X27.947 Y132.19
X27.932 Y132.226
X27.906 Y132.255
X27.873 Y132.274
X27.835 Y132.28
Z-3.771 F50
G3 X27.835 Y131.72 I0 J-0.28 F150
G1 X53.835
G3 X53.835 Y132.28 I0 J0.28
G1 X27.835
G2 X27.42 Y132.498 I0 J0.503
G3 X26.953 Y132.471 I-0.226 J-0.156
X27.835 Y131 I0.882 J-0.471
G1 X53.835
G3 X53.835 Y133 I0 J1
G1 X27.835
G3 X26.953 Y132.471 I0 J-1
G1 X26.941 Y132.434
X26.942 Y132.394
X26.956 Y132.358
X26.982 Y132.328
X27.017 Y132.309
X27.546 Y132.122
X27.808 Y132.054
X27.847 Y132.051
X27.884 Y132.062
X27.916 Y132.084
X27.938 Y132.115
X27.949 Y132.152
X27.947 Y132.19
X27.932 Y132.226
X27.906 Y132.255
X27.873 Y132.274
X27.835 Y132.28
Z-4.714 F50
G3 X27.835 Y131.72 I0 J-0.28 F150
G1 X53.835
G3 X53.835 Y132.28 I0 J0.28
G1 X27.835
G2 X27.42 Y132.498 I0 J0.503
G3 X26.953 Y132.471 I-0.226 J-0.156
X27.835 Y131 I0.882 J-0.471
G1 X53.835
G3 X53.835 Y133 I0 J1
G1 X27.835
G3 X26.953 Y132.471 I0 J-1
G1 X26.941 Y132.434
X26.942 Y132.394
X26.956 Y132.358
X26.982 Y132.328
X27.017 Y132.309
X27.546 Y132.122
X27.808 Y132.054
X27.847 Y132.051
X27.884 Y132.062
X27.916 Y132.084
X27.938 Y132.115
X27.949 Y132.152
X27.947 Y132.19
X27.932 Y132.226
X27.906 Y132.255
X27.873 Y132.274
X27.835 Y132.28
Z-5.657 F50
G3 X27.835 Y131.72 I0 J-0.28 F150
G1 X53.835
G3 X53.835 Y132.28 I0 J0.28
G1 X27.835
G2 X27.42 Y132.498 I0 J0.503
G3 X26.953 Y132.471 I-0.226 J-0.156
X27.835 Y131 I0.882 J-0.471
G1 X53.835
G3 X53.835 Y133 I0 J1
G1 X27.835
G3 X26.953 Y132.471 I0 J-1
G1 X26.941 Y132.434
X26.942 Y132.394
X26.956 Y132.358
X26.982 Y132.328
X27.017 Y132.309
X27.546 Y132.122
X27.808 Y132.054
X27.847 Y132.051
X27.884 Y132.062
X27.916 Y132.084
X27.938 Y132.115
X27.949 Y132.152
X27.947 Y132.19
X27.932 Y132.226
X27.906 Y132.255
X27.873 Y132.274
X27.835 Y132.28
Z-6.6 F50
G3 X27.835 Y131.72 I0 J-0.28 F150
G1 X53.835
G3 X53.835 Y132.28 I0 J0.28
G1 X27.835
G2 X27.42 Y132.498 I0 J0.503
G3 X26.953 Y132.471 I-0.226 J-0.156
X27.835 Y131 I0.882 J-0.471
G1 X53.835
G3 X53.835 Y133 I0 J1
G1 X27.835
G3 X26.953 Y132.471 I0 J-1
G0 Z5
X53.835 Y111.72
G1 Z2.5 F50
Z-0.943
G3 X53.835 Y112.28 I0 J0.28 F150
G1 X27.835
G3 X27.835 Y111.72 I0 J-0.28
G1 X53.835
G2 X54.249 Y111.502 I0 J-0.503
G3 X54.717 Y111.529 I0.226 J0.156
X53.835 Y113 I-0.882 J0.471
G1 X27.835
G3 X27.835 Y111 I0 J-1
G1 X53.835
G3 X54.717 Y111.529 I0 J1
G1 X54.729 Y111.566
X54.728 Y111.606
X54.714 Y111.642
X54.688 Y111.672
X54.653 Y111.691
X54.124 Y111.878
X53.861 Y111.946
X53.823 Y111.949
X53.786 Y111.938
X53.754 Y111.916
X53.732 Y111.885
X53.721 Y111.848
X53.723 Y111.81
X53.738 Y111.774
X53.763 Y111.745
X53.797 Y111.726
X53.835 Y111.72
Z-1.886 F50
G3 X53.835 Y112.28 I0 J0.28 F150
G1 X27.835
G3 X27.835 Y111.72 I0 J-0.28
G1 X53.835
G2 X54.249 Y111.502 I0 J-0.503
G3 X54.717 Y111.529 I0.226 J0.156
X53.835 Y113 I-0.882 J0.471
G1 X27.835
G3 X27.835 Y111 I0 J-1
G1 X53.835
G3 X54.717 Y111.529 I0 J1
G1 X54.729 Y111.566
X54.728 Y111.606
X54.714 Y111.642
X54.688 Y111.672
X54.653 Y111.691
X54.124 Y111.878
X53.861 Y111.946
X53.823 Y111.949
X53.786 Y111.938
X53.754 Y111.916
X53.732 Y111.885
X53.721 Y111.848
X53.723 Y111.81
X53.738 Y111.774
X53.763 Y111.745
X53.797 Y111.726
X53.835 Y111.72
Z-2.829 F50
G3 X53.835 Y112.28 I0 J0.28 F150
G1 X27.835
G3 X27.835 Y111.72 I0 J-0.28
G1 X53.835
G2 X54.249 Y111.502 I0 J-0.503
G3 X54.717 Y111.529 I0.226 J0.156
X53.835 Y113 I-0.882 J0.471
G1 X27.835
G3 X27.835 Y111 I0 J-1
G1 X53.835
G3 X54.717 Y111.529 I0 J1
G1 X54.729 Y111.566
X54.728 Y111.606
X54.714 Y111.642
X54.688 Y111.672
X54.653 Y111.691
X54.124 Y111.878
X53.861 Y111.946
X53.823 Y111.949
X53.786 Y111.938
X53.754 Y111.916
X53.732 Y111.885
X53.721 Y111.848
X53.723 Y111.81
X53.738 Y111.774
X53.763 Y111.745
X53.797 Y111.726
X53.835 Y111.72
Z-3.771 F50
G3 X53.835 Y112.28 I0 J0.28 F150
G1 X27.835
G3 X27.835 Y111.72 I0 J-0.28
G1 X53.835
G2 X54.249 Y111.502 I0 J-0.503
G3 X54.717 Y111.529 I0.226 J0.156
X53.835 Y113 I-0.882 J0.471
G1 X27.835
G3 X27.835 Y111 I0 J-1
G1 X53.835
G3 X54.717 Y111.529 I0 J1
G1 X54.729 Y111.566
X54.728 Y111.606
X54.714 Y111.642
X54.688 Y111.672
X54.653 Y111.691
X54.124 Y111.878
X53.861 Y111.946
X53.823 Y111.949
X53.786 Y111.938
X53.754 Y111.916
X53.732 Y111.885
X53.721 Y111.848
X53.723 Y111.81
X53.738 Y111.774
X53.763 Y111.745
X53.797 Y111.726
X53.835 Y111.72
Z-4.714 F50
G3 X53.835 Y112.28 I0 J0.28 F150
G1 X27.835
G3 X27.835 Y111.72 I0 J-0.28
G1 X53.835
G2 X54.249 Y111.502 I0 J-0.503
G3 X54.717 Y111.529 I0.226 J0.156
X53.835 Y113 I-0.882 J0.471
G1 X27.835
G3 X27.835 Y111 I0 J-1
G1 X53.835
G3 X54.717 Y111.529 I0 J1
G1 X54.729 Y111.566
X54.728 Y111.606
X54.714 Y111.642
X54.688 Y111.672
X54.653 Y111.691
X54.124 Y111.878
X53.861 Y111.946
X53.823 Y111.949
X53.786 Y111.938
X53.754 Y111.916
X53.732 Y111.885
X53.721 Y111.848
X53.723 Y111.81
X53.738 Y111.774
X53.763 Y111.745
X53.797 Y111.726
X53.835 Y111.72
Z-5.657 F50
G3 X53.835 Y112.28 I0 J0.28 F150
G1 X27.835
G3 X27.835 Y111.72 I0 J-0.28
G1 X53.835
G2 X54.249 Y111.502 I0 J-0.503
G3 X54.717 Y111.529 I0.226 J0.156
X53.835 Y113 I-0.882 J0.471
G1 X27.835
G3 X27.835 Y111 I0 J-1
G1 X53.835
G3 X54.717 Y111.529 I0 J1
G1 X54.729 Y111.566
X54.728 Y111.606
X54.714 Y111.642
X54.688 Y111.672
X54.653 Y111.691
X54.124 Y111.878
X53.861 Y111.946
X53.823 Y111.949
X53.786 Y111.938
X53.754 Y111.916
X53.732 Y111.885
X53.721 Y111.848
X53.723 Y111.81
X53.738 Y111.774
X53.763 Y111.745
X53.797 Y111.726
X53.835 Y111.72
Z-6.6 F50
G3 X53.835 Y112.28 I0 J0.28 F150
G1 X27.835
G3 X27.835 Y111.72 I0 J-0.28
G1 X53.835
G2 X54.249 Y111.502 I0 J-0.503
G3 X54.717 Y111.529 I0.226 J0.156
X53.835 Y113 I-0.882 J0.471
G1 X27.835
G3 X27.835 Y111 I0 J-1
G1 X53.835
G3 X54.717 Y111.529 I0 J1
G0 Z5
X27.835 Y91.72
G1 Z2.5 F50
Z-0.943
X53.835 F150
G3 X53.835 Y92.28 I0 J0.28
G1 X27.835
G3 X27.835 Y91.72 I0 J-0.28
G2 X28.375 Y91.36 I0 J-0.585
G3 X28.915 Y91 I0.54 J0.225
G1 X53.835
G3 X53.835 Y93 I0 J1
G1 X27.835
G3 X27.835 Y91 I0 J-1
G1 X28.915
G3 X29.023 Y91.475 I0 J0.25
G1 X28.243 Y91.852
X28.21 Y91.865
X28.175 Y91.873
X28.042 Y91.895
X27.822 Y91.859
X27.795 Y91.848
X27.775 Y91.826
X27.765 Y91.798
X27.768 Y91.769
X27.782 Y91.744
X27.806 Y91.726
X27.835 Y91.72
Z-1.886 F50
X53.835 F150
G3 X53.835 Y92.28 I0 J0.28
G1 X27.835
G3 X27.835 Y91.72 I0 J-0.28
G2 X28.375 Y91.36 I0 J-0.585
G3 X28.915 Y91 I0.54 J0.225
G1 X53.835
G3 X53.835 Y93 I0 J1
G1 X27.835
G3 X27.835 Y91 I0 J-1
G1 X28.915
G3 X29.023 Y91.475 I0 J0.25
G1 X28.243 Y91.852
X28.21 Y91.865
X28.175 Y91.873
X28.042 Y91.895
X27.822 Y91.859
X27.795 Y91.848
X27.775 Y91.826
X27.765 Y91.798
X27.768 Y91.769
X27.782 Y91.744
X27.806 Y91.726
X27.835 Y91.72
Z-2.829 F50
X53.835 F150
G3 X53.835 Y92.28 I0 J0.28
G1 X27.835
G3 X27.835 Y91.72 I0 J-0.28
G2 X28.375 Y91.36 I0 J-0.585
G3 X28.915 Y91 I0.54 J0.225
G1 X53.835
G3 X53.835 Y93 I0 J1
G1 X27.835
G3 X27.835 Y91 I0 J-1
G1 X28.915
G3 X29.023 Y91.475 I0 J0.25
G1 X28.243 Y91.852
X28.21 Y91.865
X28.175 Y91.873
X28.042 Y91.895
X27.822 Y91.859
X27.795 Y91.848
X27.775 Y91.826
X27.765 Y91.798
X27.768 Y91.769
X27.782 Y91.744
X27.806 Y91.726
X27.835 Y91.72
Z-3.771 F50
X53.835 F150
G3 X53.835 Y92.28 I0 J0.28
G1 X27.835
G3 X27.835 Y91.72 I0 J-0.28
G2 X28.375 Y91.36 I0 J-0.585
G3 X28.915 Y91 I0.54 J0.225
G1 X53.835
G3 X53.835 Y93 I0 J1
G1 X27.835
G3 X27.835 Y91 I0 J-1
G1 X28.915
G3 X29.023 Y91.475 I0 J0.25
G1 X28.243 Y91.852
X28.21 Y91.865
X28.175 Y91.873
X28.042 Y91.895
X27.822 Y91.859
X27.795 Y91.848
X27.775 Y91.826
X27.765 Y91.798
X27.768 Y91.769
X27.782 Y91.744
X27.806 Y91.726
X27.835 Y91.72
Z-4.714 F50
X53.835 F150
G3 X53.835 Y92.28 I0 J0.28
G1 X27.835
G3 X27.835 Y91.72 I0 J-0.28
G2 X28.375 Y91.36 I0 J-0.585
G3 X28.915 Y91 I0.54 J0.225
G1 X53.835
G3 X53.835 Y93 I0 J1
G1 X27.835
G3 X27.835 Y91 I0 J-1
G1 X28.915
G3 X29.023 Y91.475 I0 J0.25
G1 X28.243 Y91.852
X28.21 Y91.865
X28.175 Y91.873
X28.042 Y91.895
X27.822 Y91.859
X27.795 Y91.848
X27.775 Y91.826
X27.765 Y91.798
X27.768 Y91.769
X27.782 Y91.744
X27.806 Y91.726
X27.835 Y91.72
Z-5.657 F50
X53.835 F150
G3 X53.835 Y92.28 I0 J0.28
G1 X27.835
G3 X27.835 Y91.72 I0 J-0.28
G2 X28.375 Y91.36 I0 J-0.585
G3 X28.915 Y91 I0.54 J0.225
G1 X53.835
G3 X53.835 Y93 I0 J1
G1 X27.835
G3 X27.835 Y91 I0 J-1
G1 X28.915
G3 X29.023 Y91.475 I0 J0.25
G1 X28.243 Y91.852
X28.21 Y91.865
X28.175 Y91.873
X28.042 Y91.895
X27.822 Y91.859
X27.795 Y91.848
X27.775 Y91.826
X27.765 Y91.798
X27.768 Y91.769
X27.782 Y91.744
X27.806 Y91.726
X27.835 Y91.72
Z-6.6 F50
X53.835 F150
G3 X53.835 Y92.28 I0 J0.28
G1 X27.835
G3 X27.835 Y91.72 I0 J-0.28
G2 X28.375 Y91.36 I0 J-0.585
G3 X28.915 Y91 I0.54 J0.225
G1 X53.835
G3 X53.835 Y93 I0 J1
G1 X27.835
G3 X27.835 Y91 I0 J-1
G1 X28.915
G0 Z5
X53.835 Y71.72
G1 Z2.5 F50
Z-0.943
G3 X53.835 Y72.28 I0 J0.28 F150
G1 X27.835
G3 X27.835 Y71.72 I0 J-0.28
G1 X53.835
G2 X54.249 Y71.502 I0 J-0.503
G3 X54.717 Y71.529 I0.226 J0.156
X53.835 Y73 I-0.882 J0.471
G1 X27.835
G3 X27.835 Y71 I0 J-1
G1 X53.835
G3 X54.717 Y71.529 I0 J1
G1 X54.729 Y71.566
X54.728 Y71.606
X54.714 Y71.642
X54.688 Y71.672
X54.653 Y71.691
X54.124 Y71.878
X53.861 Y71.946
X53.823 Y71.949
X53.786 Y71.938
X53.754 Y71.916
X53.732 Y71.885
X53.721 Y71.848
X53.723 Y71.81
X53.738 Y71.774
X53.763 Y71.745
X53.797 Y71.726
X53.835 Y71.72
Z-1.886 F50
G3 X53.835 Y72.28 I0 J0.28 F150
G1 X27.835
G3 X27.835 Y71.72 I0 J-0.28
G1 X53.835
G2 X54.249 Y71.502 I0 J-0.503
G3 X54.717 Y71.529 I0.226 J0.156
X53.835 Y73 I-0.882 J0.471
G1 X27.835
G3 X27.835 Y71 I0 J-1
G1 X53.835
G3 X54.717 Y71.529 I0 J1
G1 X54.729 Y71.566
X54.728 Y71.606
X54.714 Y71.642
X54.688 Y71.672
X54.653 Y71.691
X54.124 Y71.878
X53.861 Y71.946
X53.823 Y71.949
X53.786 Y71.938
X53.754 Y71.916
X53.732 Y71.885
X53.721 Y71.848
X53.723 Y71.81
X53.738 Y71.774
X53.763 Y71.745
X53.797 Y71.726
X53.835 Y71.72
Z-2.829 F50
G3 X53.835 Y72.28 I0 J0.28 F150
G1 X27.835
G3 X27.835 Y71.72 I0 J-0.28
G1 X53.835
G2 X54.249 Y71.502 I0 J-0.503
G3 X54.717 Y71.529 I0.226 J0.156
X53.835 Y73 I-0.882 J0.471
G1 X27.835
G3 X27.835 Y71 I0 J-1
G1 X53.835
G3 X54.717 Y71.529 I0 J1
G1 X54.729 Y71.566
X54.728 Y71.606
X54.714 Y71.642
X54.688 Y71.672
X54.653 Y71.691
X54.124 Y71.878
X53.861 Y71.946
X53.823 Y71.949
X53.786 Y71.938
X53.754 Y71.916
X53.732 Y71.885
X53.721 Y71.848
X53.723 Y71.81
X53.738 Y71.774
X53.763 Y71.745
X53.797 Y71.726
X53.835 Y71.72
Z-3.771 F50
G3 X53.835 Y72.28 I0 J0.28 F150
G1 X27.835
G3 X27.835 Y71.72 I0 J-0.28
G1 X53.835
G2 X54.249 Y71.502 I0 J-0.503
G3 X54.717 Y71.529 I0.226 J0.156
X53.835 Y73 I-0.882 J0.471
G1 X27.835
G3 X27.835 Y71 I0 J-1
G1 X53.835
G3 X54.717 Y71.529 I0 J1
G1 X54.729 Y71.566
X54.728 Y71.606
X54.714 Y71.642
X54.688 Y71.672
X54.653 Y71.691
X54.124 Y71.878
X53.861 Y71.946
X53.823 Y71.949
X53.786 Y71.938
X53.754 Y71.916
X53.732 Y71.885
X53.721 Y71.848
X53.723 Y71.81
X53.738 Y71.774
X53.763 Y71.745
X53.797 Y71.726
X53.835 Y71.72
Z-4.714 F50
G3 X53.835 Y72.28 I0 J0.28 F150
G1 X27.835
G3 X27.835 Y71.72 I0 J-0.28
G1 X53.835
G2 X54.249 Y71.502 I0 J-0.503
G3 X54.717 Y71.529 I0.226 J0.156
X53.835 Y73 I-0.882 J0.471
G1 X27.835
G3 X27.835 Y71 I0 J-1
G1 X53.835
G3 X54.717 Y71.529 I0 J1
G1 X54.729 Y71.566
X54.728 Y71.606
X54.714 Y71.642
X54.688 Y71.672
X54.653 Y71.691
X54.124 Y71.878
X53.861 Y71.946
X53.823 Y71.949
X53.786 Y71.938
X53.754 Y71.916
X53.732 Y71.885
X53.721 Y71.848
X53.723 Y71.81
X53.738 Y71.774
X53.763 Y71.745
X53.797 Y71.726
X53.835 Y71.72
Z-5.657 F50
G3 X53.835 Y72.28 I0 J0.28 F150
G1 X27.835
G3 X27.835 Y71.72 I0 J-0.28
G1 X53.835
G2 X54.249 Y71.502 I0 J-0.503
G3 X54.717 Y71.529 I0.226 J0.156
X53.835 Y73 I-0.882 J0.471
G1 X27.835
G3 X27.835 Y71 I0 J-1
G1 X53.835
G3 X54.717 Y71.529 I0 J1
G1 X54.729 Y71.566
X54.728 Y71.606
X54.714 Y71.642
X54.688 Y71.672
X54.653 Y71.691
X54.124 Y71.878
X53.861 Y71.946
X53.823 Y71.949
X53.786 Y71.938
X53.754 Y71.916
X53.732 Y71.885
X53.721 Y71.848
X53.723 Y71.81
X53.738 Y71.774
X53.763 Y71.745
X53.797 Y71.726
X53.835 Y71.72
Z-6.6 F50
G3 X53.835 Y72.28 I0 J0.28 F150
G1 X27.835
G3 X27.835 Y71.72 I0 J-0.28
G1 X53.835
G2 X54.249 Y71.502 I0 J-0.503
G3 X54.717 Y71.529 I0.226 J0.156
X53.835 Y73 I-0.882 J0.471
G1 X27.835
G3 X27.835 Y71 I0 J-1
G1 X53.835
G3 X54.717 Y71.529 I0 J1
G0 Z5
X53.835 Y51.72
G1 Z2.5 F50
Z-0.943
G3 X53.835 Y52.28 I0 J0.28 F150
G1 X27.835
G3 X27.835 Y51.72 I0 J-0.28
G1 X53.835
G2 X54.249 Y51.502 I0 J-0.503
G3 X54.717 Y51.529 I0.226 J0.156
X53.835 Y53 I-0.882 J0.471
G1 X27.835
G3 X27.835 Y51 I0 J-1
G1 X53.835
G3 X54.717 Y51.529 I0 J1
G1 X54.729 Y51.566
X54.728 Y51.606
X54.714 Y51.642
X54.688 Y51.672
X54.653 Y51.691
X54.124 Y51.878
X53.861 Y51.946
X53.823 Y51.949
X53.786 Y51.938
X53.754 Y51.916
X53.732 Y51.885
X53.721 Y51.848
X53.723 Y51.81
X53.738 Y51.774
X53.763 Y51.745
X53.797 Y51.726
X53.835 Y51.72
Z-1.886 F50
G3 X53.835 Y52.28 I0 J0.28 F150
G1 X27.835
G3 X27.835 Y51.72 I0 J-0.28
G1 X53.835
G2 X54.249 Y51.502 I0 J-0.503
G3 X54.717 Y51.529 I0.226 J0.156
X53.835 Y53 I-0.882 J0.471
G1 X27.835
G3 X27.835 Y51 I0 J-1
G1 X53.835
G3 X54.717 Y51.529 I0 J1
G1 X54.729 Y51.566
X54.728 Y51.606
X54.714 Y51.642
X54.688 Y51.672
X54.653 Y51.691
X54.124 Y51.878
X53.861 Y51.946
X53.823 Y51.949
X53.786 Y51.938
X53.754 Y51.916
X53.732 Y51.885
X53.721 Y51.848
X53.723 Y51.81
X53.738 Y51.774
X53.763 Y51.745
X53.797 Y51.726
X53.835 Y51.72
Z-2.829 F50
G3 X53.835 Y52.28 I0 J0.28 F150
G1 X27.835
G3 X27.835 Y51.72 I0 J-0.28
G1 X53.835
G2 X54.249 Y51.502 I0 J-0.503
G3 X54.717 Y51.529 I0.226 J0.156
X53.835 Y53 I-0.882 J0.471
G1 X27.835
G3 X27.835 Y51 I0 J-1
G1 X53.835
G3 X54.717 Y51.529 I0 J1
G1 X54.729 Y51.566
X54.728 Y51.606
X54.714 Y51.642
X54.688 Y51.672
X54.653 Y51.691
X54.124 Y51.878
X53.861 Y51.946
X53.823 Y51.949
X53.786 Y51.938
X53.754 Y51.916
X53.732 Y51.885
X53.721 Y51.848
X53.723 Y51.81
X53.738 Y51.774
X53.763 Y51.745
X53.797 Y51.726
X53.835 Y51.72
Z-3.771 F50
G3 X53.835 Y52.28 I0 J0.28 F150
G1 X27.835
G3 X27.835 Y51.72 I0 J-0.28
G1 X53.835
G2 X54.249 Y51.502 I0 J-0.503
G3 X54.717 Y51.529 I0.226 J0.156
X53.835 Y53 I-0.882 J0.471
G1 X27.835
G3 X27.835 Y51 I0 J-1
G1 X53.835
G3 X54.717 Y51.529 I0 J1
G1 X54.729 Y51.566
X54.728 Y51.606
X54.714 Y51.642
X54.688 Y51.672
X54.653 Y51.691
X54.124 Y51.878
X53.861 Y51.946
X53.823 Y51.949
X53.786 Y51.938
X53.754 Y51.916
X53.732 Y51.885
X53.721 Y51.848
X53.723 Y51.81
X53.738 Y51.774
X53.763 Y51.745
X53.797 Y51.726
X53.835 Y51.72
Z-4.714 F50
G3 X53.835 Y52.28 I0 J0.28 F150
G1 X27.835
G3 X27.835 Y51.72 I0 J-0.28
G1 X53.835
G2 X54.249 Y51.502 I0 J-0.503
G3 X54.717 Y51.529 I0.226 J0.156
X53.835 Y53 I-0.882 J0.471
G1 X27.835
G3 X27.835 Y51 I0 J-1
G1 X53.835
G3 X54.717 Y51.529 I0 J1
G1 X54.729 Y51.566
X54.728 Y51.606
X54.714 Y51.642
X54.688 Y51.672
X54.653 Y51.691
X54.124 Y51.878
X53.861 Y51.946
X53.823 Y51.949
X53.786 Y51.938
X53.754 Y51.916
X53.732 Y51.885
X53.721 Y51.848
X53.723 Y51.81
X53.738 Y51.774
X53.763 Y51.745
X53.797 Y51.726
X53.835 Y51.72
Z-5.657 F50
G3 X53.835 Y52.28 I0 J0.28 F150
G1 X27.835
G3 X27.835 Y51.72 I0 J-0.28
G1 X53.835
G2 X54.249 Y51.502 I0 J-0.503
G3 X54.717 Y51.529 I0.226 J0.156
X53.835 Y53 I-0.882 J0.471
G1 X27.835
G3 X27.835 Y51 I0 J-1
G1 X53.835
G3 X54.717 Y51.529 I0 J1
G1 X54.729 Y51.566
X54.728 Y51.606
X54.714 Y51.642
X54.688 Y51.672
X54.653 Y51.691
X54.124 Y51.878
X53.861 Y51.946
X53.823 Y51.949
X53.786 Y51.938
X53.754 Y51.916
X53.732 Y51.885
X53.721 Y51.848
X53.723 Y51.81
X53.738 Y51.774
X53.763 Y51.745
X53.797 Y51.726
X53.835 Y51.72
Z-6.6 F50
G3 X53.835 Y52.28 I0 J0.28 F150
G1 X27.835
G3 X27.835 Y51.72 I0 J-0.28
G1 X53.835
G2 X54.249 Y51.502 I0 J-0.503
G3 X54.717 Y51.529 I0.226 J0.156
X53.835 Y53 I-0.882 J0.471
G1 X27.835
G3 X27.835 Y51 I0 J-1
G1 X53.835
G3 X54.717 Y51.529 I0 J1
G0 Z5
X53.835 Y32.28
G1 Z2.5 F50
Z-0.943
X27.835 F150
G3 X27.835 Y31.72 I0 J-0.28
G1 X53.835
G3 X53.835 Y32.28 I0 J0.28
G2 X53.295 Y32.64 I0 J0.585
G3 X52.755 Y33 I-0.54 J-0.225
G1 X27.835
G3 X27.835 Y31 I0 J-1
G1 X53.835
G3 X53.835 Y33 I0 J1
G1 X52.755
G3 X52.646 Y32.525 I0 J-0.25
G1 X53.427 Y32.148
X53.46 Y32.135
X53.495 Y32.127
X53.628 Y32.105
X53.848 Y32.141
X53.875 Y32.152
X53.895 Y32.174
X53.904 Y32.202
X53.902 Y32.231
X53.887 Y32.256
X53.864 Y32.274
X53.835 Y32.28
Z-1.886 F50
X27.835 F150
G3 X27.835 Y31.72 I0 J-0.28
G1 X53.835
G3 X53.835 Y32.28 I0 J0.28
G2 X53.295 Y32.64 I0 J0.585
G3 X52.755 Y33 I-0.54 J-0.225
G1 X27.835
G3 X27.835 Y31 I0 J-1
G1 X53.835
G3 X53.835 Y33 I0 J1
G1 X52.755
G3 X52.646 Y32.525 I0 J-0.25
G1 X53.427 Y32.148
X53.46 Y32.135
X53.495 Y32.127
X53.628 Y32.105
X53.848 Y32.141
X53.875 Y32.152
X53.895 Y32.174
X53.904 Y32.202
X53.902 Y32.231
X53.887 Y32.256
X53.864 Y32.274
X53.835 Y32.28
Z-2.829 F50
X27.835 F150
G3 X27.835 Y31.72 I0 J-0.28
G1 X53.835
G3 X53.835 Y32.28 I0 J0.28
G2 X53.295 Y32.64 I0 J0.585
G3 X52.755 Y33 I-0.54 J-0.225
G1 X27.835
G3 X27.835 Y31 I0 J-1
G1 X53.835
G3 X53.835 Y33 I0 J1
G1 X52.755
G3 X52.646 Y32.525 I0 J-0.25
G1 X53.427 Y32.148
X53.46 Y32.135
X53.495 Y32.127
X53.628 Y32.105
X53.848 Y32.141
X53.875 Y32.152
X53.895 Y32.174
X53.904 Y32.202
X53.902 Y32.231
X53.887 Y32.256
X53.864 Y32.274
X53.835 Y32.28
Z-3.771 F50
X27.835 F150
G3 X27.835 Y31.72 I0 J-0.28
G1 X53.835
G3 X53.835 Y32.28 I0 J0.28
G2 X53.295 Y32.64 I0 J0.585
G3 X52.755 Y33 I-0.54 J-0.225
G1 X27.835
G3 X27.835 Y31 I0 J-1
G1 X53.835
G3 X53.835 Y33 I0 J1
G1 X52.755
G3 X52.646 Y32.525 I0 J-0.25
G1 X53.427 Y32.148
X53.46 Y32.135
X53.495 Y32.127
X53.628 Y32.105
X53.848 Y32.141
X53.875 Y32.152
X53.895 Y32.174
X53.904 Y32.202
X53.902 Y32.231
X53.887 Y32.256
X53.864 Y32.274
X53.835 Y32.28
Z-4.714 F50
X27.835 F150
G3 X27.835 Y31.72 I0 J-0.28
G1 X53.835
G3 X53.835 Y32.28 I0 J0.28
G2 X53.295 Y32.64 I0 J0.585
G3 X52.755 Y33 I-0.54 J-0.225
G1 X27.835
G3 X27.835 Y31 I0 J-1
G1 X53.835
G3 X53.835 Y33 I0 J1
G1 X52.755
G3 X52.646 Y32.525 I0 J-0.25
G1 X53.427 Y32.148
X53.46 Y32.135
X53.495 Y32.127
X53.628 Y32.105
X53.848 Y32.141
X53.875 Y32.152
X53.895 Y32.174
X53.904 Y32.202
X53.902 Y32.231
X53.887 Y32.256
X53.864 Y32.274
X53.835 Y32.28
Z-5.657 F50
X27.835 F150
G3 X27.835 Y31.72 I0 J-0.28
G1 X53.835
G3 X53.835 Y32.28 I0 J0.28
G2 X53.295 Y32.64 I0 J0.585
G3 X52.755 Y33 I-0.54 J-0.225
G1 X27.835
G3 X27.835 Y31 I0 J-1
G1 X53.835
G3 X53.835 Y33 I0 J1
G1 X52.755
G3 X52.646 Y32.525 I0 J-0.25
G1 X53.427 Y32.148
X53.46 Y32.135
X53.495 Y32.127
X53.628 Y32.105
X53.848 Y32.141
X53.875 Y32.152
X53.895 Y32.174
X53.904 Y32.202
X53.902 Y32.231
X53.887 Y32.256
X53.864 Y32.274
X53.835 Y32.28
Z-6.6 F50
X27.835 F150
G3 X27.835 Y31.72 I0 J-0.28
G1 X53.835
G3 X53.835 Y32.28 I0 J0.28
G2 X53.295 Y32.64 I0 J0.585
G3 X52.755 Y33 I-0.54 J-0.225
G1 X27.835
G3 X27.835 Y31 I0 J-1
G1 X53.835
G3 X53.835 Y33 I0 J1
G1 X52.755
G0 Z5
X67.435 Y5
G1 Z2.5 F50
Z-0.943
G3 X66.235 Y5 I-0.6 J0 F150
X67.435 Y5 I0.6 J0
G1 Z-1.886 F50
G3 X66.235 Y5 I-0.6 J0 F150
X67.435 Y5 I0.6 J0
G1 Z-2.829 F50
G3 X66.235 Y5 I-0.6 J0 F150
X67.435 Y5 I0.6 J0
G1 Z-3.771 F50
G3 X66.235 Y5 I-0.6 J0 F150
X67.435 Y5 I0.6 J0
G1 Z-4.714 F50
G3 X66.235 Y5 I-0.6 J0 F150
X67.435 Y5 I0.6 J0
G1 Z-5.657 F50
G3 X66.235 Y5 I-0.6 J0 F150
X67.435 Y5 I0.6 J0
G1 Z-6.6 F50
G3 X66.235 Y5 I-0.6 J0 F150
X67.435 Y5 I0.6 J0
G0 Z5
X106.326
G1 Z2.5 F50
Z-0.943
G3 X105.126 Y5 I-0.6 J0 F150
X106.326 Y5 I0.6 J0
G1 Z-1.886 F50
G3 X105.126 Y5 I-0.6 J0 F150
X106.326 Y5 I0.6 J0
G1 Z-2.829 F50
G3 X105.126 Y5 I-0.6 J0 F150
X106.326 Y5 I0.6 J0
G1 Z-3.771 F50
G3 X105.126 Y5 I-0.6 J0 F150
X106.326 Y5 I0.6 J0
G1 Z-4.714 F50
G3 X105.126 Y5 I-0.6 J0 F150
X106.326 Y5 I0.6 J0
G1 Z-5.657 F50
G3 X105.126 Y5 I-0.6 J0 F150
X106.326 Y5 I0.6 J0
G1 Z-6.6 F50
G3 X105.126 Y5 I-0.6 J0 F150
X106.326 Y5 I0.6 J0
G0 Z5
X74.235 Y67
G1 Z2.5 F50
Z-0.943
X74.242 Y66.975 F150
X74.26 Y66.957
X74.285 Y66.95
X74.31 Y66.957
X74.328 Y66.975
X74.335 Y67
G3 X72.335 Y67 I-1 J0
X74.335 Y67 I1 J0
G1 X74.328 Y67.018
X74.31 Y67.025
X74.292 Y67.018
X74.285 Y67
X74.278 Y66.982
X74.26 Y66.975
X74.242 Y66.982
X74.235 Y67
Z-1.886 F50
X74.242 Y66.975 F150
X74.26 Y66.957
X74.285 Y66.95
X74.31 Y66.957
X74.328 Y66.975
X74.335 Y67
G3 X72.335 Y67 I-1 J0
X74.335 Y67 I1 J0
G1 X74.328 Y67.018
X74.31 Y67.025
X74.292 Y67.018
X74.285 Y67
X74.278 Y66.982
X74.26 Y66.975
X74.242 Y66.982
X74.235 Y67
Z-2.829 F50
X74.242 Y66.975 F150
X74.26 Y66.957
X74.285 Y66.95
X74.31 Y66.957
X74.328 Y66.975
X74.335 Y67
G3 X72.335 Y67 I-1 J0
X74.335 Y67 I1 J0
G1 X74.328 Y67.018
X74.31 Y67.025
X74.292 Y67.018
X74.285 Y67
X74.278 Y66.982
X74.26 Y66.975
X74.242 Y66.982
X74.235 Y67
Z-3.771 F50
X74.242 Y66.975 F150
X74.26 Y66.957
X74.285 Y66.95
X74.31 Y66.957
X74.328 Y66.975
X74.335 Y67
G3 X72.335 Y67 I-1 J0
X74.335 Y67 I1 J0
G1 X74.328 Y67.018
X74.31 Y67.025
X74.292 Y67.018
X74.285 Y67
X74.278 Y66.982
X74.26 Y66.975
X74.242 Y66.982
X74.235 Y67
Z-4.714 F50
X74.242 Y66.975 F150
X74.26 Y66.957
X74.285 Y66.95
X74.31 Y66.957
X74.328 Y66.975
X74.335 Y67
G3 X72.335 Y67 I-1 J0
X74.335 Y67 I1 J0
G1 X74.328 Y67.018
X74.31 Y67.025
X74.292 Y67.018
X74.285 Y67
X74.278 Y66.982
X74.26 Y66.975
X74.242 Y66.982
X74.235 Y67
Z-5.657 F50
X74.242 Y66.975 F150
X74.26 Y66.957
X74.285 Y66.95
X74.31 Y66.957
X74.328 Y66.975
X74.335 Y67
G3 X72.335 Y67 I-1 J0
X74.335 Y67 I1 J0
G1 X74.328 Y67.018
X74.31 Y67.025
X74.292 Y67.018
X74.285 Y67
X74.278 Y66.982
X74.26 Y66.975
X74.242 Y66.982
X74.235 Y67
Z-6.6 F50
X74.242 Y66.975 F150
X74.26 Y66.957
X74.285 Y66.95
X74.31 Y66.957
X74.328 Y66.975
X74.335 Y67
G3 X72.335 Y67 I-1 J0
X74.335 Y67 I1 J0
G0 Z5
X10.835 Y5.6
G1 Z2.5 F50
Z-0.943
G3 X10.835 Y4.4 I0 J-0.6 F150
X10.835 Y5.6 I0 J0.6
G1 Z-1.886 F50
G3 X10.835 Y4.4 I0 J-0.6 F150
X10.835 Y5.6 I0 J0.6
G1 Z-2.829 F50
G3 X10.835 Y4.4 I0 J-0.6 F150
X10.835 Y5.6 I0 J0.6
G1 Z-3.771 F50
G3 X10.835 Y4.4 I0 J-0.6 F150
X10.835 Y5.6 I0 J0.6
G1 Z-4.714 F50
G3 X10.835 Y4.4 I0 J-0.6 F150
X10.835 Y5.6 I0 J0.6
G1 Z-5.657 F50
G3 X10.835 Y4.4 I0 J-0.6 F150
X10.835 Y5.6 I0 J0.6
G1 Z-6.6 F50
G3 X10.835 Y4.4 I0 J-0.6 F150
X10.835 Y5.6 I0 J0.6
G0 Z15
M9
M5
M30
