; generated by PrusaSlicer 2.3.1+win64 on 2023-07-22 at 14:19:54 UTC

; 

; external perimeters extrusion width = 0.60mm
; perimeters extrusion width = 0.50mm
; infill extrusion width = 0.50mm
; solid infill extrusion width = 0.50mm
; top infill extrusion width = 0.45mm
; first layer extrusion width = 0.42mm

M73 P0 R76
M73 Q0 S77
M201 X1000 Y1000 Z200 E5000 ; sets maximum accelerations, mm/sec^2
M203 X200 Y200 Z12 E120 ; sets maximum feedrates, mm/sec
M204 P1250 R1250 T1250 ; sets acceleration (P, T) and retract acceleration (R), mm/sec^2
M205 X8.00 Y8.00 Z0.40 E4.50 ; sets the jerk limits, mm/sec
M205 S0 T0 ; sets the minimum extruding and travel feed rate, mm/sec
M107
;TYPE:Custom
M862.3 P "MK3S" ; printer model check
M862.1 P0.4 ; nozzle diameter check
M115 U3.9.3 ; tell printer latest fw version
G90 ; use absolute coordinates
M83 ; extruder relative mode
M104 S215 ; set extruder temp
M140 S67 ; set bed temp
M190 S67 ; wait for bed temp
M109 S215 ; wait for extruder temp
G28 W ; home all without mesh bed level
G80 ; mesh bed leveling
G1 Y-3.0 F1000.0 ; go outside print area
G92 E0.0
G1 X60.0 E9.0 F1000.0 ; intro line
G1 X100.0 E12.5 F1000.0 ; intro line
G92 E0.0
M221 S95

; Don't change E values below. Excessive value can damage the printer.

M907 E538 ; set extruder motor current
G21 ; set units to millimeters
G90 ; use absolute coordinates
M83 ; use relative distances for extrusion
M900 K0.05 ; Filament gcode LA 1.5
M900 K30 ; Filament gcode LA 1.0
;LAYER_CHANGE
;Z:0.2
;HEIGHT:0.2
;BEFORE_LAYER_CHANGE
G92 E0.0
;0.2


G1 E-0.80000 F2100.000
G1 Z0.400 F10800.000
;AFTER_LAYER_CHANGE
;0.2
; printing object drag_support_bracket.stl id:0 copy 0
G1 X108.195 Y61.519
G1 Z0.200
G1 E0.80000 F2100.000
M204 S1000
;TYPE:Perimeter
;WIDTH:0.42
G1 F1200.000
G1 X138.385 Y61.519 E0.94659
M73 Q0 S76
G1 X169.112 Y72.561 E1.02376
G1 X169.112 Y81.436 E0.27827
G1 X140.195 Y81.436 E0.90669
G1 X140.195 Y69.936 E0.36057
G1 X108.195 Y69.936 E1.00334
G1 X108.195 Y61.579 E0.26204
;WIPE_START
G1 F8640.000
G1 X111.486 Y61.572 E-0.76000
;WIPE_END
G1 E-0.04000 F2100.000
G1 Z0.600 F10800.000
G1 X139.818 Y70.313
G1 Z0.200
G1 E0.80000 F2100.000
G1 F1200.000
G1 X107.818 Y70.313 E1.00334
G1 X107.818 Y61.142 E0.28757
G1 X138.451 Y61.142 E0.96048
G1 X169.489 Y72.296 E1.03413
G1 X169.489 Y81.813 E0.29840
G1 X139.818 Y81.813 E0.93033
G1 X139.818 Y70.373 E0.35869
G1 X139.441 Y70.690 F10800.000
G1 F1200.000
G1 X107.441 Y70.690 E1.00334
G1 X107.441 Y60.765 E0.31122
G1 X138.516 Y60.765 E0.97436
G1 X169.866 Y72.031 E1.04451
G1 X169.866 Y82.190 E0.31854
G1 X139.441 Y82.190 E0.95398
G1 X139.441 Y70.750 E0.35869
G1 X139.063 Y71.068 F10800.000
;TYPE:External perimeter
G1 F1200.000
G1 X107.063 Y71.068 E1.00334
G1 X107.063 Y60.388 E0.33486
G1 X138.582 Y60.388 E0.98824
G1 X170.243 Y71.766 E1.05488
G1 X170.243 Y82.568 E0.33868
G1 X139.063 Y82.568 E0.97763
G1 X139.063 Y71.128 E0.35869
G1 X138.906 Y70.700 F10800.000
;WIPE_START
G1 F8640.000
G1 X135.772 Y71.121 E-0.76000
;WIPE_END
G1 E-0.04000 F2100.000
G1 Z0.600 F10800.000
G1 X168.999 Y73.414
G1 Z0.200
G1 E0.80000 F2100.000
;TYPE:Solid infill
;WIDTH:0.422291
G1 F1200.000
G1 X168.074 Y72.489 E0.04125
G1 X167.237 Y72.188 E0.02807
G1 X168.829 Y73.780 E0.07105
G1 X168.829 Y74.317 E0.01692
G1 X166.399 Y71.887 E0.10841
G1 X165.562 Y71.586 E0.02807
G1 X168.829 Y74.854 E0.14577
G1 X168.829 Y75.390 E0.01692
G1 X164.724 Y71.285 E0.18313
G1 X163.887 Y70.984 E0.02807
G1 X168.829 Y75.927 E0.22049
G1 X168.829 Y76.463 E0.01692
G1 X163.049 Y70.683 E0.25785
G1 X162.212 Y70.382 E0.02807
G1 X168.829 Y77.000 E0.29521
G1 X168.829 Y77.536 E0.01692
G1 X161.375 Y70.081 E0.33257
G1 X160.537 Y69.780 E0.02807
G1 X168.829 Y78.073 E0.36993
G1 X168.829 Y78.609 E0.01692
G1 X159.700 Y69.479 E0.40729
G1 X158.862 Y69.178 E0.02807
G1 X168.829 Y79.146 E0.44465
G1 X168.829 Y79.682 E0.01692
G1 X158.025 Y68.877 E0.48202
M73 Q1 S76
G1 X157.187 Y68.576 E0.02807
G1 X168.829 Y80.219 E0.51938
M73 P1 R76
G1 X168.829 Y80.755 E0.01692
G1 X156.350 Y68.275 E0.55674
G1 X155.512 Y67.974 E0.02807
G1 X168.691 Y81.154 E0.58794
M73 P1 R75
G1 X168.155 Y81.154 E0.01692
G1 X154.675 Y67.673 E0.60136
G1 X153.837 Y67.372 E0.02807
G1 X167.618 Y81.154 E0.61479
G1 X167.082 Y81.154 E0.01692
G1 X153.000 Y67.071 E0.62822
G1 X152.162 Y66.770 E0.02807
G1 X166.545 Y81.154 E0.64164
G1 X166.009 Y81.154 E0.01692
G1 X151.325 Y66.470 E0.65507
G1 X150.487 Y66.169 E0.02807
G1 X165.472 Y81.154 E0.66850
G1 X164.936 Y81.154 E0.01692
G1 X149.650 Y65.868 E0.68192
G1 X148.812 Y65.567 E0.02807
G1 X164.399 Y81.154 E0.69535
G1 X163.863 Y81.154 E0.01692
G1 X147.975 Y65.266 E0.70878
G1 X147.137 Y64.965 E0.02807
G1 X163.326 Y81.154 E0.72220
G1 X162.790 Y81.154 E0.01692
G1 X146.300 Y64.664 E0.73563
G1 X145.462 Y64.363 E0.02807
G1 X162.253 Y81.154 E0.74905
G1 X161.717 Y81.154 E0.01692
G1 X144.625 Y64.062 E0.76248
G1 X143.787 Y63.761 E0.02807
G1 X161.180 Y81.154 E0.77591
G1 X160.644 Y81.154 E0.01692
G1 X142.950 Y63.460 E0.78933
G1 X142.112 Y63.159 E0.02807
G1 X160.107 Y81.154 E0.80276
G1 X159.571 Y81.154 E0.01692
G1 X141.275 Y62.858 E0.81619
M73 Q1 S75
G1 X140.437 Y62.557 E0.02807
G1 X159.034 Y81.154 E0.82961
G1 X158.498 Y81.154 E0.01692
G1 X139.600 Y62.256 E0.84304
G1 X138.763 Y61.955 E0.02807
G1 X157.961 Y81.154 E0.85647
G1 X157.425 Y81.154 E0.01692
G1 X138.073 Y61.802 E0.86331
G1 X137.536 Y61.802 E0.01692
G1 X156.888 Y81.154 E0.86331
G1 X156.352 Y81.154 E0.01692
G1 X137.000 Y61.802 E0.86331
G1 X136.463 Y61.802 E0.01692
G1 X155.815 Y81.154 E0.86331
G1 X155.278 Y81.154 E0.01692
G1 X135.927 Y61.802 E0.86331
G1 X135.390 Y61.802 E0.01692
G1 X154.742 Y81.154 E0.86331
G1 X154.205 Y81.154 E0.01692
G1 X134.854 Y61.802 E0.86331
G1 X134.317 Y61.802 E0.01692
G1 X153.669 Y81.154 E0.86331
G1 X153.132 Y81.154 E0.01692
G1 X133.781 Y61.802 E0.86331
G1 X133.244 Y61.802 E0.01692
G1 X152.596 Y81.154 E0.86331
G1 X152.059 Y81.154 E0.01692
G1 X132.707 Y61.802 E0.86331
G1 X132.171 Y61.802 E0.01692
G1 X140.023 Y69.654 E0.35028
G1 X140.478 Y69.654 E0.01434
G1 X140.478 Y70.108 E0.01434
G1 X151.523 Y81.154 E0.49275
G1 X150.986 Y81.154 E0.01692
G1 X140.478 Y70.645 E0.46881
G1 X140.478 Y71.181 E0.01692
G1 X150.450 Y81.154 E0.44488
G1 X149.913 Y81.154 E0.01692
G1 X140.478 Y71.718 E0.42094
M73 P2 R75
G1 X140.478 Y72.254 E0.01692
M73 Q2 S75
G1 X149.377 Y81.154 E0.39701
G1 X148.840 Y81.154 E0.01692
G1 X140.478 Y72.791 E0.37308
G1 X140.478 Y73.327 E0.01692
G1 X148.304 Y81.154 E0.34914
G1 X147.767 Y81.154 E0.01692
G1 X140.478 Y73.864 E0.32521
G1 X140.478 Y74.400 E0.01692
G1 X147.231 Y81.154 E0.30127
G1 X146.694 Y81.154 E0.01692
G1 X140.478 Y74.937 E0.27734
G1 X140.478 Y75.473 E0.01692
G1 X146.158 Y81.154 E0.25340
G1 X145.621 Y81.154 E0.01692
G1 X140.478 Y76.010 E0.22947
G1 X140.478 Y76.546 E0.01692
G1 X145.085 Y81.154 E0.20554
G1 X144.548 Y81.154 E0.01692
G1 X140.478 Y77.083 E0.18160
G1 X140.478 Y77.619 E0.01692
G1 X144.012 Y81.154 E0.15767
G1 X143.475 Y81.154 E0.01692
G1 X140.478 Y78.156 E0.13373
G1 X140.478 Y78.692 E0.01692
G1 X142.939 Y81.154 E0.10980
G1 X142.402 Y81.154 E0.01692
G1 X140.478 Y79.229 E0.08586
G1 X140.478 Y79.765 E0.01692
G1 X141.866 Y81.154 E0.06193
G1 X141.329 Y81.154 E0.01692
G1 X140.478 Y80.302 E0.03799
G1 X140.478 Y80.838 E0.01692
G1 X140.962 Y81.323 E0.02163
;WIPE_START
G1 F8640.000
G1 X140.478 Y80.838 E-0.15833
G1 X140.478 Y80.302 E-0.12388
G1 X141.329 Y81.154 E-0.27811
G1 X141.866 Y81.154 E-0.12388
G1 X141.634 Y80.921 E-0.07580
;WIPE_END
G1 E-0.04000 F2100.000
G1 Z0.600 F10800.000
G1 X139.656 Y69.823
G1 Z0.200
G1 E0.80000 F2100.000
G1 F1200.000
G1 X131.634 Y61.802 E0.35785
G1 X131.098 Y61.802 E0.01692
G1 X138.950 Y69.654 E0.35028
G1 X138.413 Y69.654 E0.01692
G1 X130.561 Y61.802 E0.35028
G1 X130.025 Y61.802 E0.01692
G1 X137.877 Y69.654 E0.35028
G1 X137.340 Y69.654 E0.01692
G1 X129.488 Y61.802 E0.35028
G1 X128.952 Y61.802 E0.01692
G1 X136.804 Y69.654 E0.35028
G1 X136.267 Y69.654 E0.01692
G1 X128.415 Y61.802 E0.35028
G1 X127.879 Y61.802 E0.01692
G1 X135.731 Y69.654 E0.35028
G1 X135.194 Y69.654 E0.01692
G1 X127.342 Y61.802 E0.35028
G1 X126.806 Y61.802 E0.01692
G1 X134.658 Y69.654 E0.35028
G1 X134.121 Y69.654 E0.01692
G1 X126.269 Y61.802 E0.35028
G1 X125.733 Y61.802 E0.01692
G1 X133.585 Y69.654 E0.35028
G1 X133.048 Y69.654 E0.01692
G1 X125.196 Y61.802 E0.35028
G1 X124.660 Y61.802 E0.01692
G1 X132.512 Y69.654 E0.35028
G1 X131.975 Y69.654 E0.01692
G1 X124.123 Y61.802 E0.35028
G1 X123.587 Y61.802 E0.01692
G1 X131.439 Y69.654 E0.35028
G1 X130.902 Y69.654 E0.01692
G1 X123.050 Y61.802 E0.35028
M73 P2 R74
G1 X122.514 Y61.802 E0.01692
G1 X130.366 Y69.654 E0.35028
G1 X129.829 Y69.654 E0.01692
G1 X121.977 Y61.802 E0.35028
G1 X121.441 Y61.802 E0.01692
G1 X129.293 Y69.654 E0.35028
G1 X128.756 Y69.654 E0.01692
G1 X120.904 Y61.802 E0.35028
G1 X120.368 Y61.802 E0.01692
G1 X128.220 Y69.654 E0.35028
G1 X127.683 Y69.654 E0.01692
G1 X119.831 Y61.802 E0.35028
G1 X119.295 Y61.802 E0.01692
G1 X127.147 Y69.654 E0.35028
G1 X126.610 Y69.654 E0.01692
G1 X118.758 Y61.802 E0.35028
G1 X118.222 Y61.802 E0.01692
G1 X126.074 Y69.654 E0.35028
G1 X125.537 Y69.654 E0.01692
G1 X117.685 Y61.802 E0.35028
G1 X117.149 Y61.802 E0.01692
G1 X125.001 Y69.654 E0.35028
G1 X124.464 Y69.654 E0.01692
G1 X116.612 Y61.802 E0.35028
G1 X116.076 Y61.802 E0.01692
G1 X123.928 Y69.654 E0.35028
G1 X123.391 Y69.654 E0.01692
G1 X115.539 Y61.802 E0.35028
G1 X115.003 Y61.802 E0.01692
G1 X122.855 Y69.654 E0.35028
G1 X122.318 Y69.654 E0.01692
G1 X114.466 Y61.802 E0.35028
G1 X113.930 Y61.802 E0.01692
G1 X121.782 Y69.654 E0.35028
G1 X121.245 Y69.654 E0.01692
G1 X113.393 Y61.802 E0.35028
G1 X112.857 Y61.802 E0.01692
G1 X120.708 Y69.654 E0.35028
G1 X120.172 Y69.654 E0.01692
G1 X112.320 Y61.802 E0.35028
G1 X111.784 Y61.802 E0.01692
G1 X119.635 Y69.654 E0.35028
G1 X119.099 Y69.654 E0.01692
G1 X111.247 Y61.802 E0.35028
G1 X110.711 Y61.802 E0.01692
G1 X118.562 Y69.654 E0.35028
G1 X118.026 Y69.654 E0.01692
G1 X110.174 Y61.802 E0.35028
G1 X109.637 Y61.802 E0.01692
G1 X117.489 Y69.654 E0.35028
G1 X116.953 Y69.654 E0.01692
G1 X109.101 Y61.802 E0.35028
G1 X108.564 Y61.802 E0.01692
G1 X116.416 Y69.654 E0.35028
G1 X115.880 Y69.654 E0.01692
G1 X108.478 Y62.251 E0.33023
G1 X108.478 Y62.788 E0.01692
G1 X115.343 Y69.654 E0.30629
G1 X114.807 Y69.654 E0.01692
G1 X108.478 Y63.324 E0.28236
G1 X108.478 Y63.861 E0.01692
G1 X114.270 Y69.654 E0.25843
G1 X113.734 Y69.654 E0.01692
G1 X108.478 Y64.397 E0.23449
G1 X108.478 Y64.934 E0.01692
G1 X113.197 Y69.654 E0.21056
M73 Q2 S74
G1 X112.661 Y69.654 E0.01692
G1 X108.478 Y65.470 E0.18662
G1 X108.478 Y66.007 E0.01692
G1 X112.124 Y69.654 E0.16269
G1 X111.588 Y69.654 E0.01692
G1 X108.478 Y66.543 E0.13875
G1 X108.478 Y67.080 E0.01692
G1 X111.051 Y69.654 E0.11482
G1 X110.515 Y69.654 E0.01692
G1 X108.478 Y67.616 E0.09088
G1 X108.478 Y68.153 E0.01692
G1 X109.978 Y69.654 E0.06695
G1 X109.442 Y69.654 E0.01692
G1 X108.478 Y68.689 E0.04302
G1 X108.478 Y69.226 E0.01692
G1 X109.075 Y69.823 E0.02665
; stop printing object drag_support_bracket.stl id:0 copy 0
M106 S84.15
;LAYER_CHANGE
;Z:0.5
;HEIGHT:0.3
;BEFORE_LAYER_CHANGE
G92 E0.0
;0.5


;WIPE_START
G1 F8640.000
G1 X108.478 Y69.226 E-0.19508
G1 X108.478 Y68.689 E-0.12388
G1 X109.442 Y69.654 E-0.31487
G1 X109.978 Y69.654 E-0.12388
G1 X109.971 Y69.647 E-0.00228
;WIPE_END
G1 E-0.04000 F2100.000
G1 Z0.600 F10800.000
;AFTER_LAYER_CHANGE
;0.5
M104 S210 ; set temperature
M140 S64 ; set bed temperature
; printing object drag_support_bracket.stl id:0 copy 0
G1 X140.310 Y69.821
G1 Z0.500
G1 E0.80000 F2100.000
M204 S800
;TYPE:Perimeter
;WIDTH:0.5
G1 F3000.000
G1 X108.310 Y69.821 E1.73865
G1 X108.310 Y61.634 E0.44478
G1 X138.365 Y61.634 E1.63294
G1 X168.997 Y72.643 E1.76853
G1 X168.997 Y81.321 E0.47150
G1 X140.310 Y81.321 E1.55861
G1 X140.310 Y69.881 E0.62157
M204 S1000
G1 X139.875 Y70.256 F10800.000
M204 S800
G1 F3000.000
G1 X107.875 Y70.256 E1.73865
G1 X107.875 Y61.199 E0.49212
G1 X138.441 Y61.199 E1.66074
G1 X169.432 Y72.336 E1.78929
G1 X169.432 Y81.756 E0.51181
G1 X139.875 Y81.756 E1.60594
G1 X139.875 Y70.316 E0.62157
M204 S1000
G1 X139.439 Y70.692 F10800.000
M204 S800
G1 F3000.000
G1 X107.439 Y70.692 E1.73865
G1 X107.439 Y60.763 E0.53946
G1 X138.517 Y60.763 E1.68853
M73 P3 R74
M73 Q3 S74
G1 X169.868 Y72.030 E1.81006
G1 X169.868 Y82.192 E0.55213
G1 X139.439 Y82.192 E1.65328
G1 X139.439 Y70.752 E0.62157
M204 S1000
G1 X138.953 Y71.178 F10800.000
M204 S800
;TYPE:External perimeter
;WIDTH:0.6
G1 F2100.000
G1 X106.953 Y71.178 E2.13777
G1 X106.953 Y60.278 E0.72818
G1 X138.601 Y60.278 E2.11424
G1 X170.353 Y71.689 E2.25404
G1 X170.353 Y82.678 E0.73413
G1 X138.953 Y82.678 E2.09769
G1 X138.953 Y71.238 E0.76425
M204 S1000
G1 X138.795 Y70.810 F10800.000
;WIPE_START
G1 F8640.000
G1 X135.662 Y71.231 E-0.76000
;WIPE_END
G1 E-0.04000 F2100.000
G1 Z0.900 F10800.000
G1 X109.327 Y61.765
G1 Z0.500
G1 E0.80000 F2100.000
;TYPE:Solid infill
;WIDTH:0.502551
G1 F4800.000
G1 X108.637 Y62.455 E0.05332
G1 X108.637 Y63.075 E0.03387
G1 X109.751 Y61.961 E0.08606
G1 X110.370 Y61.961 E0.03387
G1 X108.637 Y63.694 E0.13395
G1 X108.637 Y64.314 E0.03387
G1 X110.990 Y61.961 E0.18185
G1 X111.610 Y61.961 E0.03387
G1 X108.637 Y64.934 E0.22974
G1 X108.637 Y65.553 E0.03387
G1 X112.229 Y61.961 E0.27763
G1 X112.849 Y61.961 E0.03387
G1 X108.637 Y66.173 E0.32553
G1 X108.637 Y66.793 E0.03387
G1 X113.469 Y61.961 E0.37342
G1 X114.088 Y61.961 E0.03387
G1 X108.637 Y67.412 E0.42131
G1 X108.637 Y68.032 E0.03387
G1 X114.708 Y61.961 E0.46920
G1 X115.328 Y61.961 E0.03387
G1 X108.637 Y68.652 E0.51710
G1 X108.637 Y69.271 E0.03387
G1 X115.947 Y61.961 E0.56499
G1 X116.567 Y61.961 E0.03387
G1 X109.034 Y69.494 E0.58220
G1 X109.654 Y69.494 E0.03387
G1 X117.187 Y61.961 E0.58220
G1 X117.806 Y61.961 E0.03387
G1 X110.273 Y69.494 E0.58220
G1 X110.893 Y69.494 E0.03387
G1 X118.426 Y61.961 E0.58220
G1 X119.046 Y61.961 E0.03387
G1 X111.513 Y69.494 E0.58220
G1 X112.132 Y69.494 E0.03387
G1 X119.665 Y61.961 E0.58220
G1 X120.285 Y61.961 E0.03387
G1 X112.752 Y69.494 E0.58220
G1 X113.372 Y69.494 E0.03387
G1 X120.905 Y61.961 E0.58220
G1 X121.524 Y61.961 E0.03387
G1 X113.991 Y69.494 E0.58220
G1 X114.611 Y69.494 E0.03387
G1 X122.144 Y61.961 E0.58220
G1 X122.764 Y61.961 E0.03387
G1 X115.231 Y69.494 E0.58220
G1 X115.850 Y69.494 E0.03387
G1 X123.383 Y61.961 E0.58220
G1 X124.003 Y61.961 E0.03387
G1 X116.470 Y69.494 E0.58220
G1 X117.090 Y69.494 E0.03387
G1 X124.623 Y61.961 E0.58220
G1 X125.242 Y61.961 E0.03387
G1 X117.709 Y69.494 E0.58220
G1 X118.329 Y69.494 E0.03387
G1 X125.862 Y61.961 E0.58220
G1 X126.482 Y61.961 E0.03387
G1 X118.949 Y69.494 E0.58220
G1 X119.568 Y69.494 E0.03387
G1 X127.101 Y61.961 E0.58220
G1 X127.721 Y61.961 E0.03387
G1 X120.188 Y69.494 E0.58220
G1 X120.808 Y69.494 E0.03387
G1 X128.341 Y61.961 E0.58220
G1 X128.960 Y61.961 E0.03387
G1 X121.427 Y69.494 E0.58220
G1 X122.047 Y69.494 E0.03387
G1 X129.580 Y61.961 E0.58220
G1 X130.200 Y61.961 E0.03387
G1 X122.667 Y69.494 E0.58220
G1 X123.286 Y69.494 E0.03387
G1 X130.819 Y61.961 E0.58220
G1 X131.439 Y61.961 E0.03387
G1 X123.906 Y69.494 E0.58220
G1 X124.526 Y69.494 E0.03387
G1 X132.059 Y61.961 E0.58220
G1 X132.678 Y61.961 E0.03387
G1 X125.145 Y69.494 E0.58220
G1 X125.765 Y69.494 E0.03387
G1 X133.298 Y61.961 E0.58220
G1 X133.918 Y61.961 E0.03387
G1 X126.385 Y69.494 E0.58220
G1 X127.004 Y69.494 E0.03387
G1 X134.537 Y61.961 E0.58220
G1 X135.157 Y61.961 E0.03387
G1 X127.624 Y69.494 E0.58220
G1 X128.244 Y69.494 E0.03387
G1 X135.777 Y61.961 E0.58220
G1 X136.396 Y61.961 E0.03387
G1 X128.863 Y69.494 E0.58220
G1 X129.483 Y69.494 E0.03387
G1 X137.016 Y61.961 E0.58220
G1 X137.636 Y61.961 E0.03387
G1 X130.103 Y69.494 E0.58220
G1 X130.722 Y69.494 E0.03387
G1 X138.255 Y61.961 E0.58220
G1 X138.308 Y61.961 E0.00288
G1 X138.725 Y62.111 E0.02422
G1 X131.342 Y69.494 E0.57062
G1 X131.962 Y69.494 E0.03387
G1 X139.181 Y62.275 E0.55795
G1 X139.637 Y62.439 E0.02647
G1 X132.581 Y69.494 E0.54529
G1 X133.201 Y69.494 E0.03387
G1 X140.093 Y62.602 E0.53263
G1 X140.548 Y62.766 E0.02647
G1 X133.821 Y69.494 E0.51997
G1 X134.440 Y69.494 E0.03387
G1 X141.004 Y62.930 E0.50731
G1 X141.460 Y63.094 E0.02647
G1 X135.060 Y69.494 E0.49465
G1 X135.680 Y69.494 E0.03387
