; generated by PrusaSlicer 2.3.1+win64 on 2022-06-23 at 17:14:06 UTC

; 

; external perimeters extrusion width = 0.60mm
; perimeters extrusion width = 0.50mm
; infill extrusion width = 0.50mm
; solid infill extrusion width = 0.50mm
; top infill extrusion width = 0.45mm
; first layer extrusion width = 0.42mm

M73 P0 R76
M73 Q0 S76
M201 X1000 Y1000 Z200 E5000 ; sets maximum accelerations, mm/sec^2
M203 X200 Y200 Z12 E120 ; sets maximum feedrates, mm/sec
M204 P1250 R1250 T1250 ; sets acceleration (P, T) and retract acceleration (R), mm/sec^2
M205 X8.00 Y8.00 Z0.40 E4.50 ; sets the jerk limits, mm/sec
M205 S0 T0 ; sets the minimum extruding and travel feed rate, mm/sec
M107
;TYPE:Custom
M862.3 P "MK3S" ; printer model check
M862.1 P0.4 ; nozzle diameter check
M115 U3.9.3 ; tell printer latest fw version
G90 ; use absolute coordinates
M83 ; extruder relative mode
M104 S215 ; set extruder temp
M140 S67 ; set bed temp
M190 S67 ; wait for bed temp
M109 S215 ; wait for extruder temp
G28 W ; home all without mesh bed level
G80 ; mesh bed leveling
G1 Y-3.0 F1000.0 ; go outside print area
G92 E0.0
G1 X60.0 E9.0 F1000.0 ; intro line
G1 X100.0 E12.5 F1000.0 ; intro line
G92 E0.0
M221 S95

; Don't change E values below. Excessive value can damage the printer.

M907 E538 ; set extruder motor current
G21 ; set units to millimeters
G90 ; use absolute coordinates
M83 ; use relative distances for extrusion
M900 K0.05 ; Filament gcode LA 1.5
M900 K30 ; Filament gcode LA 1.0
;LAYER_CHANGE
;Z:0.2
;HEIGHT:0.2
;BEFORE_LAYER_CHANGE
G92 E0.0
;0.2


G1 E-0.80000 F2100.000
G1 Z0.400 F10800.000
;AFTER_LAYER_CHANGE
;0.2
; printing object drag_support_bracket.stl id:0 copy 0
G1 X94.541 Y95.041
G1 Z0.200
G1 E0.80000 F2100.000
M204 S1000
;TYPE:Perimeter
;WIDTH:0.42
G1 F1200.000
G1 X124.731 Y95.041 E0.94659
G1 X155.459 Y106.084 E1.02376
G1 X155.459 Y114.959 E0.27827
G1 X126.541 Y114.959 E0.90669
G1 X126.541 Y103.459 E0.36057
G1 X94.541 Y103.459 E1.00334
G1 X94.541 Y95.101 E0.26204
;WIPE_START
G1 F8640.000
G1 X97.833 Y95.095 E-0.76000
;WIPE_END
G1 E-0.04000 F2100.000
G1 Z0.600 F10800.000
G1 X126.164 Y103.836
G1 Z0.200
G1 E0.80000 F2100.000
G1 F1200.000
G1 X94.164 Y103.836 E1.00334
G1 X94.164 Y94.664 E0.28757
G1 X124.797 Y94.664 E0.96048
G1 X155.836 Y105.819 E1.03413
G1 X155.836 Y115.336 E0.29840
G1 X126.164 Y115.336 E0.93033
G1 X126.164 Y103.896 E0.35869
G1 X125.787 Y104.213 F10800.000
G1 F1200.000
G1 X93.787 Y104.213 E1.00334
G1 X93.787 Y94.287 E0.31122
G1 X124.863 Y94.287 E0.97436
G1 X156.213 Y105.554 E1.04451
G1 X156.213 Y115.713 E0.31854
G1 X125.787 Y115.713 E0.95398
G1 X125.787 Y104.273 E0.35869
G1 X125.410 Y104.590 F10800.000
;TYPE:External perimeter
G1 F1200.000
G1 X93.410 Y104.590 E1.00334
M73 P0 R75
G1 X93.410 Y93.910 E0.33486
G1 X124.929 Y93.910 E0.98824
G1 X156.590 Y105.288 E1.05488
G1 X156.590 Y116.090 E0.33868
G1 X125.410 Y116.090 E0.97763
G1 X125.410 Y104.650 E0.35869
G1 X125.252 Y104.222 F10800.000
;WIPE_START
G1 F8640.000
G1 X122.119 Y104.644 E-0.76000
;WIPE_END
G1 E-0.04000 F2100.000
G1 Z0.600 F10800.000
G1 X155.346 Y106.936
G1 Z0.200
G1 E0.80000 F2100.000
;TYPE:Solid infill
;WIDTH:0.422291
G1 F1200.000
G1 X154.421 Y106.011 E0.04125
G1 X153.583 Y105.710 E0.02807
G1 X155.176 Y107.303 E0.07105
G1 X155.176 Y107.839 E0.01692
G1 X152.746 Y105.409 E0.10841
G1 X151.908 Y105.108 E0.02807
G1 X155.176 Y108.376 E0.14577
G1 X155.176 Y108.912 E0.01692
G1 X151.071 Y104.808 E0.18313
G1 X150.233 Y104.507 E0.02807
G1 X155.176 Y109.449 E0.22049
G1 X155.176 Y109.986 E0.01692
G1 X149.396 Y104.206 E0.25785
G1 X148.559 Y103.905 E0.02807
G1 X155.176 Y110.522 E0.29521
G1 X155.176 Y111.059 E0.01692
G1 X147.721 Y103.604 E0.33257
G1 X146.884 Y103.303 E0.02807
G1 X155.176 Y111.595 E0.36993
G1 X155.176 Y112.132 E0.01692
G1 X146.046 Y103.002 E0.40729
G1 X145.209 Y102.701 E0.02807
G1 X155.176 Y112.668 E0.44465
G1 X155.176 Y113.205 E0.01692
G1 X144.371 Y102.400 E0.48202
M73 P1 R75
M73 Q1 S76
G1 X143.534 Y102.099 E0.02807
G1 X155.176 Y113.741 E0.51938
G1 X155.176 Y114.278 E0.01692
G1 X142.696 Y101.798 E0.55674
G1 X141.859 Y101.497 E0.02807
G1 X155.038 Y114.676 E0.58794
G1 X154.501 Y114.676 E0.01692
G1 X141.021 Y101.196 E0.60136
G1 X140.184 Y100.895 E0.02807
G1 X153.965 Y114.676 E0.61479
M73 Q1 S75
G1 X153.428 Y114.676 E0.01692
G1 X139.346 Y100.594 E0.62822
G1 X138.509 Y100.293 E0.02807
G1 X152.892 Y114.676 E0.64164
G1 X152.355 Y114.676 E0.01692
G1 X137.671 Y99.992 E0.65507
G1 X136.834 Y99.691 E0.02807
G1 X151.819 Y114.676 E0.66850
G1 X151.282 Y114.676 E0.01692
G1 X135.996 Y99.390 E0.68192
G1 X135.159 Y99.089 E0.02807
G1 X150.746 Y114.676 E0.69535
G1 X150.209 Y114.676 E0.01692
G1 X134.321 Y98.788 E0.70878
G1 X133.484 Y98.487 E0.02807
G1 X149.673 Y114.676 E0.72220
G1 X149.136 Y114.676 E0.01692
G1 X132.646 Y98.186 E0.73563
G1 X131.809 Y97.885 E0.02807
G1 X148.600 Y114.676 E0.74905
G1 X148.063 Y114.676 E0.01692
G1 X130.971 Y97.584 E0.76248
G1 X130.134 Y97.283 E0.02807
G1 X147.527 Y114.676 E0.77591
G1 X146.990 Y114.676 E0.01692
G1 X129.296 Y96.982 E0.78933
G1 X128.459 Y96.681 E0.02807
G1 X146.454 Y114.676 E0.80276
G1 X145.917 Y114.676 E0.01692
G1 X127.621 Y96.380 E0.81619
G1 X126.784 Y96.079 E0.02807
G1 X145.381 Y114.676 E0.82961
G1 X144.844 Y114.676 E0.01692
G1 X125.947 Y95.778 E0.84304
G1 X125.109 Y95.477 E0.02807
G1 X144.308 Y114.676 E0.85647
G1 X143.771 Y114.676 E0.01692
G1 X124.419 Y95.324 E0.86331
G1 X123.883 Y95.324 E0.01692
G1 X143.235 Y114.676 E0.86331
G1 X142.698 Y114.676 E0.01692
G1 X123.346 Y95.324 E0.86331
G1 X122.810 Y95.324 E0.01692
G1 X142.162 Y114.676 E0.86331
G1 X141.625 Y114.676 E0.01692
G1 X122.273 Y95.324 E0.86331
G1 X121.737 Y95.324 E0.01692
G1 X141.089 Y114.676 E0.86331
G1 X140.552 Y114.676 E0.01692
G1 X121.200 Y95.324 E0.86331
G1 X120.664 Y95.324 E0.01692
G1 X140.015 Y114.676 E0.86331
G1 X139.479 Y114.676 E0.01692
G1 X120.127 Y95.324 E0.86331
G1 X119.591 Y95.324 E0.01692
G1 X138.942 Y114.676 E0.86331
G1 X138.406 Y114.676 E0.01692
G1 X119.054 Y95.324 E0.86331
G1 X118.518 Y95.324 E0.01692
G1 X126.369 Y103.176 E0.35028
G1 X126.824 Y103.176 E0.01434
G1 X126.824 Y103.631 E0.01434
G1 X137.869 Y114.676 E0.49275
G1 X137.333 Y114.676 E0.01692
G1 X126.824 Y104.167 E0.46881
G1 X126.824 Y104.704 E0.01692
G1 X136.796 Y114.676 E0.44488
G1 X136.260 Y114.676 E0.01692
M73 Q2 S75
G1 X126.824 Y105.240 E0.42094
M73 P2 R75
G1 X126.824 Y105.777 E0.01692
G1 X135.723 Y114.676 E0.39701
M73 P2 R74
G1 X135.187 Y114.676 E0.01692
G1 X126.824 Y106.313 E0.37308
G1 X126.824 Y106.850 E0.01692
G1 X134.650 Y114.676 E0.34914
G1 X134.114 Y114.676 E0.01692
G1 X126.824 Y107.386 E0.32521
G1 X126.824 Y107.923 E0.01692
G1 X133.577 Y114.676 E0.30127
G1 X133.041 Y114.676 E0.01692
G1 X126.824 Y108.459 E0.27734
G1 X126.824 Y108.996 E0.01692
G1 X132.504 Y114.676 E0.25340
G1 X131.968 Y114.676 E0.01692
G1 X126.824 Y109.532 E0.22947
G1 X126.824 Y110.069 E0.01692
G1 X131.431 Y114.676 E0.20554
G1 X130.895 Y114.676 E0.01692
G1 X126.824 Y110.605 E0.18160
G1 X126.824 Y111.142 E0.01692
G1 X130.358 Y114.676 E0.15767
G1 X129.822 Y114.676 E0.01692
G1 X126.824 Y111.678 E0.13373
G1 X126.824 Y112.215 E0.01692
G1 X129.285 Y114.676 E0.10980
G1 X128.749 Y114.676 E0.01692
G1 X126.824 Y112.751 E0.08586
G1 X126.824 Y113.288 E0.01692
G1 X128.212 Y114.676 E0.06193
G1 X127.676 Y114.676 E0.01692
G1 X126.824 Y113.824 E0.03799
G1 X126.824 Y114.361 E0.01692
G1 X127.309 Y114.846 E0.02163
;WIPE_START
G1 F8640.000
G1 X126.824 Y114.361 E-0.15833
G1 X126.824 Y113.824 E-0.12388
G1 X127.676 Y114.676 E-0.27811
G1 X128.212 Y114.676 E-0.12388
G1 X127.980 Y114.444 E-0.07580
;WIPE_END
G1 E-0.04000 F2100.000
G1 Z0.600 F10800.000
G1 X126.003 Y103.346
G1 Z0.200
G1 E0.80000 F2100.000
G1 F1200.000
G1 X117.981 Y95.324 E0.35785
G1 X117.444 Y95.324 E0.01692
G1 X125.296 Y103.176 E0.35028
G1 X124.760 Y103.176 E0.01692
G1 X116.908 Y95.324 E0.35028
G1 X116.371 Y95.324 E0.01692
G1 X124.223 Y103.176 E0.35028
G1 X123.687 Y103.176 E0.01692
G1 X115.835 Y95.324 E0.35028
G1 X115.298 Y95.324 E0.01692
G1 X123.150 Y103.176 E0.35028
G1 X122.614 Y103.176 E0.01692
G1 X114.762 Y95.324 E0.35028
G1 X114.225 Y95.324 E0.01692
G1 X122.077 Y103.176 E0.35028
G1 X121.541 Y103.176 E0.01692
G1 X113.689 Y95.324 E0.35028
G1 X113.152 Y95.324 E0.01692
G1 X121.004 Y103.176 E0.35028
G1 X120.468 Y103.176 E0.01692
G1 X112.616 Y95.324 E0.35028
G1 X112.079 Y95.324 E0.01692
G1 X119.931 Y103.176 E0.35028
G1 X119.395 Y103.176 E0.01692
G1 X111.543 Y95.324 E0.35028
G1 X111.006 Y95.324 E0.01692
G1 X118.858 Y103.176 E0.35028
G1 X118.322 Y103.176 E0.01692
G1 X110.470 Y95.324 E0.35028
G1 X109.933 Y95.324 E0.01692
G1 X117.785 Y103.176 E0.35028
G1 X117.249 Y103.176 E0.01692
G1 X109.397 Y95.324 E0.35028
G1 X108.860 Y95.324 E0.01692
G1 X116.712 Y103.176 E0.35028
G1 X116.176 Y103.176 E0.01692
G1 X108.324 Y95.324 E0.35028
G1 X107.787 Y95.324 E0.01692
G1 X115.639 Y103.176 E0.35028
M73 Q2 S74
G1 X115.103 Y103.176 E0.01692
G1 X107.251 Y95.324 E0.35028
G1 X106.714 Y95.324 E0.01692
G1 X114.566 Y103.176 E0.35028
G1 X114.030 Y103.176 E0.01692
G1 X106.178 Y95.324 E0.35028
G1 X105.641 Y95.324 E0.01692
G1 X113.493 Y103.176 E0.35028
G1 X112.957 Y103.176 E0.01692
G1 X105.105 Y95.324 E0.35028
G1 X104.568 Y95.324 E0.01692
G1 X112.420 Y103.176 E0.35028
G1 X111.884 Y103.176 E0.01692
G1 X104.032 Y95.324 E0.35028
G1 X103.495 Y95.324 E0.01692
G1 X111.347 Y103.176 E0.35028
G1 X110.811 Y103.176 E0.01692
G1 X102.959 Y95.324 E0.35028
G1 X102.422 Y95.324 E0.01692
G1 X110.274 Y103.176 E0.35028
G1 X109.738 Y103.176 E0.01692
G1 X101.886 Y95.324 E0.35028
G1 X101.349 Y95.324 E0.01692
G1 X109.201 Y103.176 E0.35028
G1 X108.665 Y103.176 E0.01692
G1 X100.813 Y95.324 E0.35028
G1 X100.276 Y95.324 E0.01692
G1 X108.128 Y103.176 E0.35028
G1 X107.592 Y103.176 E0.01692
G1 X99.740 Y95.324 E0.35028
G1 X99.203 Y95.324 E0.01692
G1 X107.055 Y103.176 E0.35028
G1 X106.519 Y103.176 E0.01692
G1 X98.667 Y95.324 E0.35028
G1 X98.130 Y95.324 E0.01692
G1 X105.982 Y103.176 E0.35028
G1 X105.445 Y103.176 E0.01692
G1 X97.594 Y95.324 E0.35028
G1 X97.057 Y95.324 E0.01692
G1 X104.909 Y103.176 E0.35028
G1 X104.372 Y103.176 E0.01692
G1 X96.521 Y95.324 E0.35028
G1 X95.984 Y95.324 E0.01692
G1 X103.836 Y103.176 E0.35028
G1 X103.299 Y103.176 E0.01692
G1 X95.448 Y95.324 E0.35028
G1 X94.911 Y95.324 E0.01692
G1 X102.763 Y103.176 E0.35028
G1 X102.226 Y103.176 E0.01692
G1 X94.824 Y95.774 E0.33023
G1 X94.824 Y96.310 E0.01692
G1 X101.690 Y103.176 E0.30629
G1 X101.153 Y103.176 E0.01692
G1 X94.824 Y96.847 E0.28236
G1 X94.824 Y97.383 E0.01692
G1 X100.617 Y103.176 E0.25843
G1 X100.080 Y103.176 E0.01692
G1 X94.824 Y97.920 E0.23449
G1 X94.824 Y98.456 E0.01692
G1 X99.544 Y103.176 E0.21056
G1 X99.007 Y103.176 E0.01692
G1 X94.824 Y98.993 E0.18662
G1 X94.824 Y99.529 E0.01692
G1 X98.471 Y103.176 E0.16269
G1 X97.934 Y103.176 E0.01692
G1 X94.824 Y100.066 E0.13875
G1 X94.824 Y100.602 E0.01692
G1 X97.398 Y103.176 E0.11482
G1 X96.861 Y103.176 E0.01692
G1 X94.824 Y101.139 E0.09088
G1 X94.824 Y101.675 E0.01692
G1 X96.325 Y103.176 E0.06695
G1 X95.788 Y103.176 E0.01692
G1 X94.824 Y102.212 E0.04302
G1 X94.824 Y102.748 E0.01692
G1 X95.421 Y103.346 E0.02665
; stop printing object drag_support_bracket.stl id:0 copy 0
M106 S84.15
;LAYER_CHANGE
;Z:0.5
;HEIGHT:0.3
;BEFORE_LAYER_CHANGE
G92 E0.0
;0.5


;WIPE_START
G1 F8640.000
G1 X94.824 Y102.748 E-0.19508
G1 X94.824 Y102.212 E-0.12388
G1 X95.788 Y103.176 E-0.31487
G1 X96.325 Y103.176 E-0.12388
G1 X96.318 Y103.169 E-0.00228
;WIPE_END
G1 E-0.04000 F2100.000
G1 Z0.600 F10800.000
;AFTER_LAYER_CHANGE
;0.5
M104 S210 ; set temperature
M140 S64 ; set bed temperature
; printing object drag_support_bracket.stl id:0 copy 0
G1 X126.657 Y103.343
G1 Z0.500
G1 E0.80000 F2100.000
M204 S800
;TYPE:Perimeter
;WIDTH:0.5
G1 F3000.000
G1 X94.657 Y103.343 E1.73865
G1 X94.657 Y95.157 E0.44478
G1 X124.711 Y95.157 E1.63294
G1 X155.343 Y106.165 E1.76853
G1 X155.343 Y114.843 E0.47150
G1 X126.657 Y114.843 E1.55861
G1 X126.657 Y103.403 E0.62157
M204 S1000
G1 X126.221 Y103.779 F10800.000
M204 S800
G1 F3000.000
G1 X94.221 Y103.779 E1.73865
G1 X94.221 Y94.721 E0.49212
G1 X124.787 Y94.721 E1.66074
G1 X155.779 Y105.859 E1.78929
G1 X155.779 Y115.279 E0.51181
G1 X126.221 Y115.279 E1.60594
G1 X126.221 Y103.839 E0.62157
M204 S1000
G1 X125.786 Y104.214 F10800.000
M204 S800
G1 F3000.000
G1 X93.786 Y104.214 E1.73865
M73 P3 R74
M73 Q3 S74
G1 X93.786 Y94.286 E0.53946
G1 X124.863 Y94.286 E1.68853
G1 X156.214 Y105.552 E1.81006
G1 X156.214 Y115.714 E0.55213
G1 X125.786 Y115.714 E1.65328
G1 X125.786 Y104.274 E0.62157
M204 S1000
G1 X125.300 Y104.700 F10800.000
M204 S800
;TYPE:External perimeter
;WIDTH:0.6
G1 F2100.000
G1 X93.300 Y104.700 E2.13777
G1 X93.300 Y93.800 E0.72818
G1 X124.948 Y93.800 E2.11424
G1 X156.700 Y105.211 E2.25404
G1 X156.700 Y116.200 E0.73413
G1 X125.300 Y116.200 E2.09769
G1 X125.300 Y104.760 E0.76425
M204 S1000
G1 X125.142 Y104.333 F10800.000
;WIPE_START
G1 F8640.000
G1 X122.009 Y104.754 E-0.76000
;WIPE_END
G1 E-0.04000 F2100.000
G1 Z0.900 F10800.000
G1 X95.673 Y95.288
G1 Z0.500
G1 E0.80000 F2100.000
;TYPE:Solid infill
;WIDTH:0.502551
G1 F4800.000
G1 X94.984 Y95.977 E0.05332
G1 X94.984 Y96.597 E0.03387
G1 X96.097 Y95.484 E0.08606
G1 X96.717 Y95.484 E0.03387
G1 X94.984 Y97.217 E0.13395
G1 X94.984 Y97.836 E0.03387
G1 X97.336 Y95.484 E0.18185
G1 X97.956 Y95.484 E0.03387
G1 X94.984 Y98.456 E0.22974
G1 X94.984 Y99.076 E0.03387
G1 X98.576 Y95.484 E0.27763
G1 X99.195 Y95.484 E0.03387
G1 X94.984 Y99.695 E0.32553
G1 X94.984 Y100.315 E0.03387
G1 X99.815 Y95.484 E0.37342
G1 X100.435 Y95.484 E0.03387
G1 X94.984 Y100.935 E0.42131
G1 X94.984 Y101.554 E0.03387
G1 X101.054 Y95.484 E0.46920
G1 X101.674 Y95.484 E0.03387
G1 X94.984 Y102.174 E0.51710
G1 X94.984 Y102.794 E0.03387
G1 X102.294 Y95.484 E0.56499
G1 X102.913 Y95.484 E0.03387
G1 X95.381 Y103.016 E0.58220
G1 X96.000 Y103.016 E0.03387
G1 X103.533 Y95.484 E0.58220
G1 X104.153 Y95.484 E0.03387
G1 X96.620 Y103.016 E0.58220
G1 X97.240 Y103.016 E0.03387
G1 X104.772 Y95.484 E0.58220
G1 X105.392 Y95.484 E0.03387
G1 X97.859 Y103.016 E0.58220
G1 X98.479 Y103.016 E0.03387
G1 X106.012 Y95.484 E0.58220
G1 X106.631 Y95.484 E0.03387
G1 X99.099 Y103.016 E0.58220
G1 X99.718 Y103.016 E0.03387
G1 X107.251 Y95.484 E0.58220
G1 X107.871 Y95.484 E0.03387
G1 X100.338 Y103.016 E0.58220
G1 X100.958 Y103.016 E0.03387
G1 X108.490 Y95.484 E0.58220
G1 X109.110 Y95.484 E0.03387
G1 X101.577 Y103.016 E0.58220
G1 X102.197 Y103.016 E0.03387
G1 X109.730 Y95.484 E0.58220
G1 X110.349 Y95.484 E0.03387
G1 X102.817 Y103.016 E0.58220
G1 X103.436 Y103.016 E0.03387
G1 X110.969 Y95.484 E0.58220
G1 X111.589 Y95.484 E0.03387
G1 X104.056 Y103.016 E0.58220
G1 X104.676 Y103.016 E0.03387
G1 X112.208 Y95.484 E0.58220
G1 X112.828 Y95.484 E0.03387
G1 X105.295 Y103.016 E0.58220
G1 X105.915 Y103.016 E0.03387
G1 X113.448 Y95.484 E0.58220
G1 X114.067 Y95.484 E0.03387
G1 X106.535 Y103.016 E0.58220
G1 X107.154 Y103.016 E0.03387
G1 X114.687 Y95.484 E0.58220
G1 X115.307 Y95.484 E0.03387
M73 P3 R73
G1 X107.774 Y103.016 E0.58220
G1 X108.394 Y103.016 E0.03387
G1 X115.926 Y95.484 E0.58220
G1 X116.546 Y95.484 E0.03387
G1 X109.013 Y103.016 E0.58220
G1 X109.633 Y103.016 E0.03387
G1 X117.166 Y95.484 E0.58220
G1 X117.785 Y95.484 E0.03387
G1 X110.253 Y103.016 E0.58220
G1 X110.872 Y103.016 E0.03387
G1 X118.405 Y95.484 E0.58220
G1 X119.025 Y95.484 E0.03387
G1 X111.492 Y103.016 E0.58220
G1 X112.112 Y103.016 E0.03387
G1 X119.644 Y95.484 E0.58220
G1 X120.264 Y95.484 E0.03387
G1 X112.731 Y103.016 E0.58220
G1 X113.351 Y103.016 E0.03387
G1 X120.884 Y95.484 E0.58220
G1 X121.503 Y95.484 E0.03387
G1 X113.971 Y103.016 E0.58220
G1 X114.590 Y103.016 E0.03387
G1 X122.123 Y95.484 E0.58220
G1 X122.743 Y95.484 E0.03387
G1 X115.210 Y103.016 E0.58220
G1 X115.830 Y103.016 E0.03387
G1 X123.362 Y95.484 E0.58220
G1 X123.982 Y95.484 E0.03387
G1 X116.449 Y103.016 E0.58220
G1 X117.069 Y103.016 E0.03387
G1 X124.602 Y95.484 E0.58220
G1 X124.654 Y95.484 E0.00288
G1 X125.071 Y95.633 E0.02422
G1 X117.689 Y103.016 E0.57062
G1 X118.308 Y103.016 E0.03387
G1 X125.527 Y95.797 E0.55795
G1 X125.983 Y95.961 E0.02647
G1 X118.928 Y103.016 E0.54529
G1 X119.548 Y103.016 E0.03387
G1 X126.439 Y96.125 E0.53263
