; generated by PrusaSlicer 2.3.1+win64 on 2022-06-08 at 21:03:17 UTC

; 

; external perimeters extrusion width = 0.45mm
; perimeters extrusion width = 0.45mm
; infill extrusion width = 0.45mm
; solid infill extrusion width = 0.45mm
; top infill extrusion width = 0.40mm
; support material extrusion width = 0.35mm
; first layer extrusion width = 0.42mm

M73 P0 R107
M73 Q0 S106
M201 X1000 Y1000 Z200 E5000 ; sets maximum accelerations, mm/sec^2
M203 X200 Y200 Z12 E120 ; sets maximum feedrates, mm/sec
M204 P1250 R1250 T1250 ; sets acceleration (P, T) and retract acceleration (R), mm/sec^2
M205 X8.00 Y8.00 Z0.40 E4.50 ; sets the jerk limits, mm/sec
M205 S0 T0 ; sets the minimum extruding and travel feed rate, mm/sec
M107
;TYPE:Custom
M862.3 P "MK3S" ; printer model check
M862.1 P0.4 ; nozzle diameter check
M115 U3.9.3 ; tell printer latest fw version
G90 ; use absolute coordinates
M83 ; extruder relative mode
M104 S215 ; set extruder temp
M140 S67 ; set bed temp
M190 S67 ; wait for bed temp
M109 S215 ; wait for extruder temp
G28 W ; home all without mesh bed level
G80 ; mesh bed leveling
G1 Y-3.0 F1000.0 ; go outside print area
G92 E0.0
G1 X60.0 E9.0 F1000.0 ; intro line
G1 X100.0 E12.5 F1000.0 ; intro line
G92 E0.0
M221 S95

; Don't change E values below. Excessive value can damage the printer.

M907 E538 ; set extruder motor current
G21 ; set units to millimeters
G90 ; use absolute coordinates
M83 ; use relative distances for extrusion
M900 K0.05 ; Filament gcode LA 1.5
M900 K30 ; Filament gcode LA 1.0
;LAYER_CHANGE
;Z:0.2
;HEIGHT:0.2
;BEFORE_LAYER_CHANGE
G92 E0.0
;0.2


G1 E-0.80000 F2100.000
G1 Z0.400 F10800.000
;AFTER_LAYER_CHANGE
;0.2
; printing object x_limit_mount.stl id:5 copy 0
G1 X188.171 Y41.949
G1 Z0.200
G1 E0.80000 F2100.000
M204 S1000
;TYPE:Perimeter
;WIDTH:0.42
G1 F1200.000
G1 X188.280 Y41.550 E0.01298
G1 X188.452 Y41.173 E0.01298
G1 X188.676 Y40.840 E0.01260
G1 X188.827 Y40.665 E0.00724
G1 X189.125 Y40.396 E0.01258
G1 X189.449 Y40.187 E0.01211
G1 X189.670 Y40.079 E0.00769
G1 X190.041 Y39.953 E0.01228
G1 X190.267 Y39.907 E0.00723
G1 X190.652 Y39.874 E0.01212
G1 X191.079 Y39.907 E0.01343
G1 X191.470 Y40.005 E0.01265
G1 X191.686 Y40.088 E0.00724
G1 X192.041 Y40.277 E0.01260
G1 X192.369 Y40.528 E0.01298
G1 X192.653 Y40.830 E0.01298
G1 X192.877 Y41.163 E0.01260
G1 X192.982 Y41.369 E0.00724
G1 X193.118 Y41.747 E0.01260
G1 X193.192 Y42.143 E0.01260
G1 X193.205 Y42.361 E0.00687
G1 X193.200 Y42.580 E0.00685
G1 X193.146 Y42.962 E0.01212
G1 X193.019 Y43.371 E0.01341
G1 X192.845 Y43.717 E0.01215
G1 X192.709 Y43.921 E0.00770
G1 X192.445 Y44.227 E0.01266
G1 X192.126 Y44.491 E0.01298
G1 X191.780 Y44.695 E0.01260
G1 X191.568 Y44.786 E0.00723
G1 X191.198 Y44.896 E0.01212
G1 X190.773 Y44.950 E0.01343
G1 X190.358 Y44.933 E0.01303
G1 X189.952 Y44.849 E0.01298
G1 X189.566 Y44.701 E0.01298
G1 X189.219 Y44.497 E0.01260
G1 X189.036 Y44.357 E0.00723
G1 X188.769 Y44.096 E0.01173
G1 X188.614 Y43.905 E0.00769
G1 X188.403 Y43.561 E0.01266
G1 X188.247 Y43.178 E0.01296
G1 X188.160 Y42.802 E0.01211
G1 X188.135 Y42.570 E0.00732
G1 X188.130 Y42.349 E0.00693
G1 X188.165 Y42.009 E0.01072
G1 X188.511 Y42.546 F10800.000
;TYPE:External perimeter
G1 F1200.000
G1 X188.508 Y42.365 E0.00568
G1 X188.543 Y42.018 E0.01091
G1 X188.635 Y41.678 E0.01104
G1 X188.782 Y41.358 E0.01104
G1 X188.976 Y41.069 E0.01091
G1 X189.097 Y40.930 E0.00580
G1 X189.355 Y40.696 E0.01090
G1 X189.635 Y40.516 E0.01045
G1 X189.814 Y40.428 E0.00623
G1 X190.140 Y40.318 E0.01080
G1 X190.321 Y40.280 E0.00579
G1 X190.653 Y40.253 E0.01046
G1 X191.018 Y40.281 E0.01148
G1 X191.356 Y40.365 E0.01093
G1 X191.529 Y40.431 E0.00580
G1 X191.836 Y40.595 E0.01091
G1 X192.116 Y40.809 E0.01104
G1 X192.357 Y41.066 E0.01105
G1 X192.551 Y41.354 E0.01091
G1 X192.635 Y41.519 E0.00580
G1 X192.753 Y41.847 E0.01091
G1 X192.817 Y42.189 E0.01091
G1 X192.824 Y42.549 E0.01131
G1 X192.777 Y42.879 E0.01046
G1 X192.669 Y43.229 E0.01148
G1 X192.518 Y43.527 E0.01047
G1 X192.408 Y43.693 E0.00624
G1 X192.180 Y43.956 E0.01093
G1 X191.909 Y44.182 E0.01105
G1 X191.609 Y44.358 E0.01091
G1 X191.440 Y44.431 E0.00579
G1 X191.120 Y44.525 E0.01046
G1 X190.756 Y44.572 E0.01148
G1 X190.404 Y44.558 E0.01106
G1 X190.059 Y44.486 E0.01105
G1 X189.730 Y44.360 E0.01104
G1 X189.430 Y44.184 E0.01091
G1 X189.283 Y44.072 E0.00579
G1 X189.048 Y43.842 E0.01032
G1 X188.923 Y43.687 E0.00623
G1 X188.740 Y43.390 E0.01093
G1 X188.607 Y43.064 E0.01104
G1 X188.518 Y42.605 E0.01465
G1 X188.346 Y42.472 F10800.000
;WIPE_START
G1 F8640.000
G1 X188.508 Y42.365 E-0.05566
G1 X188.543 Y42.018 E-0.08034
G1 X188.635 Y41.678 E-0.08134
G1 X188.782 Y41.358 E-0.08134
G1 X188.976 Y41.069 E-0.08034
G1 X189.097 Y40.930 E-0.04268
G1 X189.355 Y40.696 E-0.08030
G1 X189.635 Y40.516 E-0.07699
G1 X189.814 Y40.428 E-0.04591
G1 X190.140 Y40.318 E-0.07951
G1 X190.321 Y40.280 E-0.04263
G1 X190.377 Y40.276 E-0.01297
;WIPE_END
G1 E-0.04000 F2100.000
G1 Z0.600 F10800.000
G1 X189.491 Y38.622
G1 Z0.200
G1 E0.80000 F2100.000
;TYPE:Perimeter
G1 F1200.000
G1 X188.885 Y38.327 E0.02113
G1 X188.627 Y38.152 E0.00978
G1 X188.288 Y37.863 E0.01395
G1 X188.086 Y37.649 E0.00924
G1 X187.807 Y37.281 E0.01449
G1 X187.554 Y36.822 E0.01642
G1 X187.339 Y36.183 E0.02113
G1 X187.284 Y35.876 E0.00978
G1 X187.252 Y35.429 E0.01406
G1 X187.264 Y35.136 E0.00918
G1 X187.331 Y34.677 E0.01454
G1 X187.481 Y34.177 E0.01637
G1 X187.788 Y33.575 E0.02119
G1 X187.967 Y33.322 E0.00972
G1 X188.274 Y32.975 E0.01454
G1 X188.673 Y32.638 E0.01636
G1 X189.256 Y32.302 E0.02111
G1 X189.546 Y32.187 E0.00978
G1 X189.992 Y32.064 E0.01449
G1 X190.511 Y31.999 E0.01642
G1 X191.184 Y32.036 E0.02113
G1 X191.490 Y32.098 E0.00978
G1 X191.930 Y32.238 E0.01449
G1 X192.400 Y32.467 E0.01638
G1 X192.944 Y32.865 E0.02115
G1 X193.165 Y33.084 E0.00974
G1 X193.459 Y33.442 E0.01453
G1 X193.728 Y33.890 E0.01638
G1 X193.966 Y34.522 E0.02116
G1 X194.032 Y34.825 E0.00973
G1 X194.080 Y35.269 E0.01402
G1 X194.080 Y35.565 E0.00927
G1 X194.029 Y36.024 E0.01450
G1 X193.897 Y36.531 E0.01642
G1 X193.614 Y37.143 E0.02113
G1 X193.443 Y37.404 E0.00978
G1 X193.161 Y37.748 E0.01395
G1 X192.950 Y37.954 E0.00924
G1 X192.587 Y38.240 E0.01449
G1 X192.133 Y38.501 E0.01642
G1 X191.498 Y38.727 E0.02113
G1 X191.192 Y38.788 E0.00978
G1 X190.749 Y38.828 E0.01395
G1 X190.454 Y38.821 E0.00924
G1 X189.996 Y38.763 E0.01449
G1 X189.549 Y38.638 E0.01454
G1 X189.650 Y38.275 F10800.000
G1 F1200.000
G1 X189.074 Y38.000 E0.02001
G1 X188.856 Y37.851 E0.00829
G1 X188.548 Y37.589 E0.01267
G1 X188.374 Y37.405 E0.00795
G1 X188.124 Y37.075 E0.01300
G1 X187.900 Y36.670 E0.01450
G1 X187.705 Y36.089 E0.01921
G1 X187.659 Y35.829 E0.00829
G1 X187.630 Y35.423 E0.01277
G1 X187.640 Y35.171 E0.00790
G1 X187.700 Y34.759 E0.01305
G1 X187.833 Y34.318 E0.01444
G1 X188.111 Y33.771 E0.01926
G1 X188.263 Y33.557 E0.00823
G1 X188.538 Y33.245 E0.01305
G1 X188.890 Y32.948 E0.01444
G1 X189.420 Y32.642 E0.01918
G1 X189.666 Y32.545 E0.00828
G1 X190.066 Y32.434 E0.01300
G1 X190.524 Y32.377 E0.01450
G1 X191.136 Y32.411 E0.01920
G1 X191.395 Y32.464 E0.00829
G1 X191.790 Y32.589 E0.01300
G1 X192.205 Y32.791 E0.01446
G1 X192.699 Y33.153 E0.01922
G1 X192.886 Y33.338 E0.00825
G1 X193.150 Y33.660 E0.01303
G1 X193.387 Y34.055 E0.01445
G1 X193.603 Y34.629 E0.01924
G1 X193.659 Y34.886 E0.00823
G1 X193.703 Y35.289 E0.01273
G1 X193.703 Y35.544 E0.00799
G1 X193.657 Y35.956 E0.01300
G1 X193.541 Y36.404 E0.01450
G1 X193.283 Y36.959 E0.01920
G1 X193.138 Y37.180 E0.00829
G1 X192.882 Y37.493 E0.01267
G1 X192.701 Y37.670 E0.00795
G1 X192.375 Y37.927 E0.01300
G1 X191.974 Y38.157 E0.01450
G1 X191.397 Y38.362 E0.01920
G1 X191.138 Y38.414 E0.00829
G1 X190.736 Y38.450 E0.01267
G1 X190.482 Y38.445 E0.00795
G1 X190.071 Y38.392 E0.01300
G1 X189.708 Y38.291 E0.01180
G1 X189.810 Y37.928 F10800.000
;TYPE:External perimeter
G1 F1200.000
G1 X189.264 Y37.673 E0.01889
G1 X189.085 Y37.551 E0.00679
G1 X188.808 Y37.316 E0.01139
G1 X188.662 Y37.161 E0.00667
G1 X188.441 Y36.869 E0.01151
G1 X188.247 Y36.517 E0.01257
G1 X188.072 Y35.995 E0.01728
G1 X188.033 Y35.782 E0.00679
G1 X188.007 Y35.417 E0.01148
G1 X188.016 Y35.206 E0.00662
G1 X188.069 Y34.841 E0.01156
G1 X188.184 Y34.459 E0.01251
G1 X188.435 Y33.967 E0.01733
G1 X188.559 Y33.791 E0.00674
G1 X188.803 Y33.515 E0.01156
G1 X189.108 Y33.258 E0.01251
G1 X189.585 Y32.983 E0.01726
G1 X189.786 Y32.903 E0.00679
G1 X190.140 Y32.805 E0.01151
G1 X190.538 Y32.755 E0.01257
G1 X191.088 Y32.786 E0.01728
G1 X191.300 Y32.829 E0.00679
G1 X191.650 Y32.940 E0.01151
G1 X192.009 Y33.115 E0.01253
G1 X192.454 Y33.441 E0.01730
G1 X192.607 Y33.592 E0.00675
G1 X192.840 Y33.877 E0.01154
G1 X193.046 Y34.220 E0.01252
G1 X193.241 Y34.736 E0.01731
G1 X193.287 Y34.946 E0.00674
G1 X193.326 Y35.309 E0.01144
G1 X193.326 Y35.523 E0.00670
G1 X193.286 Y35.888 E0.01151
G1 X193.185 Y36.276 E0.01257
G1 X192.953 Y36.776 E0.01728
G1 X192.834 Y36.957 E0.00679
G1 X192.604 Y37.238 E0.01139
G1 X192.452 Y37.386 E0.00667
G1 X192.163 Y37.613 E0.01151
G1 X191.816 Y37.813 E0.01257
G1 X191.297 Y37.998 E0.01728
G1 X191.084 Y38.040 E0.00679
G1 X190.722 Y38.073 E0.01139
G1 X190.510 Y38.068 E0.00667
G1 X190.146 Y38.022 E0.01151
G1 X189.868 Y37.944 E0.00905
G1 X189.501 Y38.182 F10800.000
;WIPE_START
G1 F8640.000
G1 X189.264 Y37.673 E-0.15276
G1 X189.085 Y37.551 E-0.05001
G1 X188.808 Y37.316 E-0.08388
G1 X188.662 Y37.161 E-0.04913
G1 X188.441 Y36.869 E-0.08474
G1 X188.247 Y36.517 E-0.09256
G1 X188.072 Y35.995 E-0.12723
G1 X188.033 Y35.782 E-0.05001
G1 X188.012 Y35.481 E-0.06968
;WIPE_END
G1 E-0.04000 F2100.000
G1 Z0.600 F10800.000
G1 X193.484 Y31.113
G1 Z0.200
G1 E0.80000 F2100.000
;TYPE:Perimeter
G1 F1200.000
G1 X193.003 Y30.897 E0.01651
G1 X192.685 Y30.670 E0.01227
G1 X192.338 Y30.311 E0.01566
G1 X192.071 Y29.855 E0.01656
G1 X191.943 Y29.486 E0.01225
G1 X191.873 Y29.026 E0.01460
G1 X191.888 Y28.641 E0.01207
G1 X191.989 Y28.187 E0.01460
G1 X192.143 Y27.834 E0.01208
G1 X192.403 Y27.444 E0.01468
G1 X192.674 Y27.173 E0.01202
G1 X193.081 Y26.888 E0.01558
G1 X193.577 Y26.695 E0.01669
G1 X193.960 Y26.630 E0.01217
G1 X194.451 Y26.633 E0.01540
G1 X194.929 Y26.751 E0.01543
G1 X195.280 Y26.906 E0.01204
G1 X195.661 Y27.173 E0.01461
G1 X195.935 Y27.448 E0.01216
G1 X196.229 Y27.893 E0.01673
G1 X196.396 Y28.362 E0.01561
G1 X196.459 Y28.742 E0.01207
G1 X196.445 Y29.207 E0.01460
G1 X196.366 Y29.584 E0.01207
G1 X196.185 Y30.013 E0.01460
G1 X195.974 Y30.335 E0.01207
G1 X195.651 Y30.670 E0.01460
G1 X195.332 Y30.897 E0.01227
G1 X194.852 Y31.113 E0.01651
G1 X194.360 Y31.205 E0.01568
G1 X193.975 Y31.205 E0.01207
G1 X193.543 Y31.124 E0.01380
G1 X193.612 Y30.754 F10800.000
G1 F1200.000
G1 X193.192 Y30.568 E0.01439
G1 X192.932 Y30.383 E0.01001
G1 X192.640 Y30.081 E0.01316
G1 X192.415 Y29.697 E0.01397
G1 X192.311 Y29.395 E0.01000
G1 X192.251 Y29.005 E0.01240
G1 X192.264 Y28.690 E0.00987
G1 X192.349 Y28.304 E0.01240
G1 X192.475 Y28.015 E0.00988
G1 X192.696 Y27.685 E0.01247
G1 X192.918 Y27.463 E0.00982
G1 X193.260 Y27.223 E0.01311
G1 X193.678 Y27.061 E0.01406
G1 X193.990 Y27.008 E0.00994
G1 X194.404 Y27.010 E0.01297
G1 X194.806 Y27.109 E0.01299
G1 X195.094 Y27.236 E0.00985
G1 X195.418 Y27.463 E0.01241
G1 X195.642 Y27.687 E0.00993
G1 X195.889 Y28.063 E0.01410
G1 X196.029 Y28.457 E0.01312
G1 X196.081 Y28.768 E0.00987
G1 X196.069 Y29.163 E0.01240
G1 X196.004 Y29.471 E0.00987
G1 X195.851 Y29.835 E0.01240
G1 X195.679 Y30.099 E0.00987
G1 X195.404 Y30.383 E0.01240
G1 X195.144 Y30.568 E0.01002
G1 X194.738 Y30.751 E0.01393
G1 X194.325 Y30.828 E0.01318
G1 X194.010 Y30.828 E0.00987
G1 X193.671 Y30.765 E0.01082
G1 X193.711 Y30.388 F10800.000
G1 F1200.000
G1 X193.380 Y30.240 E0.01136
G1 X193.179 Y30.096 E0.00776
G1 X192.943 Y29.852 E0.01066
G1 X192.759 Y29.539 E0.01138
G1 X192.678 Y29.305 E0.00776
G1 X192.629 Y28.983 E0.01019
G1 X192.639 Y28.739 E0.00768
G1 X192.710 Y28.421 E0.01019
G1 X192.807 Y28.197 E0.00768
G1 X192.989 Y27.925 E0.01026
G1 X193.161 Y27.753 E0.00763
G1 X193.439 Y27.558 E0.01063
G1 X193.779 Y27.426 E0.01143
G1 X194.021 Y27.385 E0.00772
G1 X194.357 Y27.387 E0.01054
G1 X194.684 Y27.467 E0.01056
G1 X194.908 Y27.566 E0.00765
G1 X195.174 Y27.753 E0.01021
G1 X195.348 Y27.926 E0.00769
G1 X195.549 Y28.232 E0.01148
G1 X195.663 Y28.552 E0.01064
G1 X195.703 Y28.793 E0.00768
G1 X195.694 Y29.118 E0.01019
G1 X195.643 Y29.358 E0.00768
G1 X195.517 Y29.657 E0.01019
G1 X195.383 Y29.862 E0.00768
G1 X195.157 Y30.096 E0.01020
G1 X194.955 Y30.240 E0.00776
G1 X194.625 Y30.388 E0.01136
G1 X194.290 Y30.451 E0.01067
G1 X194.045 Y30.451 E0.00768
G1 X193.770 Y30.399 E0.00879
G1 X193.569 Y29.911 F10800.000
;TYPE:External perimeter
G1 F1200.000
G1 X193.426 Y29.809 E0.00551
G1 X193.245 Y29.622 E0.00816
G1 X193.103 Y29.380 E0.00879
G1 X193.046 Y29.214 E0.00551
G1 X193.008 Y28.962 E0.00799
G1 X193.014 Y28.787 E0.00548
G1 X193.070 Y28.539 E0.00799
G1 X193.140 Y28.378 E0.00548
G1 X193.282 Y28.165 E0.00804
G1 X193.405 Y28.042 E0.00544
G1 X193.618 Y27.893 E0.00816
G1 X193.879 Y27.791 E0.00880
G1 X194.052 Y27.762 E0.00549
G1 X194.311 Y27.763 E0.00811
G1 X194.562 Y27.825 E0.00812
G1 X194.722 Y27.896 E0.00546
G1 X194.931 Y28.042 E0.00801
G1 X195.054 Y28.166 E0.00546
G1 X195.209 Y28.401 E0.00885
G1 X195.296 Y28.646 E0.00815
G1 X195.325 Y28.819 E0.00548
G1 X195.318 Y29.074 E0.00799
G1 X195.281 Y29.245 E0.00548
G1 X195.183 Y29.480 E0.00799
G1 X195.087 Y29.626 E0.00548
G1 X194.910 Y29.809 E0.00799
G1 X194.766 Y29.911 E0.00551
G1 X194.511 Y30.026 E0.00878
G1 X194.255 Y30.074 E0.00816
G1 X194.080 Y30.074 E0.00548
G1 X193.824 Y30.026 E0.00816
G1 X193.624 Y29.936 E0.00690
G1 X193.417 Y30.000 F10800.000
;WIPE_START
G1 F8640.000
G1 X193.426 Y29.809 E-0.05426
G1 X193.245 Y29.622 E-0.06007
G1 X193.103 Y29.380 E-0.06472
G1 X193.046 Y29.214 E-0.04058
G1 X193.008 Y28.962 E-0.05885
G1 X193.014 Y28.787 E-0.04038
G1 X193.070 Y28.539 E-0.05885
G1 X193.140 Y28.378 E-0.04039
G1 X193.282 Y28.165 E-0.05923
G1 X193.405 Y28.042 E-0.04003
G1 X193.618 Y27.893 E-0.06012
G1 X193.879 Y27.791 E-0.06480
G1 X194.052 Y27.762 E-0.04044
G1 X194.311 Y27.763 E-0.05971
G1 X194.385 Y27.782 E-0.01759
;WIPE_END
G1 E-0.04000 F2100.000
G1 Z0.600 F10800.000
G1 X189.445 Y29.208
G1 Z0.200
G1 E0.80000 F2100.000
;TYPE:Perimeter
G1 F1200.000
G1 X189.366 Y29.584 E0.01207
G1 X189.185 Y30.013 E0.01460
G1 X188.974 Y30.335 E0.01207
G1 X188.651 Y30.670 E0.01460
G1 X188.332 Y30.897 E0.01227
G1 X187.852 Y31.113 E0.01651
G1 X187.360 Y31.205 E0.01568
G1 X186.975 Y31.205 E0.01207
G1 X186.484 Y31.113 E0.01568
G1 X186.003 Y30.897 E0.01651
G1 X185.685 Y30.670 E0.01227
G1 X185.338 Y30.311 E0.01566
G1 X185.071 Y29.855 E0.01656
G1 X184.943 Y29.486 E0.01225
G1 X184.873 Y29.026 E0.01460
G1 X184.888 Y28.641 E0.01207
G1 X184.989 Y28.187 E0.01460
G1 X185.143 Y27.834 E0.01208
G1 X185.403 Y27.444 E0.01468
G1 X185.674 Y27.173 E0.01202
G1 X186.081 Y26.888 E0.01558
G1 X186.577 Y26.695 E0.01669
G1 X186.960 Y26.630 E0.01217
G1 X187.451 Y26.633 E0.01540
G1 X187.929 Y26.751 E0.01543
G1 X188.280 Y26.906 E0.01204
G1 X188.661 Y27.173 E0.01461
G1 X188.935 Y27.448 E0.01216
G1 X189.229 Y27.893 E0.01673
G1 X189.396 Y28.362 E0.01561
G1 X189.459 Y28.742 E0.01207
G1 X189.447 Y29.148 E0.01272
G1 X189.070 Y29.137 F10800.000
G1 F1200.000
G1 X189.004 Y29.471 E0.01067
G1 X188.851 Y29.835 E0.01240
G1 X188.679 Y30.099 E0.00987
G1 X188.404 Y30.383 E0.01240
G1 X188.144 Y30.568 E0.01002
G1 X187.738 Y30.751 E0.01393
G1 X187.325 Y30.828 E0.01318
G1 X187.010 Y30.828 E0.00987
G1 X186.597 Y30.751 E0.01318
G1 X186.192 Y30.568 E0.01393
G1 X185.932 Y30.383 E0.01002
G1 X185.640 Y30.081 E0.01316
G1 X185.415 Y29.697 E0.01397
G1 X185.311 Y29.395 E0.01000
G1 X185.251 Y29.005 E0.01240
G1 X185.264 Y28.690 E0.00987
G1 X185.349 Y28.304 E0.01240
G1 X185.475 Y28.015 E0.00988
G1 X185.696 Y27.685 E0.01247
G1 X185.918 Y27.463 E0.00982
G1 X186.260 Y27.223 E0.01311
G1 X186.678 Y27.061 E0.01406
G1 X186.990 Y27.008 E0.00994
G1 X187.404 Y27.010 E0.01297
G1 X187.806 Y27.109 E0.01299
G1 X188.094 Y27.236 E0.00985
G1 X188.418 Y27.463 E0.01241
G1 X188.642 Y27.687 E0.00993
G1 X188.889 Y28.063 E0.01410
G1 X189.029 Y28.457 E0.01312
G1 X189.081 Y28.768 E0.00987
G1 X189.072 Y29.077 E0.00970
