; generated by PrusaSlicer 2.3.1+win64 on 2022-09-05 at 14:58:47 UTC

; 

; external perimeters extrusion width = 0.60mm
; perimeters extrusion width = 0.50mm
; infill extrusion width = 0.50mm
; solid infill extrusion width = 0.50mm
; top infill extrusion width = 0.45mm
; first layer extrusion width = 0.42mm

M73 P0 R32
M73 Q0 S32
M201 X1000 Y1000 Z200 E5000 ; sets maximum accelerations, mm/sec^2
M203 X200 Y200 Z12 E120 ; sets maximum feedrates, mm/sec
M204 P1250 R1250 T1250 ; sets acceleration (P, T) and retract acceleration (R), mm/sec^2
M205 X8.00 Y8.00 Z0.40 E4.50 ; sets the jerk limits, mm/sec
M205 S0 T0 ; sets the minimum extruding and travel feed rate, mm/sec
M107
;TYPE:Custom
M862.3 P "MK3S" ; printer model check
M862.1 P0.4 ; nozzle diameter check
M115 U3.9.3 ; tell printer latest fw version
G90 ; use absolute coordinates
M83 ; extruder relative mode
M104 S215 ; set extruder temp
M140 S67 ; set bed temp
M190 S67 ; wait for bed temp
M109 S215 ; wait for extruder temp
G28 W ; home all without mesh bed level
G80 ; mesh bed leveling
G1 Y-3.0 F1000.0 ; go outside print area
G92 E0.0
G1 X60.0 E9.0 F1000.0 ; intro line
G1 X100.0 E12.5 F1000.0 ; intro line
G92 E0.0
M221 S95

; Don't change E values below. Excessive value can damage the printer.

M907 E538 ; set extruder motor current
G21 ; set units to millimeters
G90 ; use absolute coordinates
M83 ; use relative distances for extrusion
M900 K0.05 ; Filament gcode LA 1.5
M900 K30 ; Filament gcode LA 1.0
;LAYER_CHANGE
;Z:0.2
;HEIGHT:0.2
;BEFORE_LAYER_CHANGE
G92 E0.0
;0.2


G1 E-0.80000 F2100.000
G1 Z0.400 F10800.000
;AFTER_LAYER_CHANGE
;0.2
; printing object x_tensioner.stl id:0 copy 0
G1 X177.334 Y43.304
G1 Z0.200
G1 E0.80000 F2100.000
M204 S1000
;TYPE:Perimeter
;WIDTH:0.42
G1 F1200.000
G1 X181.093 Y43.304 E0.11787
G1 X181.093 Y49.664 E0.19939
G1 X177.334 Y49.664 E0.11787
G1 X177.334 Y43.364 E0.19751
G1 X176.957 Y42.927 F10800.000
G1 F1200.000
G1 X181.470 Y42.927 E0.14152
G1 X181.470 Y50.041 E0.22304
G1 X176.957 Y50.041 E0.14152
G1 X176.957 Y42.987 E0.22116
G1 X176.580 Y42.550 F10800.000
G1 F1200.000
G1 X181.847 Y42.550 E0.16516
G1 X181.847 Y50.418 E0.24668
G1 X176.580 Y50.418 E0.16516
G1 X176.580 Y42.610 E0.24480
G1 X176.203 Y42.173 F10800.000
G1 F1200.000
G1 X182.224 Y42.173 E0.18881
G1 X182.224 Y50.795 E0.27033
G1 X176.203 Y50.795 E0.18881
G1 X176.203 Y42.233 E0.26845
G1 X175.825 Y41.796 F10800.000
G1 F1200.000
G1 X182.601 Y41.796 E0.21246
G1 X182.601 Y51.172 E0.29398
G1 X175.825 Y51.172 E0.21246
G1 X175.825 Y41.856 E0.29209
G1 X175.448 Y41.419 F10800.000
G1 F1200.000
G1 X182.978 Y41.419 E0.23610
G1 X182.978 Y51.549 E0.31762
G1 X175.448 Y51.549 E0.23610
G1 X175.448 Y41.479 E0.31574
G1 X175.071 Y41.042 F10800.000
G1 F1200.000
G1 X183.356 Y41.042 E0.25975
G1 X183.356 Y51.926 E0.34127
G1 X175.071 Y51.926 E0.25975
G1 X175.071 Y41.102 E0.33939
G1 X174.694 Y40.665 F10800.000
G1 F1200.000
G1 X183.733 Y40.665 E0.28339
G1 X183.733 Y52.303 E0.36491
G1 X174.694 Y52.303 E0.28339
M73 P1 R32
M73 Q1 S32
G1 X174.694 Y40.725 E0.36303
G1 X174.317 Y40.288 F10800.000
G1 F1200.000
G1 X184.110 Y40.288 E0.30704
G1 X184.110 Y52.680 E0.38856
G1 X174.317 Y52.680 E0.30704
G1 X174.317 Y40.348 E0.38668
;WIPE_START
G1 F8640.000
G1 X177.609 Y40.328 E-0.76000
;WIPE_END
G1 E-0.04000 F2100.000
G1 Z0.600 F10800.000
G1 X184.487 Y40.348
G1 Z0.200
G1 E0.80000 F2100.000
G1 F1200.000
G1 X184.487 Y40.207 E0.00440
G1 X197.040 Y40.207 E0.39360
G1 X197.040 Y52.761 E0.39360
G1 X184.487 Y52.761 E0.39360
G1 X184.487 Y40.408 E0.38732
G1 X184.864 Y40.585 F10800.000
G1 F1200.000
G1 X196.663 Y40.585 E0.36995
G1 X196.663 Y52.384 E0.36995
G1 X184.864 Y52.384 E0.36995
G1 X184.864 Y40.645 E0.36807
G1 X185.241 Y40.962 F10800.000
G1 F1200.000
G1 X196.286 Y40.962 E0.34631
G1 X196.286 Y52.007 E0.34631
G1 X185.241 Y52.007 E0.34631
G1 X185.241 Y41.022 E0.34443
G1 X185.618 Y41.339 F10800.000
G1 F1200.000
G1 X195.909 Y41.339 E0.32266
G1 X195.909 Y51.629 E0.32266
G1 X185.618 Y51.629 E0.32266
M73 P1 R31
G1 X185.618 Y41.399 E0.32078
G1 X185.995 Y41.716 F10800.000
G1 F1200.000
G1 X195.532 Y41.716 E0.29901
G1 X195.532 Y51.252 E0.29901
G1 X185.995 Y51.252 E0.29901
G1 X185.995 Y41.776 E0.29713
G1 X186.372 Y42.093 F10800.000
G1 F1200.000
G1 X195.155 Y42.093 E0.27537
G1 X195.155 Y50.875 E0.27537
G1 X186.372 Y50.875 E0.27537
G1 X186.372 Y42.153 E0.27349
G1 X186.749 Y42.470 F10800.000
G1 F1200.000
G1 X194.778 Y42.470 E0.25172
G1 X194.778 Y50.498 E0.25172
G1 X186.749 Y50.498 E0.25172
G1 X186.749 Y42.530 E0.24984
G1 X187.126 Y42.847 F10800.000
G1 F1200.000
G1 X194.401 Y42.847 E0.22808
G1 X194.401 Y50.121 E0.22808
G1 X187.126 Y50.121 E0.22808
M73 P2 R31
M73 Q2 S31
G1 X187.126 Y42.907 E0.22619
G1 X187.503 Y43.224 F10800.000
;TYPE:External perimeter
G1 F1200.000
G1 X194.023 Y43.224 E0.20443
G1 X194.023 Y49.744 E0.20443
G1 X187.503 Y49.744 E0.20443
G1 X187.503 Y43.284 E0.20255
G1 X187.400 Y42.838 F10800.000
;WIPE_START
G1 F8640.000
G1 X190.795 Y43.254 E-0.76000
;WIPE_END
G1 E-0.04000 F2100.000
G1 Z0.600 F10800.000
G1 X198.925 Y41.796
G1 Z0.200
G1 E0.80000 F2100.000
;TYPE:Perimeter
G1 F1200.000
G1 X198.951 Y41.796 E0.00081
G1 X198.951 Y51.172 E0.29398
G1 X198.925 Y51.172 E0.00081
G1 X198.925 Y41.856 E0.29209
G1 X198.548 Y41.419 F10800.000
G1 F1200.000
G1 X199.328 Y41.419 E0.02446
G1 X199.328 Y51.549 E0.31762
G1 X198.548 Y51.549 E0.02446
G1 X198.548 Y41.479 E0.31574
G1 X198.171 Y41.042 F10800.000
G1 F1200.000
G1 X199.706 Y41.042 E0.04811
G1 X199.706 Y51.926 E0.34127
G1 X198.171 Y51.926 E0.04811
G1 X198.171 Y41.102 E0.33939
G1 X197.794 Y40.665 F10800.000
G1 F1200.000
G1 X200.083 Y40.665 E0.07175
G1 X200.083 Y52.303 E0.36491
G1 X197.794 Y52.303 E0.07175
G1 X197.794 Y40.725 E0.36303
G1 X197.417 Y40.288 F10800.000
G1 F1200.000
G1 X200.460 Y40.288 E0.09540
G1 X200.460 Y52.680 E0.38856
G1 X197.417 Y52.680 E0.09540
G1 X197.417 Y40.348 E0.38668
;WIPE_START
G1 F8640.000
G1 X200.460 Y40.288 E-0.70268
G1 X200.460 Y40.536 E-0.05732
;WIPE_END
G1 E-0.04000 F2100.000
G1 Z0.600 F10800.000
G1 X159.601 Y41.796
G1 Z0.200
G1 E0.80000 F2100.000
G1 F1200.000
G1 X159.601 Y51.172 E0.29398
G1 X159.575 Y51.172 E0.00081
G1 X159.575 Y41.830 E0.29291
G1 X159.198 Y41.419 F10800.000
G1 F1200.000
G1 X159.978 Y41.419 E0.02446
G1 X159.978 Y51.549 E0.31762
G1 X159.198 Y51.549 E0.02446
G1 X159.198 Y41.479 E0.31574
G1 X158.821 Y41.042 F10800.000
G1 F1200.000
G1 X160.356 Y41.042 E0.04811
G1 X160.356 Y51.926 E0.34127
G1 X158.821 Y51.926 E0.04811
G1 X158.821 Y41.102 E0.33939
G1 X158.444 Y40.665 F10800.000
G1 F1200.000
G1 X160.733 Y40.665 E0.07175
G1 X160.733 Y52.303 E0.36491
G1 X158.444 Y52.303 E0.07175
G1 X158.444 Y40.725 E0.36303
G1 X158.067 Y40.288 F10800.000
G1 F1200.000
G1 X161.110 Y40.288 E0.09540
G1 X161.110 Y52.680 E0.38856
G1 X158.067 Y52.680 E0.09540
G1 X158.067 Y40.348 E0.38668
;WIPE_START
G1 F8640.000
G1 X161.110 Y40.288 E-0.70268
G1 X161.110 Y40.536 E-0.05732
;WIPE_END
G1 E-0.04000 F2100.000
G1 Z0.600 F10800.000
G1 X161.487 Y40.348
G1 Z0.200
G1 E0.80000 F2100.000
G1 F1200.000
G1 X161.487 Y40.257 E0.00283
G1 X173.940 Y40.257 E0.39046
G1 X173.940 Y52.711 E0.39046
G1 X161.487 Y52.711 E0.39046
G1 X161.487 Y40.408 E0.38575
G1 X161.864 Y40.635 F10800.000
G1 F1200.000
G1 X173.563 Y40.635 E0.36682
M73 P3 R31
M73 Q3 S31
G1 X173.563 Y52.334 E0.36682
G1 X161.864 Y52.334 E0.36682
G1 X161.864 Y40.695 E0.36494
G1 X162.241 Y41.012 F10800.000
G1 F1200.000
G1 X173.186 Y41.012 E0.34317
G1 X173.186 Y51.957 E0.34317
G1 X162.241 Y51.957 E0.34317
G1 X162.241 Y41.072 E0.34129
G1 X162.618 Y41.389 F10800.000
G1 F1200.000
G1 X172.809 Y41.389 E0.31953
G1 X172.809 Y51.579 E0.31953
G1 X162.618 Y51.579 E0.31953
G1 X162.618 Y41.449 E0.31764
G1 X162.995 Y41.766 F10800.000
G1 F1200.000
G1 X172.432 Y41.766 E0.29588
G1 X172.432 Y51.202 E0.29588
G1 X162.995 Y51.202 E0.29588
G1 X162.995 Y41.826 E0.29400
G1 X163.372 Y42.143 F10800.000
G1 F1200.000
G1 X172.055 Y42.143 E0.27223
G1 X172.055 Y50.825 E0.27223
G1 X163.372 Y50.825 E0.27223
G1 X163.372 Y42.203 E0.27035
G1 X163.749 Y42.520 F10800.000
G1 F1200.000
G1 X171.678 Y42.520 E0.24859
G1 X171.678 Y50.448 E0.24859
G1 X163.749 Y50.448 E0.24859
G1 X163.749 Y42.580 E0.24671
G1 X164.126 Y42.897 F10800.000
G1 F1200.000
G1 X171.301 Y42.897 E0.22494
G1 X171.301 Y50.071 E0.22494
G1 X164.126 Y50.071 E0.22494
G1 X164.126 Y42.957 E0.22306
G1 X164.503 Y43.274 F10800.000
;TYPE:External perimeter
G1 F1200.000
G1 X170.923 Y43.274 E0.20129
G1 X170.923 Y49.694 E0.20129
G1 X164.503 Y49.694 E0.20129
G1 X164.503 Y43.334 E0.19941
G1 X164.400 Y42.888 F10800.000
;WIPE_START
G1 F8640.000
G1 X167.795 Y43.303 E-0.76000
;WIPE_END
G1 E-0.04000 F2100.000
G1 Z0.600 F10800.000
G1 X157.690 Y39.911
G1 Z0.200
G1 E0.80000 F2100.000
;TYPE:Perimeter
G1 F1200.000
G1 X200.837 Y39.911 E1.35284
G1 X200.837 Y53.057 E0.41221
G1 X157.690 Y53.057 E1.35284
M73 P4 R31
M73 Q4 S31
G1 X157.690 Y39.971 E0.41033
G1 X157.313 Y39.534 F10800.000
G1 F1200.000
G1 X201.214 Y39.534 E1.37648
G1 X201.214 Y53.435 E0.43585
G1 X157.313 Y53.435 E1.37648
G1 X157.313 Y39.594 E0.43397
G1 X156.936 Y39.157 F10800.000
G1 F1200.000
G1 X201.591 Y39.157 E1.40013
G1 X201.591 Y53.812 E0.45950
G1 X156.936 Y53.812 E1.40013
G1 X156.936 Y39.217 E0.45762
G1 X156.559 Y38.779 F10800.000
G1 F1200.000
G1 X201.968 Y38.779 E1.42377
M73 P4 R30
G1 X201.968 Y54.189 E0.48314
G1 X156.559 Y54.189 E1.42377
G1 X156.559 Y38.839 E0.48126
M73 P5 R30
M73 Q5 S31
G1 X156.182 Y38.402 F10800.000
G1 F1200.000
G1 X202.345 Y38.402 E1.44742
M73 Q5 S30
G1 X202.345 Y54.566 E0.50679
G1 X156.182 Y54.566 E1.44742
G1 X156.182 Y38.462 E0.50491
G1 X155.805 Y38.025 F10800.000
G1 F1200.000
G1 X202.722 Y38.025 E1.47107
G1 X202.722 Y54.943 E0.53044
G1 X155.805 Y54.943 E1.47107
G1 X155.805 Y38.085 E0.52856
G1 X155.428 Y37.648 F10800.000
G1 F1200.000
G1 X203.099 Y37.648 E1.49471
G1 X203.099 Y55.320 E0.55408
G1 X155.428 Y55.320 E1.49471
G1 X155.428 Y37.708 E0.55220
M73 P6 R30
M73 Q6 S30
G1 X155.051 Y37.271 F10800.000
G1 F1200.000
G1 X203.476 Y37.271 E1.51836
G1 X203.476 Y55.697 E0.57773
G1 X155.051 Y55.697 E1.51836
G1 X155.051 Y37.331 E0.57585
G1 X154.673 Y36.894 F10800.000
;TYPE:External perimeter
G1 F1200.000
G1 X203.853 Y36.894 E1.54200
G1 X203.853 Y56.074 E0.60138
G1 X154.673 Y56.074 E1.54200
G1 X154.673 Y36.954 E0.59949
G1 X155.070 Y36.944 F10800.000
;WIPE_START
G1 F8640.000
G1 X157.965 Y36.950 E-0.76000
;WIPE_END
G1 E-0.04000 F2100.000
G1 Z0.600 F10800.000
G1 X180.206 Y43.418
G1 Z0.200
G1 E0.80000 F2100.000
;TYPE:Solid infill
;WIDTH:0.425605
G1 F1200.000
G1 X180.810 Y44.022 E0.02720
G1 X180.810 Y44.563 E0.01722
G1 X179.834 Y43.587 E0.04392
G1 X179.293 Y43.587 E0.01722
G1 X180.810 Y45.104 E0.06827
G1 X180.810 Y45.646 E0.01722
G1 X178.752 Y43.587 E0.09263
G1 X178.211 Y43.587 E0.01722
G1 X180.810 Y46.187 E0.11698
G1 X180.810 Y46.728 E0.01722
G1 X177.670 Y43.587 E0.14134
G1 X177.617 Y43.587 E0.00168
G1 X177.617 Y44.075 E0.01554
G1 X180.810 Y47.269 E0.14372
G1 X180.810 Y47.810 E0.01722
G1 X177.617 Y44.617 E0.14372
G1 X177.617 Y45.158 E0.01722
G1 X180.810 Y48.352 E0.14372
G1 X180.810 Y48.893 E0.01722
G1 X177.617 Y45.699 E0.14372
G1 X177.617 Y46.240 E0.01722
G1 X180.757 Y49.381 E0.14133
G1 X180.216 Y49.381 E0.01722
G1 X177.617 Y46.781 E0.11698
G1 X177.617 Y47.323 E0.01722
G1 X179.675 Y49.381 E0.09262
G1 X179.134 Y49.381 E0.01722
G1 X177.617 Y47.864 E0.06827
G1 X177.617 Y48.405 E0.01722
G1 X178.592 Y49.381 E0.04391
G1 X178.051 Y49.381 E0.01722
G1 X177.447 Y48.777 E0.02720
; stop printing object x_tensioner.stl id:0 copy 0
M106 S84.15
;LAYER_CHANGE
;Z:0.5
;HEIGHT:0.3
;BEFORE_LAYER_CHANGE
G92 E0.0
;0.5


;WIPE_START
G1 F8640.000
G1 X178.051 Y49.381 E-0.19735
G1 X178.592 Y49.381 E-0.12496
G1 X177.617 Y48.405 E-0.31867
G1 X177.617 Y47.890 E-0.11902
;WIPE_END
G1 E-0.04000 F2100.000
G1 Z0.600 F10800.000
;AFTER_LAYER_CHANGE
;0.5
M104 S210 ; set temperature
M140 S64 ; set bed temperature
; printing object x_tensioner.stl id:0 copy 0
G1 X178.269 Y48.729
G1 Z0.500
G1 E0.80000 F2100.000
M204 S800
;TYPE:Perimeter
;WIDTH:0.5
G1 F1800.000
G1 X178.269 Y44.240 E0.24390
G1 X180.158 Y44.240 E0.10263
G1 X180.158 Y48.729 E0.24390
G1 X178.329 Y48.729 E0.09937
M204 S1000
G1 X177.833 Y49.164 F10800.000
M204 S800
G1 F1800.000
G1 X177.833 Y43.804 E0.29123
G1 X180.594 Y43.804 E0.14997
G1 X180.594 Y49.164 E0.29123
G1 X177.893 Y49.164 E0.14671
M204 S1000
G1 X177.398 Y49.600 F10800.000
M204 S800
G1 F1800.000
G1 X177.398 Y43.368 E0.33857
M73 P7 R30
M73 Q7 S30
G1 X181.029 Y43.368 E0.19731
G1 X181.029 Y49.600 E0.33857
G1 X177.458 Y49.600 E0.19405
M204 S1000
G1 X176.962 Y50.035 F10800.000
M204 S800
G1 F1800.000
G1 X176.962 Y42.933 E0.38591
G1 X181.465 Y42.933 E0.24464
G1 X181.465 Y50.035 E0.38591
G1 X177.022 Y50.035 E0.24138
M204 S1000
G1 X176.526 Y50.471 F10800.000
M204 S800
G1 F1800.000
G1 X176.526 Y42.497 E0.43325
G1 X181.900 Y42.497 E0.29198
G1 X181.900 Y50.471 E0.43325
G1 X176.586 Y50.471 E0.28872
M204 S1000
G1 X176.091 Y50.907 F10800.000
M204 S800
G1 F1800.000
G1 X176.091 Y42.062 E0.48058
G1 X182.336 Y42.062 E0.33932
G1 X182.336 Y50.907 E0.48058
G1 X176.151 Y50.907 E0.33606
M204 S1000
G1 X175.655 Y51.342 F10800.000
M204 S800
G1 F1800.000
G1 X175.655 Y41.626 E0.52792
G1 X182.772 Y41.626 E0.38665
G1 X182.772 Y51.342 E0.52792
G1 X175.715 Y51.342 E0.38339
M204 S1000
G1 X175.220 Y51.778 F10800.000
M204 S800
G1 F1800.000
G1 X175.220 Y41.190 E0.57526
G1 X183.207 Y41.190 E0.43399
G1 X183.207 Y51.778 E0.57526
G1 X175.280 Y51.778 E0.43073
M204 S1000
G1 X174.784 Y52.214 F10800.000
M204 S800
G1 F1800.000
G1 X174.784 Y40.755 E0.62259
G1 X183.643 Y40.755 E0.48133
G1 X183.643 Y52.214 E0.62259
G1 X174.844 Y52.214 E0.47807
M204 S1000
G1 X174.348 Y52.649 F10800.000
M204 S800
G1 F3000.000
G1 X174.348 Y40.319 E0.66993
G1 X184.078 Y40.319 E0.52866
G1 X184.078 Y52.649 E0.66993
G1 X174.408 Y52.649 E0.52540
M204 S1000
;WIPE_START
G1 F8640.000
G1 X174.392 Y49.358 E-0.76000
;WIPE_END
G1 E-0.04000 F2100.000
G1 Z0.900 F10800.000
G1 X184.514 Y52.649
G1 Z0.500
G1 E0.80000 F2100.000
M204 S800
G1 F3000.000
G1 X184.514 Y40.235 E0.67451
G1 X197.013 Y40.235 E0.67909
G1 X197.013 Y52.733 E0.67909
G1 X184.514 Y52.733 E0.67909
G1 X184.514 Y52.709 E0.00132
M204 S1000
G1 X184.950 Y52.298 F10800.000
M204 S800
G1 F3000.000
G1 X184.950 Y40.670 E0.63175
G1 X196.577 Y40.670 E0.63175
G1 X196.577 Y52.298 E0.63175
G1 X185.010 Y52.298 E0.62849
M204 S1000
G1 X185.385 Y51.862 F10800.000
M204 S800
G1 F3000.000
G1 X185.385 Y41.106 E0.58441
G1 X196.142 Y41.106 E0.58441
G1 X196.142 Y51.862 E0.58441
G1 X185.445 Y51.862 E0.58115
M204 S1000
G1 X185.821 Y51.427 F10800.000
M204 S800
G1 F1800.000
G1 X185.821 Y41.542 E0.53708
G1 X195.706 Y41.542 E0.53708
G1 X195.706 Y51.427 E0.53708
G1 X185.881 Y51.427 E0.53382
M204 S1000
G1 X186.257 Y50.991 F10800.000
M204 S800
G1 F1800.000
G1 X186.257 Y41.977 E0.48974
G1 X195.270 Y41.977 E0.48974
G1 X195.270 Y50.991 E0.48974
G1 X186.317 Y50.991 E0.48648
M204 S1000
G1 X186.692 Y50.555 F10800.000
M204 S800
G1 F1800.000
G1 X186.692 Y42.413 E0.44240
G1 X194.835 Y42.413 E0.44240
G1 X194.835 Y50.555 E0.44240
G1 X186.752 Y50.555 E0.43914
M204 S1000
M73 P7 R29
G1 X187.128 Y50.120 F10800.000
M204 S800
G1 F1800.000
G1 X187.128 Y42.848 E0.39507
G1 X194.399 Y42.848 E0.39507
G1 X194.399 Y50.120 E0.39507
G1 X187.188 Y50.120 E0.39181
M204 S1000
G1 X187.613 Y49.634 F10800.000
M204 S800
;TYPE:External perimeter
;WIDTH:0.6
G1 F1800.000
G1 X187.613 Y43.334 E0.42087
G1 X193.913 Y43.334 E0.42087
G1 X193.913 Y49.634 E0.42087
G1 X187.673 Y49.634 E0.41687
M204 S1000
G1 X187.227 Y49.738 F10800.000
;WIPE_START
G1 F8640.000
G1 X187.642 Y46.343 E-0.76000
;WIPE_END
G1 E-0.04000 F2100.000
G1 Z0.900 F10800.000
G1 X198.755 Y51.342
G1 Z0.500
G1 E0.80000 F2100.000
M204 S800
;TYPE:Perimeter
;WIDTH:0.5
M73 P8 R29
G1 F1800.000
G1 X198.755 Y41.626 E0.52792
M73 Q8 S30
G1 X199.122 Y41.626 E0.01991
G1 X199.122 Y51.342 E0.52792
G1 X198.815 Y51.342 E0.01665
M204 S1000
G1 X198.320 Y51.778 F10800.000
M204 S800
G1 F1800.000
G1 X198.320 Y41.190 E0.57526
G1 X199.557 Y41.190 E0.06724
G1 X199.557 Y51.778 E0.57526
G1 X198.380 Y51.778 E0.06398
M204 S1000
G1 X197.884 Y52.214 F10800.000
M204 S800
G1 F1800.000
G1 X197.884 Y40.755 E0.62259
