; generated by PrusaSlicer 2.3.1+win64 on 2022-05-03 at 15:21:10 UTC

; 

; external perimeters extrusion width = 0.60mm
; perimeters extrusion width = 0.50mm
; infill extrusion width = 0.50mm
; solid infill extrusion width = 0.50mm
; top infill extrusion width = 0.45mm
; first layer extrusion width = 0.42mm

M73 P0 R67
M73 Q0 S67
M201 X1000 Y1000 Z200 E5000 ; sets maximum accelerations, mm/sec^2
M203 X200 Y200 Z12 E120 ; sets maximum feedrates, mm/sec
M204 P1250 R1250 T1250 ; sets acceleration (P, T) and retract acceleration (R), mm/sec^2
M205 X8.00 Y8.00 Z0.40 E4.50 ; sets the jerk limits, mm/sec
M205 S0 T0 ; sets the minimum extruding and travel feed rate, mm/sec
M107
;TYPE:Custom
M862.3 P "MK3S" ; printer model check
M862.1 P0.4 ; nozzle diameter check
M115 U3.9.3 ; tell printer latest fw version
G90 ; use absolute coordinates
M83 ; extruder relative mode
M104 S215 ; set extruder temp
M140 S67 ; set bed temp
M190 S67 ; wait for bed temp
M109 S215 ; wait for extruder temp
G28 W ; home all without mesh bed level
G80 ; mesh bed leveling
G1 Y-3.0 F1000.0 ; go outside print area
G92 E0.0
G1 X60.0 E9.0 F1000.0 ; intro line
G1 X100.0 E12.5 F1000.0 ; intro line
G92 E0.0
M221 S95

; Don't change E values below. Excessive value can damage the printer.

M907 E538 ; set extruder motor current
G21 ; set units to millimeters
G90 ; use absolute coordinates
M83 ; use relative distances for extrusion
M900 K0.05 ; Filament gcode LA 1.5
M900 K30 ; Filament gcode LA 1.0
;LAYER_CHANGE
;Z:0.2
;HEIGHT:0.2
;BEFORE_LAYER_CHANGE
G92 E0.0
;0.2


G1 E-0.80000 F2100.000
G1 Z0.400 F10800.000
;AFTER_LAYER_CHANGE
;0.2
; printing object x_tube_support.stl id:0 copy 0
G1 X135.797 Y102.372
G1 Z0.200
G1 E0.80000 F2100.000
M204 S1000
;TYPE:Perimeter
;WIDTH:0.42
G1 F1200.000
G1 X136.070 Y102.070 E0.01275
G1 X136.372 Y101.797 E0.01275
G1 X136.698 Y101.555 E0.01275
G1 X137.047 Y101.346 E0.01275
G1 X137.415 Y101.172 E0.01275
G1 X137.797 Y101.035 E0.01275
G1 X138.192 Y100.937 E0.01275
G1 X138.594 Y100.877 E0.01275
G1 X138.983 Y100.858 E0.01221
G1 X139.403 Y100.876 E0.01319
G1 X139.808 Y100.937 E0.01285
G1 X140.203 Y101.035 E0.01275
G1 X140.585 Y101.172 E0.01275
G1 X140.953 Y101.346 E0.01275
G1 X141.302 Y101.555 E0.01275
G1 X141.628 Y101.797 E0.01275
G1 X141.930 Y102.070 E0.01275
G1 X142.203 Y102.372 E0.01275
G1 X142.445 Y102.698 E0.01275
G1 X142.654 Y103.047 E0.01275
G1 X142.828 Y103.415 E0.01275
G1 X142.965 Y103.797 E0.01275
G1 X143.063 Y104.192 E0.01275
G1 X143.123 Y104.594 E0.01275
G1 X143.143 Y105.000 E0.01275
G1 X143.123 Y105.406 E0.01275
G1 X143.063 Y105.808 E0.01275
G1 X142.965 Y106.203 E0.01275
G1 X142.828 Y106.585 E0.01275
G1 X142.654 Y106.953 E0.01275
G1 X142.445 Y107.302 E0.01275
G1 X142.203 Y107.628 E0.01275
G1 X141.930 Y107.930 E0.01275
G1 X141.628 Y108.203 E0.01275
G1 X141.302 Y108.445 E0.01275
G1 X140.953 Y108.654 E0.01275
G1 X140.585 Y108.828 E0.01275
G1 X140.203 Y108.965 E0.01275
G1 X139.808 Y109.063 E0.01275
G1 X139.406 Y109.123 E0.01275
G1 X139.000 Y109.143 E0.01275
G1 X138.594 Y109.123 E0.01275
G1 X138.192 Y109.063 E0.01275
G1 X137.797 Y108.965 E0.01275
G1 X137.415 Y108.828 E0.01275
G1 X137.047 Y108.654 E0.01275
G1 X136.698 Y108.445 E0.01275
G1 X136.372 Y108.203 E0.01275
G1 X136.070 Y107.930 E0.01275
G1 X135.797 Y107.628 E0.01275
G1 X135.555 Y107.302 E0.01275
G1 X135.346 Y106.953 E0.01275
G1 X135.172 Y106.585 E0.01275
G1 X135.035 Y106.203 E0.01275
G1 X134.937 Y105.808 E0.01275
G1 X134.877 Y105.406 E0.01275
G1 X134.857 Y105.000 E0.01275
G1 X134.877 Y104.594 E0.01275
G1 X134.937 Y104.192 E0.01275
G1 X135.035 Y103.797 E0.01275
G1 X135.172 Y103.415 E0.01275
G1 X135.346 Y103.047 E0.01275
G1 X135.555 Y102.698 E0.01275
G1 X135.762 Y102.420 E0.01087
G1 X136.064 Y102.644 F10800.000
G1 F1200.000
G1 X136.337 Y102.337 E0.01288
G1 X136.611 Y102.089 E0.01159
G1 X136.908 Y101.869 E0.01159
G1 X137.225 Y101.679 E0.01159
G1 X137.559 Y101.521 E0.01159
G1 X137.907 Y101.397 E0.01159
G1 X138.265 Y101.307 E0.01159
G1 X138.631 Y101.253 E0.01159
G1 X138.984 Y101.235 E0.01107
G1 X139.367 Y101.252 E0.01203
G1 X139.735 Y101.307 E0.01166
G1 X140.093 Y101.397 E0.01159
G1 X140.441 Y101.521 E0.01159
G1 X140.775 Y101.679 E0.01159
G1 X141.092 Y101.869 E0.01159
G1 X141.389 Y102.089 E0.01159
G1 X141.663 Y102.337 E0.01159
G1 X141.911 Y102.611 E0.01159
G1 X142.131 Y102.908 E0.01159
G1 X142.321 Y103.225 E0.01159
G1 X142.479 Y103.559 E0.01159
G1 X142.603 Y103.907 E0.01159
G1 X142.693 Y104.265 E0.01159
G1 X142.747 Y104.631 E0.01159
G1 X142.766 Y105.000 E0.01159
G1 X142.747 Y105.369 E0.01159
G1 X142.693 Y105.735 E0.01159
G1 X142.603 Y106.093 E0.01159
G1 X142.479 Y106.441 E0.01159
G1 X142.321 Y106.775 E0.01159
G1 X142.131 Y107.092 E0.01159
G1 X141.911 Y107.389 E0.01159
G1 X141.663 Y107.663 E0.01159
G1 X141.389 Y107.911 E0.01159
G1 X141.092 Y108.131 E0.01159
G1 X140.775 Y108.321 E0.01159
G1 X140.441 Y108.479 E0.01159
G1 X140.093 Y108.603 E0.01159
G1 X139.735 Y108.693 E0.01159
G1 X139.369 Y108.747 E0.01159
G1 X139.000 Y108.766 E0.01159
G1 X138.631 Y108.747 E0.01159
G1 X138.265 Y108.693 E0.01159
G1 X137.907 Y108.603 E0.01159
G1 X137.559 Y108.479 E0.01159
G1 X137.225 Y108.321 E0.01159
G1 X136.908 Y108.131 E0.01159
G1 X136.611 Y107.911 E0.01159
G1 X136.337 Y107.663 E0.01159
G1 X136.089 Y107.389 E0.01159
G1 X135.869 Y107.092 E0.01159
G1 X135.679 Y106.775 E0.01159
G1 X135.521 Y106.441 E0.01159
G1 X135.397 Y106.093 E0.01159
G1 X135.307 Y105.735 E0.01159
G1 X135.253 Y105.369 E0.01159
G1 X135.234 Y105.000 E0.01159
G1 X135.253 Y104.631 E0.01159
G1 X135.307 Y104.265 E0.01159
G1 X135.397 Y103.907 E0.01159
G1 X135.521 Y103.559 E0.01159
G1 X135.679 Y103.225 E0.01159
G1 X135.869 Y102.908 E0.01159
G1 X136.029 Y102.693 E0.00840
G1 X136.332 Y102.917 F10800.000
G1 F1200.000
G1 X136.604 Y102.604 E0.01302
G1 X136.851 Y102.381 E0.01042
G1 X137.118 Y102.183 E0.01042
G1 X137.403 Y102.012 E0.01042
G1 X137.703 Y101.870 E0.01042
G1 X138.017 Y101.758 E0.01042
G1 X138.339 Y101.677 E0.01042
G1 X138.668 Y101.628 E0.01042
G1 X138.985 Y101.613 E0.00994
G1 X139.331 Y101.628 E0.01086
G1 X139.661 Y101.677 E0.01047
G1 X139.983 Y101.758 E0.01042
G1 X140.297 Y101.870 E0.01042
G1 X140.597 Y102.012 E0.01042
G1 X140.882 Y102.183 E0.01042
G1 X141.149 Y102.381 E0.01042
G1 X141.396 Y102.604 E0.01042
G1 X141.619 Y102.851 E0.01042
G1 X141.817 Y103.118 E0.01042
G1 X141.988 Y103.403 E0.01042
G1 X142.130 Y103.703 E0.01042
G1 X142.242 Y104.017 E0.01042
G1 X142.323 Y104.339 E0.01042
G1 X142.372 Y104.668 E0.01042
G1 X142.388 Y105.000 E0.01042
G1 X142.372 Y105.332 E0.01042
G1 X142.323 Y105.661 E0.01042
G1 X142.242 Y105.983 E0.01042
G1 X142.130 Y106.297 E0.01042
G1 X141.988 Y106.597 E0.01042
G1 X141.817 Y106.882 E0.01042
G1 X141.619 Y107.149 E0.01042
G1 X141.396 Y107.396 E0.01042
G1 X141.149 Y107.619 E0.01042
G1 X140.882 Y107.817 E0.01042
G1 X140.597 Y107.988 E0.01042
G1 X140.297 Y108.130 E0.01042
G1 X139.983 Y108.242 E0.01042
G1 X139.661 Y108.323 E0.01042
G1 X139.332 Y108.372 E0.01042
G1 X139.000 Y108.388 E0.01042
G1 X138.668 Y108.372 E0.01042
G1 X138.339 Y108.323 E0.01042
G1 X138.017 Y108.242 E0.01042
G1 X137.703 Y108.130 E0.01042
G1 X137.403 Y107.988 E0.01042
G1 X137.118 Y107.817 E0.01042
G1 X136.851 Y107.619 E0.01042
G1 X136.604 Y107.396 E0.01042
G1 X136.381 Y107.149 E0.01042
G1 X136.183 Y106.882 E0.01042
G1 X136.012 Y106.597 E0.01042
G1 X135.870 Y106.297 E0.01042
G1 X135.758 Y105.983 E0.01042
G1 X135.677 Y105.661 E0.01042
G1 X135.628 Y105.332 E0.01042
G1 X135.612 Y105.000 E0.01042
G1 X135.628 Y104.668 E0.01042
G1 X135.677 Y104.339 E0.01042
G1 X135.758 Y104.017 E0.01042
G1 X135.870 Y103.703 E0.01042
G1 X136.012 Y103.403 E0.01042
G1 X136.296 Y102.965 E0.01635
G1 X136.599 Y103.190 F10800.000
;TYPE:External perimeter
G1 F1200.000
G1 X136.871 Y102.871 E0.01315
G1 X137.090 Y102.673 E0.00926
G1 X137.327 Y102.497 E0.00926
G1 X137.581 Y102.345 E0.00926
G1 X137.848 Y102.219 E0.00926
G1 X138.126 Y102.119 E0.00926
G1 X138.413 Y102.047 E0.00926
G1 X138.705 Y102.004 E0.00926
G1 X138.985 Y101.990 E0.00881
G1 X139.295 Y102.004 E0.00970
G1 X139.587 Y102.047 E0.00928
G1 X139.874 Y102.119 E0.00926
G1 X140.152 Y102.219 E0.00926
G1 X140.419 Y102.345 E0.00926
G1 X140.673 Y102.497 E0.00926
G1 X140.910 Y102.673 E0.00926
G1 X141.129 Y102.871 E0.00926
G1 X141.327 Y103.090 E0.00926
G1 X141.503 Y103.327 E0.00926
G1 X141.655 Y103.581 E0.00926
G1 X141.781 Y103.848 E0.00926
G1 X141.881 Y104.126 E0.00926
G1 X141.953 Y104.413 E0.00926
G1 X141.996 Y104.705 E0.00926
G1 X142.010 Y105.000 E0.00926
G1 X141.996 Y105.295 E0.00926
G1 X141.953 Y105.587 E0.00926
G1 X141.881 Y105.874 E0.00926
G1 X141.781 Y106.152 E0.00926
G1 X141.655 Y106.419 E0.00926
G1 X141.503 Y106.673 E0.00926
G1 X141.327 Y106.910 E0.00926
G1 X141.129 Y107.129 E0.00926
G1 X140.910 Y107.327 E0.00926
G1 X140.673 Y107.503 E0.00926
G1 X140.419 Y107.655 E0.00926
G1 X140.152 Y107.781 E0.00926
G1 X139.874 Y107.881 E0.00926
G1 X139.587 Y107.953 E0.00926
G1 X139.295 Y107.996 E0.00926
G1 X139.000 Y108.010 E0.00926
G1 X138.705 Y107.996 E0.00926
G1 X138.413 Y107.953 E0.00926
G1 X138.126 Y107.881 E0.00926
G1 X137.848 Y107.781 E0.00926
G1 X137.581 Y107.655 E0.00926
G1 X137.327 Y107.503 E0.00926
G1 X137.090 Y107.327 E0.00926
G1 X136.871 Y107.129 E0.00926
G1 X136.673 Y106.910 E0.00926
G1 X136.497 Y106.673 E0.00926
G1 X136.345 Y106.419 E0.00926
G1 X136.219 Y106.152 E0.00926
G1 X136.119 Y105.874 E0.00926
G1 X136.047 Y105.587 E0.00926
G1 X136.004 Y105.295 E0.00926
G1 X135.990 Y105.000 E0.00926
G1 X136.004 Y104.705 E0.00926
G1 X136.047 Y104.413 E0.00926
G1 X136.119 Y104.126 E0.00926
G1 X136.219 Y103.848 E0.00926
G1 X136.345 Y103.581 E0.00926
G1 X136.563 Y103.238 E0.01273
G1 X136.443 Y102.822 F10800.000
;WIPE_START
G1 F8640.000
G1 X136.871 Y102.871 E-0.11068
G1 X137.090 Y102.673 E-0.06822
G1 X137.327 Y102.497 E-0.06822
G1 X137.581 Y102.345 E-0.06822
G1 X137.848 Y102.219 E-0.06822
G1 X138.126 Y102.119 E-0.06822
G1 X138.413 Y102.047 E-0.06822
G1 X138.705 Y102.004 E-0.06822
G1 X138.985 Y101.990 E-0.06485
G1 X139.295 Y102.004 E-0.07145
G1 X139.447 Y102.026 E-0.03550
;WIPE_END
G1 E-0.04000 F2100.000
G1 Z0.600 F10800.000
G1 X119.205 Y99.205
G1 Z0.200
G1 E0.80000 F2100.000
;TYPE:Perimeter
G1 F1200.000
G1 X130.795 Y99.205 E0.36342
G1 X130.795 Y110.795 E0.36342
G1 X119.205 Y110.795 E0.36342
G1 X119.205 Y99.265 E0.36154
G1 X119.582 Y99.582 F10800.000
G1 F1200.000
G1 X130.418 Y99.582 E0.33977
G1 X130.418 Y110.418 E0.33977
G1 X119.582 Y110.418 E0.33977
G1 X119.582 Y99.642 E0.33789
G1 X119.959 Y99.959 F10800.000
G1 F1200.000
G1 X130.041 Y99.959 E0.31613
G1 X130.041 Y110.041 E0.31613
G1 X119.959 Y110.041 E0.31613
G1 X119.959 Y100.019 E0.31425
G1 X120.336 Y100.336 F10800.000
G1 F1200.000
G1 X129.664 Y100.336 E0.29248
G1 X129.664 Y109.664 E0.29248
G1 X120.336 Y109.664 E0.29248
G1 X120.336 Y100.396 E0.29060
G1 X120.713 Y100.713 F10800.000
G1 F1200.000
G1 X129.287 Y100.713 E0.26884
G1 X129.287 Y109.287 E0.26884
G1 X120.713 Y109.287 E0.26884
G1 X120.713 Y100.773 E0.26696
G1 X121.090 Y101.090 F10800.000
;TYPE:External perimeter
G1 F1200.000
G1 X128.910 Y101.090 E0.24519
G1 X128.910 Y108.910 E0.24519
G1 X121.090 Y108.910 E0.24519
G1 X121.090 Y101.150 E0.24331
G1 X120.986 Y100.704 F10800.000
;WIPE_START
G1 F8640.000
G1 X124.381 Y101.125 E-0.76000
;WIPE_END
G1 E-0.04000 F2100.000
G1 Z0.600 F10800.000
G1 X107.295 Y101.802
G1 Z0.200
G1 E0.80000 F2100.000
;TYPE:Perimeter
G1 F1200.000
G1 X107.295 Y92.295 E0.29809
G1 X142.705 Y92.295 E1.11023
G1 X142.705 Y101.802 E0.29809
G1 X142.464 Y101.536 E0.01126
G1 X142.107 Y101.214 E0.01507
G1 X141.721 Y100.927 E0.01507
G1 X141.309 Y100.680 E0.01507
G1 X140.874 Y100.475 E0.01507
G1 X140.422 Y100.313 E0.01507
G1 X139.956 Y100.196 E0.01507
G1 X139.475 Y100.125 E0.01523
G1 X138.981 Y100.103 E0.01551
G1 X138.520 Y100.125 E0.01447
G1 X138.044 Y100.196 E0.01507
G1 X137.578 Y100.313 E0.01507
G1 X137.126 Y100.475 E0.01507
G1 X136.691 Y100.680 E0.01507
G1 X136.279 Y100.927 E0.01507
G1 X135.893 Y101.214 E0.01507
G1 X135.536 Y101.536 E0.01507
G1 X135.214 Y101.893 E0.01507
G1 X134.927 Y102.279 E0.01507
G1 X134.680 Y102.691 E0.01507
G1 X134.475 Y103.126 E0.01507
G1 X134.313 Y103.578 E0.01507
G1 X134.196 Y104.044 E0.01507
G1 X134.125 Y104.520 E0.01507
G1 X134.102 Y105.000 E0.01507
G1 X134.125 Y105.480 E0.01507
G1 X134.196 Y105.956 E0.01507
G1 X134.313 Y106.422 E0.01507
G1 X134.475 Y106.874 E0.01507
G1 X134.680 Y107.309 E0.01507
G1 X134.927 Y107.721 E0.01507
G1 X135.214 Y108.107 E0.01507
G1 X135.536 Y108.464 E0.01507
G1 X135.893 Y108.786 E0.01507
G1 X136.279 Y109.073 E0.01507
G1 X136.691 Y109.320 E0.01507
G1 X137.126 Y109.525 E0.01507
G1 X137.578 Y109.687 E0.01507
G1 X138.044 Y109.804 E0.01507
G1 X138.520 Y109.875 E0.01507
G1 X139.000 Y109.898 E0.01507
G1 X139.480 Y109.875 E0.01507
G1 X139.956 Y109.804 E0.01507
G1 X140.422 Y109.687 E0.01507
G1 X140.874 Y109.525 E0.01507
G1 X141.309 Y109.320 E0.01507
G1 X141.721 Y109.073 E0.01507
G1 X142.107 Y108.786 E0.01507
G1 X142.464 Y108.464 E0.01507
G1 X142.705 Y108.198 E0.01126
G1 X142.705 Y117.705 E0.29809
G1 X107.295 Y117.705 E1.11023
M73 P0 R66
G1 X107.295 Y108.198 E0.29809
G1 X107.536 Y108.464 E0.01126
G1 X107.893 Y108.786 E0.01507
G1 X108.279 Y109.073 E0.01507
G1 X108.691 Y109.320 E0.01507
G1 X109.126 Y109.525 E0.01507
G1 X109.578 Y109.687 E0.01507
G1 X110.044 Y109.804 E0.01507
G1 X110.520 Y109.875 E0.01507
G1 X111.000 Y109.898 E0.01507
G1 X111.480 Y109.875 E0.01507
G1 X111.956 Y109.804 E0.01507
G1 X112.422 Y109.687 E0.01507
G1 X112.874 Y109.525 E0.01507
G1 X113.309 Y109.320 E0.01507
G1 X113.721 Y109.073 E0.01507
G1 X114.107 Y108.786 E0.01507
G1 X114.464 Y108.464 E0.01507
G1 X114.786 Y108.107 E0.01507
G1 X115.073 Y107.721 E0.01507
G1 X115.320 Y107.309 E0.01507
G1 X115.525 Y106.874 E0.01507
G1 X115.687 Y106.422 E0.01507
G1 X115.804 Y105.956 E0.01507
G1 X115.875 Y105.480 E0.01507
G1 X115.898 Y105.000 E0.01507
G1 X115.875 Y104.520 E0.01507
G1 X115.804 Y104.044 E0.01507
G1 X115.687 Y103.578 E0.01507
G1 X115.525 Y103.126 E0.01507
G1 X115.320 Y102.691 E0.01507
G1 X115.073 Y102.279 E0.01507
G1 X114.786 Y101.893 E0.01507
G1 X114.464 Y101.536 E0.01507
G1 X114.107 Y101.214 E0.01507
G1 X113.721 Y100.927 E0.01507
G1 X113.309 Y100.680 E0.01507
G1 X112.874 Y100.475 E0.01507
G1 X112.422 Y100.313 E0.01507
G1 X111.956 Y100.196 E0.01507
G1 X111.475 Y100.125 E0.01523
G1 X110.981 Y100.103 E0.01551
G1 X110.520 Y100.125 E0.01447
G1 X110.044 Y100.196 E0.01507
G1 X109.578 Y100.313 E0.01507
G1 X109.126 Y100.475 E0.01507
G1 X108.691 Y100.680 E0.01507
G1 X108.279 Y100.927 E0.01507
G1 X107.893 Y101.214 E0.01507
G1 X107.536 Y101.536 E0.01507
G1 X107.336 Y101.758 E0.00937
;WIPE_START
G1 F8640.000
G1 X107.322 Y98.467 E-0.76000
;WIPE_END
G1 E-0.04000 F2100.000
G1 Z0.600 F10800.000
G1 X106.918 Y103.070
G1 Z0.200
G1 E0.80000 F2100.000
G1 F1200.000
G1 X106.918 Y91.918 E0.34964
G1 X143.082 Y91.918 E1.13388
G1 X143.082 Y103.070 E0.34964
G1 X142.987 Y102.869 E0.00696
G1 X142.759 Y102.488 E0.01391
G1 X142.494 Y102.132 E0.01391
G1 X142.197 Y101.803 E0.01391
G1 X141.868 Y101.506 E0.01391
G1 X141.512 Y101.241 E0.01391
G1 X141.131 Y101.013 E0.01391
G1 X140.730 Y100.823 E0.01391
G1 X140.312 Y100.674 E0.01391
G1 X139.882 Y100.566 E0.01391
G1 X139.439 Y100.501 E0.01404
G1 X138.982 Y100.480 E0.01435
G1 X138.557 Y100.501 E0.01334
G1 X138.118 Y100.566 E0.01391
G1 X137.688 Y100.674 E0.01391
G1 X137.270 Y100.823 E0.01391
G1 X136.869 Y101.013 E0.01391
G1 X136.488 Y101.241 E0.01391
G1 X136.132 Y101.506 E0.01391
G1 X135.803 Y101.803 E0.01391
G1 X135.506 Y102.132 E0.01391
G1 X135.241 Y102.488 E0.01391
G1 X135.013 Y102.869 E0.01391
G1 X134.823 Y103.270 E0.01391
G1 X134.674 Y103.688 E0.01391
G1 X134.566 Y104.118 E0.01391
G1 X134.501 Y104.557 E0.01391
M73 Q0 S66
G1 X134.479 Y105.000 E0.01391
G1 X134.501 Y105.443 E0.01391
G1 X134.566 Y105.882 E0.01391
G1 X134.674 Y106.312 E0.01391
G1 X134.823 Y106.730 E0.01391
G1 X135.013 Y107.131 E0.01391
G1 X135.241 Y107.512 E0.01391
G1 X135.506 Y107.868 E0.01391
G1 X135.803 Y108.197 E0.01391
G1 X136.132 Y108.494 E0.01391
G1 X136.488 Y108.759 E0.01391
G1 X136.869 Y108.987 E0.01391
G1 X137.270 Y109.177 E0.01391
G1 X137.688 Y109.326 E0.01391
G1 X138.118 Y109.434 E0.01391
