; generated by PrusaSlicer 2.3.1+win64 on 2022-06-08 at 21:15:32 UTC

; 

; external perimeters extrusion width = 0.60mm
; perimeters extrusion width = 0.50mm
; infill extrusion width = 0.50mm
; solid infill extrusion width = 0.50mm
; top infill extrusion width = 0.45mm
; support material extrusion width = 0.38mm
; first layer extrusion width = 0.42mm

M73 P0 R82
M73 Q0 S82
M201 X1000 Y1000 Z200 E5000 ; sets maximum accelerations, mm/sec^2
M203 X200 Y200 Z12 E120 ; sets maximum feedrates, mm/sec
M204 P1250 R1250 T1250 ; sets acceleration (P, T) and retract acceleration (R), mm/sec^2
M205 X8.00 Y8.00 Z0.40 E4.50 ; sets the jerk limits, mm/sec
M205 S0 T0 ; sets the minimum extruding and travel feed rate, mm/sec
M107
;TYPE:Custom
M862.3 P "MK3S" ; printer model check
M862.1 P0.4 ; nozzle diameter check
M115 U3.9.3 ; tell printer latest fw version
G90 ; use absolute coordinates
M83 ; extruder relative mode
M104 S215 ; set extruder temp
M140 S67 ; set bed temp
M190 S67 ; wait for bed temp
M109 S215 ; wait for extruder temp
G28 W ; home all without mesh bed level
G80 ; mesh bed leveling
G1 Y-3.0 F1000.0 ; go outside print area
G92 E0.0
G1 X60.0 E9.0 F1000.0 ; intro line
G1 X100.0 E12.5 F1000.0 ; intro line
G92 E0.0
M221 S95

; Don't change E values below. Excessive value can damage the printer.

M907 E538 ; set extruder motor current
G21 ; set units to millimeters
G90 ; use absolute coordinates
M83 ; use relative distances for extrusion
M900 K0.05 ; Filament gcode LA 1.5
M900 K30 ; Filament gcode LA 1.0
;LAYER_CHANGE
;Z:0.2
;HEIGHT:0.2
;BEFORE_LAYER_CHANGE
G92 E0.0
;0.2


M73 P0 R81
G1 E-0.80000 F2100.000
G1 Z0.400 F10800.000
;AFTER_LAYER_CHANGE
;0.2
; printing object y_drag_support.stl id:1 copy 0
G1 X149.200 Y56.906
G1 Z0.200
G1 E0.80000 F2100.000
M204 S1000
;TYPE:Support material interface
;WIDTH:0.38
G1 F1200.000
G1 X149.200 Y59.505 E0.07287
;WIPE_START
G1 F8640.000
G1 X149.200 Y56.906 E-0.60028
;WIPE_END
G1 E-0.19972 F2100.000
G1 Z0.600 F10800.000
G1 X152.395 Y53.909
G1 Z0.200
G1 E0.80000 F2100.000
;TYPE:Support material
;WIDTH:0.42
G1 F1200.000
G1 X152.395 Y56.637 E0.08555
G1 X151.641 Y56.637 E0.02365
G1 X151.641 Y54.078 E0.08023
G1 X150.887 Y54.078 E0.02365
G1 X150.887 Y56.637 E0.08023
G1 X150.202 Y56.637 E0.02146
G1 X150.132 Y56.701 E0.00297
G1 X150.132 Y54.078 E0.08224
G1 X149.378 Y54.078 E0.02365
G1 X149.378 Y56.701 E0.08224
G1 X148.624 Y56.701 E0.02365
G1 X148.624 Y54.078 E0.08224
G1 X147.870 Y54.078 E0.02365
G1 X147.870 Y83.173 E0.91224
G1 X148.624 Y83.173 E0.02365
G1 X148.624 Y80.550 E0.08224
G1 X149.378 Y80.550 E0.02365
G1 X149.378 Y83.173 E0.08224
G1 X150.132 Y83.173 E0.02365
G1 X150.132 Y80.550 E0.08224
G1 X150.202 Y80.614 E0.00297
G1 X150.887 Y80.614 E0.02146
G1 X150.887 Y83.173 E0.08023
G1 X151.641 Y83.173 E0.02365
G1 X151.641 Y80.614 E0.08023
G1 X152.395 Y80.614 E0.02365
G1 X152.395 Y83.343 E0.08555
G1 X146.362 Y83.343 F10800.000
G1 F1200.000
G1 X146.362 Y54.078 E0.91756
G1 X147.116 Y54.078 E0.02365
G1 X147.116 Y83.343 E0.91756
;WIPE_START
G1 F8640.000
G1 X147.116 Y80.051 E-0.76000
;WIPE_END
G1 E-0.04000 F2100.000
G1 Z0.600 F10800.000
G1 X149.200 Y80.346
G1 Z0.200
G1 E0.80000 F2100.000
;TYPE:Support material interface
;WIDTH:0.38
G1 F1200.000
G1 X149.200 Y77.746 E0.07287
G1 X149.378 Y77.712 F10800.000
;TYPE:Support material
;WIDTH:0.42
G1 F1200.000
G1 X149.378 Y59.710 E0.56444
G1 X148.624 Y59.710 E0.02365
G1 X148.624 Y77.712 E0.56444
;WIPE_START
G1 F8640.000
G1 X148.624 Y74.420 E-0.76000
;WIPE_END
G1 E-0.04000 F2100.000
G1 Z0.600 F10800.000
G1 X188.454 Y69.583
G1 Z0.200
G1 E0.80000 F2100.000
;TYPE:Perimeter
G1 F1200.000
G1 X188.359 Y69.109 E0.01518
G1 X188.328 Y68.626 E0.01518
G1 X188.359 Y68.143 E0.01518
G1 X188.454 Y67.668 E0.01518
G1 X188.609 Y67.210 E0.01518
G1 X188.823 Y66.776 E0.01518
G1 X189.092 Y66.373 E0.01518
G1 X189.412 Y66.009 E0.01518
G1 X189.775 Y65.690 E0.01518
G1 X190.178 Y65.421 E0.01518
G1 X190.612 Y65.207 E0.01518
G1 X191.070 Y65.051 E0.01518
G1 X191.545 Y64.957 E0.01518
G1 X191.999 Y64.927 E0.01427
G1 X192.500 Y64.955 E0.01574
G1 X192.986 Y65.051 E0.01552
G1 X193.444 Y65.207 E0.01518
G1 X193.878 Y65.421 E0.01518
G1 X194.257 Y65.674 E0.01427
G1 X194.637 Y66.001 E0.01574
G1 X194.964 Y66.373 E0.01552
G1 X195.233 Y66.776 E0.01518
G1 X195.447 Y67.210 E0.01518
G1 X195.602 Y67.668 E0.01518
G1 X195.697 Y68.143 E0.01518
G1 X195.728 Y68.626 E0.01518
G1 X195.697 Y69.109 E0.01518
G1 X195.602 Y69.583 E0.01518
G1 X195.447 Y70.042 E0.01518
G1 X195.233 Y70.476 E0.01518
G1 X194.980 Y70.854 E0.01427
G1 X194.653 Y71.235 E0.01574
G1 X194.281 Y71.561 E0.01552
G1 X193.878 Y71.830 E0.01518
G1 X193.444 Y72.044 E0.01518
G1 X192.986 Y72.200 E0.01518
G1 X192.511 Y72.294 E0.01518
G1 X192.028 Y72.326 E0.01518
G1 X191.545 Y72.294 E0.01518
G1 X191.099 Y72.206 E0.01427
G1 X190.622 Y72.049 E0.01574
G1 X190.178 Y71.830 E0.01552
G1 X189.775 Y71.561 E0.01518
G1 X189.412 Y71.242 E0.01518
G1 X189.092 Y70.878 E0.01518
G1 X188.823 Y70.476 E0.01518
G1 X188.609 Y70.042 E0.01518
G1 X188.473 Y69.640 E0.01329
G1 X188.830 Y69.519 F10800.000
G1 F1200.000
G1 X188.734 Y69.059 E0.01472
G1 X188.706 Y68.626 E0.01363
G1 X188.734 Y68.192 E0.01363
G1 X188.819 Y67.766 E0.01363
G1 X188.958 Y67.354 E0.01363
G1 X189.151 Y66.964 E0.01363
G1 X189.392 Y66.603 E0.01363
G1 X189.679 Y66.276 E0.01363
G1 X190.005 Y65.990 E0.01363
G1 X190.367 Y65.748 E0.01363
G1 X190.757 Y65.556 E0.01363
G1 X191.168 Y65.416 E0.01363
G1 X191.594 Y65.332 E0.01363
G1 X192.001 Y65.305 E0.01278
G1 X192.453 Y65.330 E0.01419
G1 X192.888 Y65.416 E0.01391
G1 X193.299 Y65.556 E0.01363
G1 X193.689 Y65.748 E0.01363
G1 X194.028 Y65.975 E0.01278
G1 X194.371 Y66.270 E0.01419
G1 X194.664 Y66.603 E0.01391
G1 X194.905 Y66.965 E0.01363
G1 X195.098 Y67.354 E0.01363
G1 X195.237 Y67.766 E0.01363
G1 X195.322 Y68.192 E0.01363
G1 X195.350 Y68.626 E0.01363
G1 X195.322 Y69.059 E0.01363
G1 X195.237 Y69.486 E0.01363
G1 X195.098 Y69.897 E0.01363
G1 X194.905 Y70.287 E0.01363
G1 X194.679 Y70.626 E0.01278
G1 X194.384 Y70.969 E0.01419
G1 X194.051 Y71.262 E0.01391
G1 X193.689 Y71.503 E0.01363
G1 X193.299 Y71.695 E0.01363
G1 X192.888 Y71.835 E0.01363
G1 X192.462 Y71.920 E0.01363
G1 X192.028 Y71.948 E0.01363
G1 X191.594 Y71.920 E0.01363
G1 X191.194 Y71.840 E0.01278
G1 X190.765 Y71.699 E0.01419
G1 X190.367 Y71.503 E0.01391
G1 X190.005 Y71.262 E0.01363
G1 X189.679 Y70.975 E0.01363
G1 X189.392 Y70.648 E0.01363
G1 X189.151 Y70.287 E0.01363
G1 X188.958 Y69.897 E0.01363
G1 X188.849 Y69.576 E0.01064
G1 X189.206 Y69.455 F10800.000
G1 F1200.000
G1 X189.109 Y69.010 E0.01427
G1 X189.083 Y68.626 E0.01208
G1 X189.109 Y68.241 E0.01208
G1 X189.184 Y67.864 E0.01208
G1 X189.308 Y67.499 E0.01208
G1 X189.478 Y67.153 E0.01208
G1 X189.692 Y66.833 E0.01208
G1 X189.946 Y66.544 E0.01208
G1 X190.235 Y66.290 E0.01208
G1 X190.556 Y66.076 E0.01208
G1 X190.901 Y65.905 E0.01208
G1 X191.266 Y65.782 E0.01208
G1 X191.644 Y65.706 E0.01208
G1 X192.003 Y65.683 E0.01129
G1 X192.406 Y65.705 E0.01264
G1 X192.790 Y65.782 E0.01229
G1 X193.155 Y65.905 E0.01208
G1 X193.500 Y66.076 E0.01208
G1 X193.800 Y66.276 E0.01129
G1 X194.106 Y66.538 E0.01264
G1 X194.364 Y66.833 E0.01230
G1 X194.578 Y67.153 E0.01208
G1 X194.748 Y67.499 E0.01208
G1 X194.872 Y67.864 E0.01208
G1 X194.947 Y68.241 E0.01208
G1 X194.973 Y68.626 E0.01208
G1 X194.947 Y69.010 E0.01208
G1 X194.872 Y69.388 E0.01208
G1 X194.748 Y69.753 E0.01208
G1 X194.578 Y70.098 E0.01208
G1 X194.378 Y70.398 E0.01130
G1 X194.115 Y70.703 E0.01264
G1 X193.821 Y70.962 E0.01229
G1 X193.500 Y71.176 E0.01208
G1 X193.155 Y71.346 E0.01208
G1 X192.790 Y71.470 E0.01208
G1 X192.412 Y71.545 E0.01208
G1 X192.028 Y71.570 E0.01208
G1 X191.644 Y71.545 E0.01208
G1 X191.290 Y71.475 E0.01129
G1 X190.907 Y71.349 E0.01264
G1 X190.556 Y71.176 E0.01230
G1 X190.235 Y70.962 E0.01208
G1 X189.946 Y70.708 E0.01208
G1 X189.692 Y70.418 E0.01208
G1 X189.478 Y70.098 E0.01208
G1 X189.308 Y69.753 E0.01208
G1 X189.226 Y69.511 E0.00798
G1 X189.549 Y69.290 F10800.000
G1 F1200.000
G1 X189.483 Y68.961 E0.01053
G1 X189.461 Y68.626 E0.01053
G1 X189.483 Y68.291 E0.01053
G1 X189.549 Y67.961 E0.01053
G1 X189.657 Y67.644 E0.01053
G1 X189.805 Y67.342 E0.01053
G1 X189.992 Y67.063 E0.01053
G1 X190.213 Y66.811 E0.01053
G1 X190.466 Y66.589 E0.01053
G1 X190.745 Y66.403 E0.01053
G1 X191.046 Y66.254 E0.01053
G1 X191.364 Y66.147 E0.01053
G1 X191.693 Y66.081 E0.01053
G1 X192.005 Y66.061 E0.00981
G1 X192.358 Y66.080 E0.01109
G1 X192.692 Y66.147 E0.01068
G1 X193.010 Y66.254 E0.01053
G1 X193.311 Y66.403 E0.01053
G1 X193.571 Y66.577 E0.00981
G1 X193.840 Y66.807 E0.01109
G1 X194.064 Y67.063 E0.01068
G1 X194.251 Y67.342 E0.01053
G1 X194.399 Y67.644 E0.01053
G1 X194.507 Y67.961 E0.01053
G1 X194.573 Y68.291 E0.01053
G1 X194.595 Y68.626 E0.01053
G1 X194.573 Y68.961 E0.01053
G1 X194.507 Y69.290 E0.01053
G1 X194.399 Y69.608 E0.01053
G1 X194.251 Y69.909 E0.01053
G1 X194.077 Y70.169 E0.00981
G1 X193.847 Y70.437 E0.01109
G1 X193.591 Y70.662 E0.01068
G1 X193.311 Y70.849 E0.01053
G1 X193.010 Y70.997 E0.01053
G1 X192.692 Y71.105 E0.01053
G1 X192.363 Y71.170 E0.01053
G1 X192.028 Y71.192 E0.01053
G1 X191.693 Y71.170 E0.01053
G1 X191.386 Y71.109 E0.00981
G1 X191.050 Y70.999 E0.01109
G1 X190.745 Y70.849 E0.01068
G1 X190.466 Y70.662 E0.01053
G1 X190.213 Y70.441 E0.01053
G1 X189.992 Y70.188 E0.01053
G1 X189.805 Y69.909 E0.01053
G1 X189.657 Y69.608 E0.01053
G1 X189.568 Y69.347 E0.00865
G1 X189.925 Y69.226 F10800.000
G1 F1200.000
G1 X189.858 Y68.911 E0.01007
G1 X189.839 Y68.626 E0.00898
G1 X189.858 Y68.340 E0.00898
G1 X189.914 Y68.059 E0.00898
G1 X190.006 Y67.788 E0.00898
G1 X190.132 Y67.531 E0.00898
G1 X190.292 Y67.293 E0.00898
G1 X190.480 Y67.078 E0.00898
G1 X190.696 Y66.889 E0.00898
G1 X190.934 Y66.730 E0.00898
G1 X191.190 Y66.604 E0.00898
G1 X191.462 Y66.512 E0.00898
G1 X191.742 Y66.456 E0.00898
G1 X192.007 Y66.438 E0.00832
G1 X192.311 Y66.455 E0.00954
G1 X192.595 Y66.512 E0.00907
G1 X192.866 Y66.604 E0.00898
G1 X193.122 Y66.730 E0.00898
G1 X193.343 Y66.878 E0.00832
G1 X193.574 Y67.076 E0.00954
G1 X193.764 Y67.293 E0.00907
G1 X193.924 Y67.531 E0.00898
G1 X194.050 Y67.788 E0.00898
G1 X194.142 Y68.059 E0.00898
G1 X194.198 Y68.340 E0.00898
G1 X194.217 Y68.626 E0.00898
G1 X194.198 Y68.911 E0.00898
G1 X194.142 Y69.192 E0.00898
G1 X194.050 Y69.463 E0.00898
G1 X193.924 Y69.720 E0.00898
G1 X193.776 Y69.941 E0.00832
G1 X193.578 Y70.171 E0.00954
G1 X193.360 Y70.362 E0.00907
G1 X193.122 Y70.521 E0.00898
G1 X192.866 Y70.648 E0.00898
G1 X192.595 Y70.740 E0.00898
G1 X192.314 Y70.796 E0.00898
G1 X192.028 Y70.814 E0.00898
G1 X191.742 Y70.796 E0.00898
G1 X191.482 Y70.744 E0.00832
G1 X191.193 Y70.649 E0.00954
G1 X190.934 Y70.521 E0.00907
G1 X190.696 Y70.362 E0.00898
G1 X190.480 Y70.173 E0.00898
G1 X190.292 Y69.958 E0.00898
G1 X190.132 Y69.720 E0.00898
G1 X190.006 Y69.463 E0.00898
G1 X189.944 Y69.282 E0.00599
G1 X190.302 Y69.161 F10800.000
;TYPE:External perimeter
G1 F1200.000
G1 X190.233 Y68.862 E0.00963
G1 X190.217 Y68.626 E0.00743
G1 X190.233 Y68.389 E0.00743
G1 X190.279 Y68.157 E0.00743
G1 X190.355 Y67.933 E0.00743
M73 Q0 S81
G1 X190.460 Y67.720 E0.00743
G1 X190.591 Y67.523 E0.00743
G1 X190.748 Y67.345 E0.00743
G1 X190.926 Y67.189 E0.00743
G1 X191.123 Y67.057 E0.00743
G1 X191.335 Y66.953 E0.00743
G1 X191.559 Y66.877 E0.00743
G1 X191.792 Y66.830 E0.00743
G1 X192.009 Y66.816 E0.00683
G1 X192.263 Y66.830 E0.00799
G1 X192.497 Y66.877 E0.00746
G1 X192.721 Y66.953 E0.00743
G1 X192.933 Y67.057 E0.00743
G1 X193.115 Y67.178 E0.00683
G1 X193.308 Y67.344 E0.00799
G1 X193.465 Y67.523 E0.00746
G1 X193.596 Y67.720 E0.00743
G1 X193.701 Y67.933 E0.00743
G1 X193.777 Y68.157 E0.00743
G1 X193.823 Y68.389 E0.00743
G1 X193.839 Y68.626 E0.00743
G1 X193.823 Y68.862 E0.00743
G1 X193.777 Y69.094 E0.00743
G1 X193.701 Y69.319 E0.00743
G1 X193.596 Y69.531 E0.00743
G1 X193.475 Y69.712 E0.00683
G1 X193.309 Y69.905 E0.00799
G1 X193.130 Y70.062 E0.00746
G1 X192.933 Y70.194 E0.00743
G1 X192.721 Y70.299 E0.00743
G1 X192.497 Y70.375 E0.00743
G1 X192.264 Y70.421 E0.00743
G1 X192.028 Y70.437 E0.00743
G1 X191.792 Y70.421 E0.00743
G1 X191.578 Y70.379 E0.00683
G1 X191.336 Y70.299 E0.00799
G1 X191.123 Y70.194 E0.00746
G1 X190.926 Y70.062 E0.00743
G1 X190.748 Y69.906 E0.00743
G1 X190.591 Y69.728 E0.00743
G1 X190.460 Y69.531 E0.00743
G1 X190.321 Y69.218 E0.01074
G1 X190.002 Y69.096 F10800.000
;WIPE_START
G1 F8640.000
G1 X190.233 Y68.862 E-0.08468
G1 X190.217 Y68.626 E-0.05470
G1 X190.233 Y68.389 E-0.05470
G1 X190.279 Y68.157 E-0.05469
G1 X190.355 Y67.933 E-0.05469
G1 X190.460 Y67.720 E-0.05470
G1 X190.591 Y67.523 E-0.05470
G1 X190.748 Y67.345 E-0.05469
G1 X190.926 Y67.189 E-0.05469
G1 X191.123 Y67.057 E-0.05469
G1 X191.335 Y66.953 E-0.05470
G1 X191.559 Y66.877 E-0.05469
G1 X191.792 Y66.830 E-0.05470
G1 X191.874 Y66.825 E-0.01898
;WIPE_END
G1 E-0.04000 F2100.000
G1 Z0.600 F10800.000
G1 X164.728 Y68.626
G1 Z0.200
G1 E0.80000 F2100.000
;TYPE:Perimeter
G1 F1200.000
G1 X164.697 Y69.109 E0.01518
G1 X164.608 Y69.555 E0.01427
G1 X164.451 Y70.032 E0.01574
G1 X164.233 Y70.476 E0.01552
G1 X163.964 Y70.878 E0.01518
G1 X163.645 Y71.242 E0.01517
G1 X163.281 Y71.561 E0.01518
G1 X162.878 Y71.830 E0.01518
G1 X162.444 Y72.044 E0.01518
G1 X161.986 Y72.200 E0.01518
G1 X161.511 Y72.294 E0.01518
G1 X161.028 Y72.326 E0.01518
G1 X160.545 Y72.294 E0.01518
G1 X160.099 Y72.206 E0.01427
G1 X159.622 Y72.049 E0.01574
G1 X159.178 Y71.830 E0.01552
G1 X158.799 Y71.577 E0.01427
G1 X158.419 Y71.250 E0.01573
G1 X158.092 Y70.878 E0.01552
G1 X157.823 Y70.476 E0.01518
G1 X157.609 Y70.042 E0.01517
G1 X157.454 Y69.584 E0.01517
G1 X157.359 Y69.109 E0.01518
G1 X157.328 Y68.626 E0.01518
G1 X157.359 Y68.143 E0.01518
G1 X157.454 Y67.668 E0.01518
G1 X157.609 Y67.210 E0.01517
G1 X157.823 Y66.776 E0.01517
G1 X158.076 Y66.397 E0.01427
G1 X158.403 Y66.016 E0.01574
G1 X158.775 Y65.690 E0.01552
G1 X159.178 Y65.421 E0.01518
G1 X159.612 Y65.207 E0.01518
G1 X160.070 Y65.051 E0.01518
G1 X160.545 Y64.957 E0.01518
G1 X160.999 Y64.927 E0.01427
G1 X161.500 Y64.955 E0.01574
G1 X161.986 Y65.051 E0.01552
G1 X162.444 Y65.207 E0.01518
G1 X162.878 Y65.421 E0.01518
G1 X163.257 Y65.674 E0.01427
G1 X163.637 Y66.001 E0.01574
G1 X163.964 Y66.373 E0.01552
G1 X164.233 Y66.776 E0.01518
G1 X164.447 Y67.210 E0.01518
G1 X164.602 Y67.668 E0.01518
G1 X164.697 Y68.143 E0.01518
G1 X164.724 Y68.566 E0.01329
G1 X164.348 Y68.591 F10800.000
G1 F1200.000
G1 X164.322 Y69.059 E0.01472
G1 X164.242 Y69.459 E0.01278
G1 X164.101 Y69.889 E0.01419
G1 X163.905 Y70.287 E0.01391
G1 X163.664 Y70.648 E0.01363
G1 X163.377 Y70.975 E0.01363
G1 X163.051 Y71.262 E0.01363
G1 X162.689 Y71.503 E0.01363
G1 X162.299 Y71.695 E0.01363
G1 X161.888 Y71.835 E0.01363
G1 X161.462 Y71.920 E0.01363
G1 X161.028 Y71.948 E0.01363
G1 X160.594 Y71.920 E0.01363
G1 X160.194 Y71.840 E0.01278
G1 X159.765 Y71.699 E0.01419
G1 X159.367 Y71.503 E0.01391
G1 X159.028 Y71.277 E0.01278
G1 X158.685 Y70.982 E0.01418
G1 X158.392 Y70.648 E0.01391
G1 X158.151 Y70.287 E0.01363
G1 X157.959 Y69.897 E0.01362
G1 X157.819 Y69.486 E0.01362
G1 X157.734 Y69.059 E0.01363
G1 X157.706 Y68.626 E0.01363
G1 X157.734 Y68.192 E0.01363
G1 X157.819 Y67.766 E0.01363
G1 X157.959 Y67.354 E0.01362
G1 X158.151 Y66.965 E0.01362
G1 X158.377 Y66.626 E0.01278
G1 X158.672 Y66.282 E0.01419
G1 X159.005 Y65.990 E0.01390
G1 X159.367 Y65.748 E0.01363
G1 X159.757 Y65.556 E0.01363
G1 X160.168 Y65.417 E0.01363
G1 X160.594 Y65.332 E0.01363
G1 X161.001 Y65.305 E0.01278
G1 X161.453 Y65.330 E0.01419
G1 X161.888 Y65.417 E0.01391
G1 X162.299 Y65.556 E0.01363
G1 X162.689 Y65.748 E0.01363
G1 X163.028 Y65.975 E0.01278
G1 X163.371 Y66.270 E0.01419
G1 X163.664 Y66.603 E0.01390
G1 X163.905 Y66.964 E0.01363
G1 X164.098 Y67.354 E0.01363
G1 X164.237 Y67.766 E0.01363
G1 X164.322 Y68.192 E0.01363
G1 X164.344 Y68.531 E0.01064
G1 X163.968 Y68.555 F10800.000
G1 F1200.000
G1 X163.947 Y69.010 E0.01427
G1 X163.877 Y69.363 E0.01129
G1 X163.751 Y69.746 E0.01264
G1 X163.578 Y70.098 E0.01229
G1 X163.364 Y70.418 E0.01208
G1 X163.110 Y70.708 E0.01208
G1 X162.821 Y70.962 E0.01208
G1 X162.500 Y71.176 E0.01208
G1 X162.155 Y71.346 E0.01208
G1 X161.790 Y71.470 E0.01208
G1 X161.412 Y71.545 E0.01208
