; generated by PrusaSlicer 2.3.1+win64 on 2022-06-23 at 18:36:00 UTC

; 

; external perimeters extrusion width = 0.60mm
; perimeters extrusion width = 0.50mm
; infill extrusion width = 0.50mm
; solid infill extrusion width = 0.50mm
; top infill extrusion width = 0.45mm
; support material extrusion width = 0.38mm
; first layer extrusion width = 0.42mm

M73 P0 R84
M73 Q0 S85
M201 X1000 Y1000 Z200 E5000 ; sets maximum accelerations, mm/sec^2
M203 X200 Y200 Z12 E120 ; sets maximum feedrates, mm/sec
M204 P1250 R1250 T1250 ; sets acceleration (P, T) and retract acceleration (R), mm/sec^2
M205 X8.00 Y8.00 Z0.40 E4.50 ; sets the jerk limits, mm/sec
M205 S0 T0 ; sets the minimum extruding and travel feed rate, mm/sec
M107
;TYPE:Custom
M862.3 P "MK3S" ; printer model check
M862.1 P0.4 ; nozzle diameter check
M115 U3.9.3 ; tell printer latest fw version
G90 ; use absolute coordinates
M83 ; extruder relative mode
M104 S215 ; set extruder temp
M140 S67 ; set bed temp
M190 S67 ; wait for bed temp
M109 S215 ; wait for extruder temp
G28 W ; home all without mesh bed level
G80 ; mesh bed leveling
G1 Y-3.0 F1000.0 ; go outside print area
G92 E0.0
G1 X60.0 E9.0 F1000.0 ; intro line
G1 X100.0 E12.5 F1000.0 ; intro line
G92 E0.0
M221 S95

; Don't change E values below. Excessive value can damage the printer.

M907 E538 ; set extruder motor current
G21 ; set units to millimeters
G90 ; use absolute coordinates
M83 ; use relative distances for extrusion
M900 K0.05 ; Filament gcode LA 1.5
M900 K30 ; Filament gcode LA 1.0
;LAYER_CHANGE
;Z:0.2
;HEIGHT:0.2
;BEFORE_LAYER_CHANGE
G92 E0.0
;0.2


G1 E-0.80000 F2100.000
G1 Z0.400 F10800.000
;AFTER_LAYER_CHANGE
;0.2
; printing object y_drag_spacer.stl id:1 copy 0
G1 X141.801 Y68.632
G1 Z0.200
G1 E0.80000 F2100.000
M204 S1000
;TYPE:Perimeter
;WIDTH:0.42
G1 F1200.000
G1 X142.274 Y68.054 E0.02345
G1 X142.827 Y67.627 E0.02189
G1 X143.245 Y67.407 E0.01480
G1 X143.906 Y67.192 E0.02182
G1 X144.577 Y67.132 E0.02113
G1 X145.067 Y67.170 E0.01538
G1 X145.702 Y67.337 E0.02060
G1 X146.132 Y67.533 E0.01481
G1 X146.667 Y67.899 E0.02034
G1 X147.006 Y68.228 E0.01480
G1 X147.416 Y68.793 E0.02189
G1 X147.707 Y69.482 E0.02345
G1 X147.835 Y70.219 E0.02345
G1 X147.795 Y70.915 E0.02189
G1 X147.688 Y71.375 E0.01481
G1 X147.416 Y72.019 E0.02189
G1 X146.976 Y72.624 E0.02345
G1 X146.411 Y73.113 E0.02344
G1 X145.794 Y73.439 E0.02189
G1 X145.345 Y73.585 E0.01480
G1 X144.654 Y73.684 E0.02189
G1 X143.958 Y73.625 E0.02189
G1 X143.501 Y73.505 E0.01481
G1 X142.866 Y73.214 E0.02189
G1 X142.274 Y72.758 E0.02345
G1 X141.802 Y72.181 E0.02337
G1 X141.503 Y71.577 E0.02113
G1 X141.361 Y71.108 E0.01538
G1 X141.280 Y70.408 E0.02207
G1 X141.355 Y69.738 E0.02113
G1 X141.489 Y69.266 E0.01538
G1 X141.774 Y68.686 E0.02027
G1 X142.113 Y68.853 F10800.000
G1 F1200.000
G1 X142.539 Y68.326 E0.02124
G1 X143.032 Y67.946 E0.01952
G1 X143.392 Y67.756 E0.01277
G1 X143.982 Y67.564 E0.01946
G1 X144.580 Y67.511 E0.01881
G1 X145.004 Y67.543 E0.01334
G1 X145.575 Y67.693 E0.01851
G1 X145.945 Y67.862 E0.01277
G1 X146.427 Y68.192 E0.01831
G1 X146.719 Y68.476 E0.01277
G1 X147.085 Y68.980 E0.01952
G1 X147.343 Y69.589 E0.02073
G1 X147.456 Y70.240 E0.02073
G1 X147.420 Y70.862 E0.01952
G1 X147.328 Y71.258 E0.01277
G1 X147.085 Y71.832 E0.01952
G1 X146.697 Y72.367 E0.02073
G1 X146.197 Y72.800 E0.02073
G1 X145.646 Y73.090 E0.01952
G1 X145.259 Y73.216 E0.01277
G1 X144.643 Y73.305 E0.01952
G1 X144.023 Y73.252 E0.01952
G1 X143.628 Y73.148 E0.01278
G1 X143.062 Y72.889 E0.01952
G1 X142.539 Y72.486 E0.02073
G1 X142.121 Y71.975 E0.02067
G1 X141.855 Y71.438 E0.01881
G1 X141.731 Y71.031 E0.01334
G1 X141.660 Y70.408 E0.01966
G1 X141.727 Y69.811 E0.01881
G1 X141.842 Y69.402 E0.01334
G1 X142.086 Y68.907 E0.01731
G1 X142.425 Y69.073 F10800.000
G1 F1200.000
G1 X142.803 Y68.598 E0.01904
G1 X143.236 Y68.264 E0.01715
G1 X143.539 Y68.104 E0.01074
G1 X144.058 Y67.936 E0.01711
G1 X144.582 Y67.889 E0.01650
G1 X144.941 Y67.916 E0.01129
G1 X145.448 Y68.050 E0.01642
G1 X145.759 Y68.192 E0.01074
G1 X146.188 Y68.485 E0.01628
G1 X146.433 Y68.724 E0.01074
G1 X146.755 Y69.166 E0.01715
G1 X146.979 Y69.696 E0.01802
G1 X147.077 Y70.262 E0.01802
G1 X147.045 Y70.808 E0.01715
G1 X146.968 Y71.142 E0.01074
G1 X146.755 Y71.645 E0.01715
G1 X146.417 Y72.110 E0.01802
G1 X145.983 Y72.487 E0.01802
G1 X145.499 Y72.742 E0.01715
G1 X145.173 Y72.848 E0.01074
G1 X144.632 Y72.926 E0.01714
G1 X144.087 Y72.879 E0.01715
G1 X143.756 Y72.792 E0.01074
G1 X143.258 Y72.564 E0.01715
G1 X142.803 Y72.213 E0.01802
G1 X142.440 Y71.770 E0.01798
G1 X142.207 Y71.298 E0.01649
G1 X142.102 Y70.954 E0.01129
G1 X142.039 Y70.407 E0.01725
G1 X142.098 Y69.884 E0.01650
G1 X142.196 Y69.538 E0.01129
G1 X142.398 Y69.127 E0.01436
G1 X142.759 Y69.248 F10800.000
G1 F1200.000
G1 X143.068 Y68.870 E0.01531
G1 X143.441 Y68.582 E0.01478
G1 X143.687 Y68.453 E0.00871
G1 X144.134 Y68.307 E0.01475
G1 X144.584 Y68.267 E0.01418
G1 X144.878 Y68.290 E0.00924
G1 X145.320 Y68.406 E0.01433
G1 X145.573 Y68.521 E0.00871
G1 X145.948 Y68.778 E0.01424
G1 X146.147 Y68.972 E0.00871
G1 X146.424 Y69.353 E0.01478
G1 X146.614 Y69.802 E0.01531
G1 X146.698 Y70.283 E0.01531
G1 X146.671 Y70.754 E0.01477
G1 X146.608 Y71.025 E0.00871
G1 X146.424 Y71.459 E0.01478
G1 X146.137 Y71.854 E0.01531
G1 X145.769 Y72.173 E0.01531
G1 X145.352 Y72.393 E0.01478
G1 X145.087 Y72.479 E0.00871
G1 X144.621 Y72.546 E0.01477
M73 Q0 S84
G1 X144.152 Y72.506 E0.01478
G1 X143.883 Y72.435 E0.00871
G1 X143.454 Y72.239 E0.01477
G1 X143.068 Y71.941 E0.01531
G1 X142.759 Y71.564 E0.01528
G1 X142.558 Y71.159 E0.01418
G1 X142.473 Y70.877 E0.00924
G1 X142.419 Y70.407 E0.01484
G1 X142.469 Y69.957 E0.01418
G1 X142.549 Y69.673 E0.00924
G1 X142.732 Y69.302 E0.01298
G1 X143.071 Y69.468 F10800.000
;TYPE:External perimeter
G1 F1200.000
G1 X143.332 Y69.142 E0.01311
G1 X143.645 Y68.901 E0.01240
G1 X143.834 Y68.801 E0.00668
G1 X144.210 Y68.679 E0.01239
G1 X144.587 Y68.646 E0.01187
G1 X144.816 Y68.663 E0.00719
G1 X145.193 Y68.763 E0.01225
G1 X145.387 Y68.851 E0.00668
G1 X145.709 Y69.071 E0.01221
G1 X145.861 Y69.219 E0.00668
G1 X146.094 Y69.539 E0.01240
G1 X146.250 Y69.909 E0.01259
G1 X146.319 Y70.305 E0.01259
G1 X146.296 Y70.700 E0.01240
G1 X146.248 Y70.908 E0.00668
G1 X146.094 Y71.272 E0.01240
G1 X145.858 Y71.597 E0.01259
G1 X145.554 Y71.860 E0.01259
G1 X145.204 Y72.045 E0.01240
G1 X145.002 Y72.110 E0.00668
G1 X144.610 Y72.167 E0.01240
G1 X144.216 Y72.133 E0.01240
G1 X144.010 Y72.079 E0.00668
G1 X143.650 Y71.914 E0.01240
G1 X143.332 Y71.669 E0.01259
G1 X143.078 Y71.358 E0.01258
G1 X142.910 Y71.019 E0.01186
G1 X142.843 Y70.800 E0.00720
G1 X142.798 Y70.406 E0.01243
G1 X142.840 Y70.030 E0.01187
G1 X142.903 Y69.809 E0.00719
G1 X143.044 Y69.522 E0.01003
G1 X142.891 Y69.111 F10800.000
;WIPE_START
G1 F8640.000
G1 X143.332 Y69.142 E-0.11008
G1 X143.645 Y68.901 E-0.09134
G1 X143.834 Y68.801 E-0.04920
G1 X144.210 Y68.679 E-0.09128
G1 X144.587 Y68.646 E-0.08738
G1 X144.816 Y68.663 E-0.05298
G1 X145.193 Y68.763 E-0.09018
G1 X145.387 Y68.851 E-0.04920
G1 X145.709 Y69.071 E-0.08994
G1 X145.859 Y69.217 E-0.04843
;WIPE_END
G1 E-0.04000 F2100.000
G1 Z0.600 F10800.000
G1 X131.478 Y61.324
G1 Z0.200
G1 E0.80000 F2100.000
;TYPE:Perimeter
G1 F1200.000
G1 X157.642 Y61.324 E0.82033
G1 X157.642 Y79.487 E0.56950
G1 X131.478 Y79.487 E0.82033
G1 X131.478 Y61.384 E0.56762
G1 X131.101 Y60.947 F10800.000
G1 F1200.000
G1 X158.019 Y60.947 E0.84398
G1 X158.019 Y79.864 E0.59315
G1 X131.101 Y79.864 E0.84398
G1 X131.101 Y61.007 E0.59126
G1 X130.724 Y60.570 F10800.000
G1 F1200.000
G1 X158.396 Y60.570 E0.86763
G1 X158.396 Y80.242 E0.61679
G1 X130.724 Y80.242 E0.86763
G1 X130.724 Y60.630 E0.61491
G1 X130.347 Y60.193 F10800.000
G1 F1200.000
G1 X158.773 Y60.193 E0.89127
G1 X158.773 Y80.619 E0.64044
G1 X130.347 Y80.619 E0.89127
G1 X130.347 Y60.253 E0.63856
G1 X129.970 Y59.816 F10800.000
;TYPE:External perimeter
G1 F1200.000
G1 X159.150 Y59.816 E0.91492
G1 X159.150 Y80.996 E0.66408
G1 X129.970 Y80.996 E0.91492
G1 X129.970 Y59.876 E0.66220
G1 X130.361 Y59.899 F10800.000
;WIPE_START
G1 F8640.000
G1 X133.261 Y59.869 E-0.76000
;WIPE_END
G1 E-0.04000 F2100.000
G1 Z0.600 F10800.000
G1 X157.529 Y62.203
G1 Z0.200
G1 E0.80000 F2100.000
;TYPE:Solid infill
;WIDTH:0.421909
G1 F1200.000
G1 X156.932 Y61.607 E0.02659
G1 X156.396 Y61.607 E0.01689
G1 X157.359 Y62.570 E0.04291
G1 X157.359 Y63.106 E0.01689
G1 X155.860 Y61.607 E0.06680
G1 X155.324 Y61.607 E0.01689
G1 X157.359 Y63.642 E0.09069
G1 X157.359 Y64.178 E0.01689
G1 X154.788 Y61.607 E0.11457
G1 X154.252 Y61.607 E0.01689
G1 X157.359 Y64.714 E0.13846
G1 X157.359 Y65.250 E0.01689
G1 X153.716 Y61.607 E0.16234
G1 X153.180 Y61.607 E0.01689
G1 X157.359 Y65.786 E0.18623
G1 X157.359 Y66.322 E0.01689
G1 X152.644 Y61.607 E0.21012
G1 X152.108 Y61.607 E0.01689
G1 X157.359 Y66.858 E0.23400
G1 X157.359 Y67.393 E0.01689
G1 X151.572 Y61.607 E0.25789
G1 X151.036 Y61.607 E0.01689
G1 X157.359 Y67.929 E0.28178
G1 X157.359 Y68.465 E0.01689
G1 X150.500 Y61.607 E0.30566
G1 X149.964 Y61.607 E0.01689
G1 X157.359 Y69.001 E0.32955
G1 X157.359 Y69.537 E0.01689
G1 X149.428 Y61.607 E0.35343
G1 X148.892 Y61.607 E0.01689
G1 X157.359 Y70.073 E0.37732
G1 X157.359 Y70.609 E0.01689
G1 X148.356 Y61.607 E0.40121
M73 P0 R83
G1 X147.820 Y61.607 E0.01689
G1 X157.359 Y71.145 E0.42509
G1 X157.359 Y71.681 E0.01689
G1 X147.284 Y61.607 E0.44898
G1 X146.748 Y61.607 E0.01689
G1 X157.359 Y72.217 E0.47287
G1 X157.359 Y72.753 E0.01689
G1 X146.212 Y61.607 E0.49675
G1 X145.676 Y61.607 E0.01689
G1 X157.359 Y73.289 E0.52064
G1 X157.359 Y73.825 E0.01689
G1 X145.141 Y61.607 E0.54452
G1 X144.605 Y61.607 E0.01689
G1 X157.359 Y74.361 E0.56841
G1 X157.359 Y74.897 E0.01689
G1 X144.069 Y61.607 E0.59230
G1 X143.533 Y61.607 E0.01689
G1 X157.359 Y75.433 E0.61618
G1 X157.359 Y75.969 E0.01689
G1 X142.997 Y61.607 E0.64007
M73 P1 R83
M73 Q1 S84
G1 X142.461 Y61.607 E0.01689
G1 X157.359 Y76.505 E0.66396
G1 X157.359 Y77.041 E0.01689
G1 X141.925 Y61.607 E0.68784
G1 X141.389 Y61.607 E0.01689
G1 X157.359 Y77.577 E0.71173
G1 X157.359 Y78.113 E0.01689
G1 X140.853 Y61.607 E0.73561
G1 X140.317 Y61.607 E0.01689
G1 X145.773 Y67.063 E0.24316
G1 X146.271 Y67.286 E0.01720
G1 X146.847 Y67.679 E0.02197
G1 X147.220 Y68.042 E0.01641
G1 X147.664 Y68.653 E0.02379
G1 X147.884 Y69.174 E0.01783
G1 X157.359 Y78.649 E0.42226
G1 X157.359 Y79.185 E0.01689
G1 X148.065 Y69.891 E0.41420
G1 X148.119 Y70.202 E0.00996
G1 X148.104 Y70.466 E0.00831
G1 X156.843 Y79.205 E0.38946
G1 X156.307 Y79.205 E0.01689
G1 X148.072 Y70.970 E0.36697
G1 X147.971 Y71.405 E0.01407
G1 X155.771 Y79.205 E0.34759
G1 X155.235 Y79.205 E0.01689
G1 X147.820 Y71.790 E0.33046
G1 X147.659 Y72.165 E0.01287
G1 X154.699 Y79.205 E0.31373
G1 X154.163 Y79.205 E0.01689
G1 X147.434 Y72.475 E0.29989
G1 X147.208 Y72.786 E0.01209
G1 X153.627 Y79.205 E0.28606
G1 X153.091 Y79.205 E0.01689
G1 X146.927 Y73.041 E0.27470
G1 X146.640 Y73.289 E0.01197
G1 X152.555 Y79.205 E0.26362
G1 X152.019 Y79.205 E0.01689
G1 X146.304 Y73.490 E0.25470
G1 X145.953 Y73.675 E0.01250
G1 X151.483 Y79.205 E0.24644
G1 X150.947 Y79.205 E0.01689
G1 X145.556 Y73.814 E0.24026
G1 X145.409 Y73.861 E0.00487
G1 X145.111 Y73.904 E0.00950
G1 X150.411 Y79.205 E0.23621
G1 X149.875 Y79.205 E0.01689
G1 X144.637 Y73.967 E0.23343
G1 X144.051 Y73.916 E0.01854
G1 X149.509 Y79.374 E0.24324
;WIPE_START
G1 F8640.000
G1 X147.181 Y77.047 E-0.76000
;WIPE_END
G1 E-0.04000 F2100.000
G1 Z0.600 F10800.000
G1 X145.284 Y67.110
G1 Z0.200
G1 E0.80000 F2100.000
G1 F1200.000
G1 X139.781 Y61.607 E0.24525
G1 X139.245 Y61.607 E0.01689
G1 X144.494 Y66.856 E0.23393
G1 X144.002 Y66.900 E0.01558
G1 X138.709 Y61.607 E0.23587
G1 X138.173 Y61.607 E0.01689
G1 X143.570 Y67.004 E0.24052
G1 X143.165 Y67.135 E0.01340
G1 X137.637 Y61.607 E0.24638
G1 X137.101 Y61.607 E0.01689
G1 X142.810 Y67.316 E0.25445
G1 X142.674 Y67.388 E0.00487
G1 X142.489 Y67.531 E0.00735
G1 X136.565 Y61.607 E0.26401
G1 X136.029 Y61.607 E0.01689
G1 X142.186 Y67.764 E0.27441
G1 X142.076 Y67.849 E0.00440
G1 X141.923 Y68.037 E0.00761
G1 X135.493 Y61.607 E0.28655
G1 X134.957 Y61.607 E0.01689
G1 X141.682 Y68.331 E0.29969
G1 X141.561 Y68.479 E0.00599
G1 X141.473 Y68.659 E0.00632
M73 Q1 S83
G1 X134.421 Y61.607 E0.31427
G1 X133.885 Y61.607 E0.01689
G1 X141.296 Y69.018 E0.33028
G1 X141.224 Y69.165 E0.00516
G1 X141.154 Y69.412 E0.00809
G1 X133.349 Y61.607 E0.34783
G1 X132.813 Y61.607 E0.01689
G1 X141.058 Y69.852 E0.36744
G1 X141.004 Y70.334 E0.01528
G1 X132.277 Y61.607 E0.38892
G1 X131.761 Y61.607 E0.01627
G1 X131.761 Y61.627 E0.00062
G1 X141.247 Y71.113 E0.42277
;WIPE_START
G1 F8640.000
G1 X138.920 Y68.786 E-0.76000
;WIPE_END
G1 E-0.04000 F2100.000
G1 Z0.600 F10800.000
G1 X148.973 Y79.374
G1 Z0.200
G1 E0.80000 F2100.000
G1 F1200.000
G1 X143.340 Y73.742 E0.25101
G1 X142.719 Y73.458 E0.02152
G1 X142.076 Y72.962 E0.02561
G1 X141.563 Y72.335 E0.02552
G1 X141.222 Y71.623 E0.02487
G1 X131.761 Y62.163 E0.42163
G1 X131.761 Y62.699 E0.01689
G1 X148.267 Y79.205 E0.73561
G1 X147.731 Y79.205 E0.01689
G1 X131.761 Y63.235 E0.71172
G1 X131.761 Y63.771 E0.01689
G1 X147.195 Y79.205 E0.68784
G1 X146.659 Y79.205 E0.01689
G1 X131.761 Y64.307 E0.66395
G1 X131.761 Y64.842 E0.01689
G1 X146.123 Y79.205 E0.64006
G1 X145.587 Y79.205 E0.01689
G1 X131.761 Y65.378 E0.61618
G1 X131.761 Y65.914 E0.01689
G1 X145.051 Y79.205 E0.59229
G1 X144.515 Y79.205 E0.01689
G1 X131.761 Y66.450 E0.56841
G1 X131.761 Y66.986 E0.01689
G1 X143.979 Y79.205 E0.54452
G1 X143.443 Y79.205 E0.01689
G1 X131.761 Y67.522 E0.52063
G1 X131.761 Y68.058 E0.01689
G1 X142.907 Y79.205 E0.49675
G1 X142.371 Y79.205 E0.01689
G1 X131.761 Y68.594 E0.47286
G1 X131.761 Y69.130 E0.01689
G1 X141.835 Y79.205 E0.44898
G1 X141.299 Y79.205 E0.01689
G1 X131.761 Y69.666 E0.42509
G1 X131.761 Y70.202 E0.01689
G1 X140.763 Y79.205 E0.40120
G1 X140.227 Y79.205 E0.01689
G1 X131.761 Y70.738 E0.37732
G1 X131.761 Y71.274 E0.01689
G1 X139.692 Y79.205 E0.35343
G1 X139.156 Y79.205 E0.01689
G1 X131.761 Y71.810 E0.32954
G1 X131.761 Y72.346 E0.01689
G1 X138.620 Y79.205 E0.30566
G1 X138.084 Y79.205 E0.01689
G1 X131.761 Y72.882 E0.28177
G1 X131.761 Y73.418 E0.01689
G1 X137.548 Y79.205 E0.25789
G1 X137.012 Y79.205 E0.01689
G1 X131.761 Y73.954 E0.23400
G1 X131.761 Y74.490 E0.01689
G1 X136.476 Y79.205 E0.21011
G1 X135.940 Y79.205 E0.01689
G1 X131.761 Y75.026 E0.18623
G1 X131.761 Y75.562 E0.01689
G1 X135.404 Y79.205 E0.16234
G1 X134.868 Y79.205 E0.01689
G1 X131.761 Y76.098 E0.13845
G1 X131.761 Y76.634 E0.01689
G1 X134.332 Y79.205 E0.11457
G1 X133.796 Y79.205 E0.01689
G1 X131.761 Y77.170 E0.09068
G1 X131.761 Y77.706 E0.01689
G1 X133.260 Y79.205 E0.06680
G1 X132.724 Y79.205 E0.01689
G1 X131.761 Y78.242 E0.04291
G1 X131.761 Y78.778 E0.01689
G1 X132.358 Y79.374 E0.02659
; stop printing object y_drag_spacer.stl id:1 copy 0
; printing object y_drag_bracket.stl id:0 copy 0
;WIPE_START
G1 F8640.000
G1 X131.761 Y78.778 E-0.19480
G1 X131.761 Y78.242 E-0.12376
G1 X132.724 Y79.205 E-0.31441
G1 X133.260 Y79.205 E-0.12376
G1 X133.250 Y79.195 E-0.00328
;WIPE_END
G1 E-0.04000 F2100.000
G1 Z0.600 F10800.000
G1 X211.042 Y47.833
G1 Z0.200
G1 E0.80000 F2100.000
;TYPE:Support material
;WIDTH:0.42
G1 F1200.000
G1 X211.042 Y44.289 E0.11112
G1 X210.288 Y44.289 E0.02365
G1 X210.288 Y47.664 E0.10580
G1 X209.534 Y47.664 E0.02365
G1 X209.534 Y44.289 E0.10580
G1 X208.780 Y44.289 E0.02365
G1 X208.780 Y47.664 E0.10580
G1 X208.123 Y47.664 E0.02059
G1 X208.026 Y47.701 E0.00327
G1 X208.026 Y44.289 E0.10697
G1 X207.272 Y44.289 E0.02365
G1 X207.272 Y48.341 E0.12702
G1 X206.517 Y49.017 E0.03176
G1 X206.517 Y44.289 E0.14822
G1 X205.763 Y44.289 E0.02365
G1 X205.763 Y49.693 E0.16942
G1 X205.009 Y50.369 E0.03176
G1 X205.009 Y44.289 E0.19062
G1 X204.255 Y44.289 E0.02365
G1 X204.255 Y51.045 E0.21182
G1 X203.501 Y51.721 E0.03176
G1 X203.501 Y44.289 E0.23302
G1 X203.007 Y44.289 E0.01549
G1 X203.007 Y46.605 E0.07260
G1 X202.747 Y46.605 E0.00815
G1 X202.747 Y52.397 E0.18162
G1 X201.992 Y53.074 E0.03176
G1 X201.992 Y46.605 E0.20282
G1 X201.238 Y46.605 E0.02365
G1 X201.238 Y53.750 E0.22402
G1 X200.484 Y54.426 E0.03176
G1 X200.484 Y48.921 E0.17261
M73 P2 R83
G1 X199.730 Y48.921 E0.02365
M73 Q2 S83
