; generated by PrusaSlicer 2.3.1+win64 on 2022-06-20 at 12:05:34 UTC

; 

; external perimeters extrusion width = 0.60mm
; perimeters extrusion width = 0.50mm
; infill extrusion width = 0.50mm
; solid infill extrusion width = 0.50mm
; top infill extrusion width = 0.45mm
; first layer extrusion width = 0.42mm

M73 P0 R22
M73 Q0 S22
M201 X1000 Y1000 Z200 E5000 ; sets maximum accelerations, mm/sec^2
M203 X200 Y200 Z12 E120 ; sets maximum feedrates, mm/sec
M204 P1250 R1250 T1250 ; sets acceleration (P, T) and retract acceleration (R), mm/sec^2
M205 X8.00 Y8.00 Z0.40 E4.50 ; sets the jerk limits, mm/sec
M205 S0 T0 ; sets the minimum extruding and travel feed rate, mm/sec
M107
;TYPE:Custom
M862.3 P "MK3S" ; printer model check
M862.1 P0.4 ; nozzle diameter check
M115 U3.9.3 ; tell printer latest fw version
G90 ; use absolute coordinates
M83 ; extruder relative mode
M104 S215 ; set extruder temp
M140 S67 ; set bed temp
M190 S67 ; wait for bed temp
M109 S215 ; wait for extruder temp
G28 W ; home all without mesh bed level
G80 ; mesh bed leveling
G1 Y-3.0 F1000.0 ; go outside print area
G92 E0.0
G1 X60.0 E9.0 F1000.0 ; intro line
G1 X100.0 E12.5 F1000.0 ; intro line
G92 E0.0
M221 S95

; Don't change E values below. Excessive value can damage the printer.

M907 E538 ; set extruder motor current
G21 ; set units to millimeters
G90 ; use absolute coordinates
M83 ; use relative distances for extrusion
M900 K0.05 ; Filament gcode LA 1.5
M900 K30 ; Filament gcode LA 1.0
;LAYER_CHANGE
;Z:0.2
;HEIGHT:0.2
;BEFORE_LAYER_CHANGE
G92 E0.0
;0.2


G1 E-0.80000 F2100.000
G1 Z0.400 F10800.000
;AFTER_LAYER_CHANGE
;0.2
; printing object y_tensioner.stl id:0 copy 0
G1 X178.115 Y32.311
G1 Z0.200
G1 E0.80000 F2100.000
M204 S1000
;TYPE:Perimeter
;WIDTH:0.42
G1 F1200.000
G1 X190.524 Y32.311 E0.38908
G1 X190.524 Y44.220 E0.37340
G1 X178.115 Y46.918 E0.39817
G1 X178.115 Y32.371 E0.45610
G1 X177.738 Y31.934 F10800.000
G1 F1200.000
G1 X190.901 Y31.934 E0.41273
G1 X190.901 Y44.524 E0.39475
G1 X177.738 Y47.386 E0.42237
G1 X177.738 Y31.994 E0.48259
G1 X177.361 Y31.557 F10800.000
G1 F1200.000
G1 X191.278 Y31.557 E0.43637
M73 P1 R22
M73 Q1 S22
G1 X191.278 Y44.828 E0.41610
G1 X177.361 Y47.854 E0.44657
G1 X177.361 Y31.617 E0.50908
G1 X176.984 Y31.180 F10800.000
G1 F1200.000
G1 X191.655 Y31.180 E0.46002
G1 X191.655 Y45.132 E0.43745
G1 X176.984 Y48.322 E0.47076
G1 X176.984 Y31.240 E0.53558
M73 P1 R21
G1 X176.607 Y30.803 F10800.000
G1 F1200.000
G1 X192.033 Y30.803 E0.48367
M73 Q1 S21
G1 X192.033 Y45.436 E0.45880
G1 X176.607 Y48.790 E0.49496
G1 X176.607 Y30.863 E0.56207
G1 X176.230 Y30.426 F10800.000
;TYPE:External perimeter
G1 F1200.000
G1 X192.410 Y30.426 E0.50731
G1 X192.410 Y45.740 E0.48016
G1 X176.230 Y49.257 E0.51916
G1 X176.230 Y30.486 E0.58856
G1 X176.617 Y30.526 F10800.000
;WIPE_START
G1 F8640.000
G1 X179.521 Y30.474 E-0.76000
;WIPE_END
G1 E-0.04000 F2100.000
G1 Z0.600 F10800.000
G1 X190.411 Y33.202
G1 Z0.200
G1 E0.80000 F2100.000
;TYPE:Solid infill
;WIDTH:0.427009
G1 F1200.000
G1 X189.804 Y32.594 E0.02744
G1 X189.260 Y32.594 E0.01735
G1 X190.241 Y33.575 E0.04431
G1 X190.241 Y34.118 E0.01735
G1 X188.717 Y32.594 E0.06884
M73 Q2 S21
G1 X188.174 Y32.594 E0.01735
G1 X190.241 Y34.662 E0.09337
G1 X190.241 Y35.205 E0.01735
M73 P2 R21
G1 X187.631 Y32.594 E0.11791
G1 X187.088 Y32.594 E0.01735
G1 X190.241 Y35.748 E0.14244
G1 X190.241 Y36.291 E0.01735
G1 X186.545 Y32.594 E0.16697
G1 X186.001 Y32.594 E0.01735
G1 X190.241 Y36.834 E0.19151
G1 X190.241 Y37.378 E0.01735
G1 X185.458 Y32.594 E0.21604
G1 X184.915 Y32.594 E0.01735
G1 X190.241 Y37.921 E0.24057
G1 X190.241 Y38.464 E0.01735
G1 X184.372 Y32.594 E0.26511
G1 X183.829 Y32.594 E0.01735
G1 X190.241 Y39.007 E0.28964
G1 X190.241 Y39.550 E0.01735
G1 X183.285 Y32.594 E0.31417
G1 X182.742 Y32.594 E0.01735
G1 X190.241 Y40.093 E0.33871
G1 X190.241 Y40.637 E0.01735
G1 X182.199 Y32.594 E0.36324
G1 X181.656 Y32.594 E0.01735
G1 X190.241 Y41.180 E0.38777
G1 X190.241 Y41.723 E0.01735
G1 X181.113 Y32.594 E0.41231
G1 X180.569 Y32.594 E0.01735
G1 X190.241 Y42.266 E0.43684
G1 X190.241 Y42.809 E0.01735
G1 X180.026 Y32.594 E0.46137
G1 X179.483 Y32.594 E0.01735
G1 X190.241 Y43.353 E0.48591
G1 X190.241 Y43.896 E0.01735
G1 X178.940 Y32.594 E0.51044
G1 X178.398 Y32.594 E0.01732
G1 X189.875 Y44.072 E0.51839
G1 X189.429 Y44.169 E0.01458
G1 X178.398 Y33.138 E0.49821
G1 X178.398 Y33.682 E0.01735
G1 X188.982 Y44.266 E0.47806
G1 X188.536 Y44.363 E0.01458
G1 X178.398 Y34.225 E0.45791
G1 X178.398 Y34.768 E0.01735
G1 X188.090 Y44.460 E0.43776
M73 Q3 S21
G1 X187.644 Y44.557 E0.01458
G1 X178.398 Y35.311 E0.41760
M73 P3 R21
G1 X178.398 Y35.854 E0.01735
G1 X187.198 Y44.654 E0.39745
G1 X186.751 Y44.751 E0.01458
G1 X178.398 Y36.398 E0.37730
G1 X178.398 Y36.941 E0.01735
G1 X186.305 Y44.848 E0.35715
G1 X185.859 Y44.945 E0.01458
G1 X178.398 Y37.484 E0.33699
G1 X178.398 Y38.027 E0.01735
G1 X185.413 Y45.042 E0.31684
G1 X184.967 Y45.139 E0.01458
G1 X178.398 Y38.570 E0.29669
G1 X178.398 Y39.114 E0.01735
G1 X184.520 Y45.236 E0.27654
G1 X184.074 Y45.333 E0.01458
G1 X178.398 Y39.657 E0.25638
G1 X178.398 Y40.200 E0.01735
G1 X183.628 Y45.430 E0.23623
G1 X183.182 Y45.527 E0.01458
G1 X178.398 Y40.743 E0.21608
G1 X178.398 Y41.286 E0.01735
G1 X182.736 Y45.624 E0.19593
G1 X182.290 Y45.721 E0.01458
G1 X178.398 Y41.829 E0.17577
G1 X178.398 Y42.373 E0.01735
G1 X181.843 Y45.818 E0.15562
G1 X181.397 Y45.915 E0.01458
G1 X178.398 Y42.916 E0.13547
G1 X178.398 Y43.459 E0.01735
G1 X180.951 Y46.012 E0.11532
G1 X180.505 Y46.109 E0.01458
G1 X178.398 Y44.002 E0.09516
G1 X178.398 Y44.545 E0.01735
G1 X180.059 Y46.206 E0.07501
G1 X179.612 Y46.303 E0.01458
G1 X178.398 Y45.089 E0.05486
G1 X178.398 Y45.632 E0.01735
G1 X179.166 Y46.400 E0.03471
G1 X178.720 Y46.497 E0.01458
G1 X178.228 Y46.005 E0.02222
; stop printing object y_tensioner.stl id:0 copy 0
M106 S84.15
;LAYER_CHANGE
;Z:0.5
;HEIGHT:0.3
;BEFORE_LAYER_CHANGE
G92 E0.0
;0.5


;WIPE_START
G1 F8640.000
G1 X178.720 Y46.497 E-0.16064
G1 X179.166 Y46.400 E-0.10543
G1 X178.398 Y45.632 E-0.25093
G1 X178.398 Y45.089 E-0.12542
G1 X178.758 Y45.449 E-0.11758
;WIPE_END
G1 E-0.04000 F2100.000
G1 Z0.600 F10800.000
;AFTER_LAYER_CHANGE
;0.5
M104 S210 ; set temperature
M140 S64 ; set bed temperature
; printing object y_tensioner.stl id:0 copy 0
G1 X178.348 Y46.629
G1 Z0.500
G1 E0.80000 F2100.000
M204 S800
;TYPE:Perimeter
;WIDTH:0.5
G1 F2908
G1 X178.348 Y32.544 E0.76529
G1 X190.291 Y32.544 E0.64894
G1 X190.291 Y44.033 E0.62421
G1 X178.406 Y46.617 E0.66084
M204 S1000
G1 X177.912 Y47.170 F10800.000
M204 S800
G1 F2908
G1 X177.912 Y32.109 E0.81832
G1 X190.727 Y32.109 E0.69628
G1 X190.727 Y44.384 E0.66696
G1 X177.971 Y47.157 E0.70928
M204 S1000
G1 X177.476 Y47.710 F10800.000
M204 S800
G1 F2908
G1 X177.476 Y31.673 E0.87136
G1 X191.163 Y31.673 E0.74362
G1 X191.163 Y44.735 E0.70970
G1 X177.535 Y47.698 E0.75772
M204 S1000
G1 X177.041 Y48.251 F10800.000
M204 S800
G1 F2908
G1 X177.041 Y31.237 E0.92439
G1 X191.598 Y31.237 E0.79095
G1 X191.598 Y45.086 E0.75245
M73 P4 R21
M73 Q4 S21
G1 X177.099 Y48.238 E0.80617
M204 S1000
G1 X176.605 Y48.791 F10800.000
M204 S800
G1 F2908
G1 X176.605 Y30.802 E0.97743
G1 X192.034 Y30.802 E0.83829
G1 X192.034 Y45.437 E0.79519
G1 X176.664 Y48.779 E0.85461
M204 S1000
G1 X176.120 Y49.394 F10800.000
M204 S800
;TYPE:External perimeter
;WIDTH:0.6
G1 F2100.000
G1 X176.120 Y30.316 E1.27450
G1 X192.520 Y30.316 E1.09561
G1 X192.520 Y45.829 E1.03632
G1 X176.178 Y49.381 E1.11719
M204 S1000
G1 X176.213 Y49.005 F10800.000
;WIPE_START
G1 F8640.000
G1 X176.168 Y46.090 E-0.76000
;WIPE_END
G1 E-0.04000 F2100.000
G1 Z0.900 F10800.000
G1 X179.368 Y32.675
G1 Z0.500
G1 E0.80000 F2100.000
;TYPE:Solid infill
;WIDTH:0.504278
G1 F2908
G1 X178.674 Y33.368 E0.05381
G1 X178.674 Y33.990 E0.03413
G1 X179.794 Y32.871 E0.08687
G1 X180.416 Y32.871 E0.03413
G1 X178.674 Y34.613 E0.13514
G1 X178.674 Y35.235 E0.03413
G1 X181.038 Y32.871 E0.18341
G1 X181.660 Y32.871 E0.03413
G1 X178.674 Y35.857 E0.23169
G1 X178.674 Y36.479 E0.03413
G1 X182.282 Y32.871 E0.27996
G1 X182.905 Y32.871 E0.03413
G1 X178.674 Y37.101 E0.32823
G1 X178.674 Y37.723 E0.03413
G1 X183.527 Y32.871 E0.37650
G1 X184.149 Y32.871 E0.03413
G1 X178.674 Y38.345 E0.42477
G1 X178.674 Y38.967 E0.03413
G1 X184.771 Y32.871 E0.47304
G1 X185.393 Y32.871 E0.03413
G1 X178.674 Y39.589 E0.52131
G1 X178.674 Y40.212 E0.03413
G1 X186.015 Y32.871 E0.56958
G1 X186.637 Y32.871 E0.03413
G1 X178.674 Y40.834 E0.61785
G1 X178.674 Y41.456 E0.03413
G1 X187.259 Y32.871 E0.66613
G1 X187.881 Y32.871 E0.03413
G1 X178.674 Y42.078 E0.71440
G1 X178.674 Y42.700 E0.03413
G1 X188.503 Y32.871 E0.76267
G1 X189.126 Y32.871 E0.03413
G1 X178.674 Y43.322 E0.81094
G1 X178.674 Y43.944 E0.03413
G1 X189.748 Y32.871 E0.85921
G1 X189.965 Y32.871 E0.01191
G1 X189.965 Y33.276 E0.02222
G1 X178.674 Y44.566 E0.87605
G1 X178.674 Y45.188 E0.03413
G1 X189.965 Y33.898 E0.87605
G1 X189.965 Y34.520 E0.03413
G1 X178.674 Y45.811 E0.87605
G1 X178.674 Y46.224 E0.02268
G1 X178.941 Y46.166 E0.01497
G1 X189.965 Y35.142 E0.85536
G1 X189.965 Y35.764 E0.03413
G1 X179.736 Y45.993 E0.79368
G1 X180.531 Y45.820 E0.04463
G1 X189.965 Y36.386 E0.73200
G1 X189.965 Y37.009 E0.03413
G1 X181.326 Y45.648 E0.67032
G1 X182.121 Y45.475 E0.04463
G1 X189.965 Y37.631 E0.60864
G1 X189.965 Y38.253 E0.03413
G1 X182.916 Y45.302 E0.54696
G1 X183.711 Y45.129 E0.04463
G1 X189.965 Y38.875 E0.48529
G1 X189.965 Y39.497 E0.03413
G1 X184.505 Y44.956 E0.42361
G1 X185.300 Y44.784 E0.04463
G1 X189.965 Y40.119 E0.36193
G1 X189.965 Y40.741 E0.03413
G1 X186.095 Y44.611 E0.30025
G1 X186.890 Y44.438 E0.04463
G1 X189.965 Y41.363 E0.23857
G1 X189.965 Y41.985 E0.03413
M73 Q5 S21
G1 X187.685 Y44.265 E0.17689
G1 X188.480 Y44.092 E0.04463
G1 X189.965 Y42.608 E0.11521
M73 P5 R21
G1 X189.965 Y43.230 E0.03413
G1 X189.019 Y44.176 E0.07342
; stop printing object y_tensioner.stl id:0 copy 0
M106 S170.85
;LAYER_CHANGE
;Z:0.8
;HEIGHT:0.3
;BEFORE_LAYER_CHANGE
G92 E0.0
;0.8


;WIPE_START
G1 F8640.000
G1 X189.965 Y43.230 E-0.30897
G1 X189.965 Y42.608 E-0.14365
G1 X189.023 Y43.549 E-0.30738
;WIPE_END
G1 E-0.04000 F2100.000
G1 Z0.900 F10800.000
;AFTER_LAYER_CHANGE
;0.8
; printing object y_tensioner.stl id:0 copy 0
G1 X190.291 Y44.033
G1 Z0.800
G1 E0.80000 F2100.000
M204 S800
;TYPE:Perimeter
;WIDTH:0.5
G1 F2900
G1 X178.348 Y46.629 E0.66410
G1 X178.348 Y32.544 E0.76529
G1 X190.291 Y32.544 E0.64894
G1 X190.291 Y43.973 E0.62095
M204 S1000
G1 X190.727 Y44.384 F10800.000
M204 S800
G1 F2900
G1 X177.912 Y47.170 E0.71254
G1 X177.912 Y32.109 E0.81832
G1 X190.727 Y32.109 E0.69628
G1 X190.727 Y44.324 E0.66370
M204 S1000
G1 X191.163 Y44.735 F10800.000
M204 S800
G1 F2900
G1 X177.476 Y47.710 E0.76098
G1 X177.476 Y31.673 E0.87136
G1 X191.163 Y31.673 E0.74362
G1 X191.163 Y44.675 E0.70644
M204 S1000
G1 X191.598 Y45.086 F10800.000
M204 S800
G1 F2900
G1 X177.041 Y48.251 E0.80943
G1 X177.041 Y31.237 E0.92439
G1 X191.598 Y31.237 E0.79095
G1 X191.598 Y45.026 E0.74919
M204 S1000
G1 X192.034 Y45.437 F10800.000
M204 S800
G1 F2900
G1 X176.605 Y48.791 E0.85787
G1 X176.605 Y30.802 E0.97743
G1 X192.034 Y30.802 E0.83829
G1 X192.034 Y45.377 E0.79193
M204 S1000
G1 X192.520 Y45.829 F10800.000
M204 S800
;TYPE:External perimeter
;WIDTH:0.6
G1 F2100.000
G1 X176.120 Y49.394 E1.12120
G1 X176.120 Y30.316 E1.27450
G1 X192.520 Y30.316 E1.09561
G1 X192.520 Y45.769 E1.03231
M204 S1000
G1 X192.122 Y45.785 F10800.000
;WIPE_START
G1 F8640.000
G1 X189.306 Y46.479 E-0.76000
;WIPE_END
G1 E-0.04000 F2100.000
G1 Z1.200 F10800.000
G1 X178.478 Y45.581
G1 Z0.800
G1 E0.80000 F2100.000
;TYPE:Solid infill
;WIDTH:0.505325
G1 F2900
G1 X179.042 Y46.144 E0.04382
G1 X179.554 Y46.033 E0.02883
G1 X178.674 Y45.153 E0.06841
G1 X178.674 Y44.530 E0.03430
G1 X180.066 Y45.921 E0.10826
G1 X180.578 Y45.810 E0.02883
G1 X178.674 Y43.906 E0.14810
G1 X178.674 Y43.282 E0.03430
G1 X181.091 Y45.699 E0.18794
G1 X181.603 Y45.587 E0.02883
G1 X178.674 Y42.659 E0.22778
G1 X178.674 Y42.035 E0.03430
G1 X182.115 Y45.476 E0.26762
G1 X182.627 Y45.365 E0.02883
G1 X178.674 Y41.412 E0.30746
G1 X178.674 Y40.788 E0.03430
G1 X183.140 Y45.253 E0.34730
G1 X183.652 Y45.142 E0.02883
G1 X178.674 Y40.164 E0.38714
G1 X178.674 Y39.541 E0.03430
G1 X184.164 Y45.031 E0.42698
G1 X184.676 Y44.919 E0.02883
G1 X178.674 Y38.917 E0.46682
G1 X178.674 Y38.294 E0.03430
G1 X185.189 Y44.808 E0.50666
G1 X185.701 Y44.697 E0.02883
G1 X178.674 Y37.670 E0.54650
G1 X178.674 Y37.046 E0.03430
G1 X186.213 Y44.585 E0.58634
M73 P5 R20
G1 X186.725 Y44.474 E0.02883
G1 X178.674 Y36.423 E0.62618
G1 X178.674 Y35.799 E0.03430
M73 Q6 S21
G1 X187.238 Y44.362 E0.66602
M73 P6 R20
G1 X187.750 Y44.251 E0.02883
G1 X178.674 Y35.176 E0.70586
M73 Q6 S20
G1 X178.674 Y34.552 E0.03430
G1 X188.262 Y44.140 E0.74570
G1 X188.774 Y44.028 E0.02883
G1 X178.674 Y33.929 E0.78554
G1 X178.674 Y33.305 E0.03430
G1 X189.286 Y43.917 E0.82538
G1 X189.799 Y43.806 E0.02883
G1 X178.864 Y32.871 E0.85048
G1 X179.488 Y32.871 E0.03430
G1 X189.965 Y43.348 E0.81489
G1 X189.965 Y42.725 E0.03430
G1 X180.111 Y32.871 E0.76639
G1 X180.735 Y32.871 E0.03430
G1 X189.965 Y42.101 E0.71789
G1 X189.965 Y41.477 E0.03430
G1 X181.358 Y32.871 E0.66939
G1 X181.982 Y32.871 E0.03430
G1 X189.965 Y40.854 E0.62089
G1 X189.965 Y40.230 E0.03430
G1 X182.605 Y32.871 E0.57239
G1 X183.229 Y32.871 E0.03430
G1 X189.965 Y39.607 E0.52389
G1 X189.965 Y38.983 E0.03430
G1 X183.853 Y32.871 E0.47539
G1 X184.476 Y32.871 E0.03430
G1 X189.965 Y38.359 E0.42689
G1 X189.965 Y37.736 E0.03430
G1 X185.100 Y32.871 E0.37838
G1 X185.723 Y32.871 E0.03430
G1 X189.965 Y37.112 E0.32988
G1 X189.965 Y36.489 E0.03430
G1 X186.347 Y32.871 E0.28138
G1 X186.971 Y32.871 E0.03430
G1 X189.965 Y35.865 E0.23288
G1 X189.965 Y35.242 E0.03430
G1 X187.594 Y32.871 E0.18438
G1 X188.218 Y32.871 E0.03430
G1 X189.965 Y34.618 E0.13588
G1 X189.965 Y33.994 E0.03430
G1 X188.841 Y32.871 E0.08738
G1 X189.465 Y32.871 E0.03430
G1 X190.161 Y33.567 E0.05412
; stop printing object y_tensioner.stl id:0 copy 0
M106 S255
;LAYER_CHANGE
;Z:1.1
;HEIGHT:0.3
;BEFORE_LAYER_CHANGE
G92 E0.0
;1.1


;WIPE_START
G1 F8640.000
G1 X189.465 Y32.871 E-0.22723
G1 X188.841 Y32.871 E-0.14399
G1 X189.965 Y33.994 E-0.36685
G1 X189.965 Y34.089 E-0.02193
;WIPE_END
G1 E-0.04000 F2100.000
G1 Z1.200 F10800.000
;AFTER_LAYER_CHANGE
;1.1
; printing object y_tensioner.stl id:0 copy 0
G1 X190.291 Y32.544
G1 Z1.100
G1 E0.80000 F2100.000
M204 S800
;TYPE:Perimeter
;WIDTH:0.5
G1 F2905
G1 X190.291 Y44.033 E0.62421
G1 X178.348 Y46.629 E0.66410
G1 X178.348 Y32.544 E0.76529
G1 X190.231 Y32.544 E0.64568
M204 S1000
G1 X190.727 Y32.109 F10800.000
M204 S800
G1 F2905
G1 X190.727 Y44.384 E0.66696
G1 X177.912 Y47.170 E0.71254
G1 X177.912 Y32.109 E0.81832
G1 X190.667 Y32.109 E0.69302
M204 S1000
G1 X191.163 Y31.673 F10800.000
M204 S800
G1 F2905
G1 X191.163 Y44.735 E0.70970
G1 X177.476 Y47.710 E0.76098
G1 X177.476 Y31.673 E0.87136
G1 X191.103 Y31.673 E0.74036
M204 S1000
G1 X191.598 Y31.237 F10800.000
M204 S800
G1 F2905
G1 X191.598 Y45.086 E0.75245
G1 X177.041 Y48.251 E0.80943
G1 X177.041 Y31.237 E0.92439
G1 X191.538 Y31.237 E0.78769
M204 S1000
G1 X192.034 Y30.802 F10800.000
M204 S800
G1 F2905
G1 X192.034 Y45.437 E0.79519
G1 X176.605 Y48.791 E0.85787
G1 X176.605 Y30.802 E0.97743
G1 X191.974 Y30.802 E0.83503
M204 S1000
M73 Q7 S20
G1 X192.520 Y30.316 F10800.000
M204 S800
;TYPE:External perimeter
;WIDTH:0.6
G1 F2100.000
G1 X192.520 Y45.829 E1.03632
M73 P7 R20
G1 X176.120 Y49.394 E1.12120
G1 X176.120 Y30.316 E1.27450
G1 X192.460 Y30.316 E1.09160
M204 S1000
G1 X192.426 Y30.705 F10800.000
;WIPE_START
G1 F8640.000
G1 X192.472 Y33.607 E-0.76000
;WIPE_END
G1 E-0.04000 F2100.000
G1 Z1.500 F10800.000
G1 X189.019 Y44.176
G1 Z1.100
G1 E0.80000 F2100.000
;TYPE:Solid infill
;WIDTH:0.504278
G1 F2905
G1 X189.965 Y43.230 E0.07342
G1 X189.965 Y42.608 E0.03413
G1 X188.480 Y44.092 E0.11521
G1 X187.685 Y44.265 E0.04463
G1 X189.965 Y41.985 E0.17689
G1 X189.965 Y41.363 E0.03413
G1 X186.890 Y44.438 E0.23857
G1 X186.095 Y44.611 E0.04463
G1 X189.965 Y40.741 E0.30025
G1 X189.965 Y40.119 E0.03413
G1 X185.300 Y44.784 E0.36193
G1 X184.505 Y44.956 E0.04463
G1 X189.965 Y39.497 E0.42361
G1 X189.965 Y38.875 E0.03413
G1 X183.711 Y45.129 E0.48529
