; generated by PrusaSlicer 2.3.1+win64 on 2022-05-05 at 23:48:17 UTC

; 

; external perimeters extrusion width = 0.45mm
; perimeters extrusion width = 0.45mm
; infill extrusion width = 0.45mm
; solid infill extrusion width = 0.45mm
; top infill extrusion width = 0.40mm
; support material extrusion width = 0.35mm
; first layer extrusion width = 0.42mm

M73 P0 R41
M73 Q0 S42
M201 X1000 Y1000 Z200 E5000 ; sets maximum accelerations, mm/sec^2
M203 X200 Y200 Z12 E120 ; sets maximum feedrates, mm/sec
M204 P1250 R1250 T1250 ; sets acceleration (P, T) and retract acceleration (R), mm/sec^2
M205 X8.00 Y8.00 Z0.40 E4.50 ; sets the jerk limits, mm/sec
M205 S0 T0 ; sets the minimum extruding and travel feed rate, mm/sec
M107
;TYPE:Custom
M862.3 P "MK3S" ; printer model check
M862.1 P0.4 ; nozzle diameter check
M115 U3.9.3 ; tell printer latest fw version
G90 ; use absolute coordinates
M83 ; extruder relative mode
M104 S215 ; set extruder temp
M140 S67 ; set bed temp
M190 S67 ; wait for bed temp
M109 S215 ; wait for extruder temp
G28 W ; home all without mesh bed level
G80 ; mesh bed leveling
G1 Y-3.0 F1000.0 ; go outside print area
G92 E0.0
G1 X60.0 E9.0 F1000.0 ; intro line
G1 X100.0 E12.5 F1000.0 ; intro line
G92 E0.0
M221 S95

; Don't change E values below. Excessive value can damage the printer.

M907 E538 ; set extruder motor current
G21 ; set units to millimeters
G90 ; use absolute coordinates
M83 ; use relative distances for extrusion
M900 K0.05 ; Filament gcode LA 1.5
M900 K30 ; Filament gcode LA 1.0
;LAYER_CHANGE
;Z:0.2
;HEIGHT:0.2
;BEFORE_LAYER_CHANGE
G92 E0.0
;0.2


G1 E-0.80000 F2100.000
G1 Z0.400 F10800.000
;AFTER_LAYER_CHANGE
;0.2
; printing object z_lim_cover.stl id:1 copy 0
G1 X156.043 Y60.966
M73 Q0 S41
G1 Z0.200
G1 E0.80000 F2100.000
M204 S1000
;TYPE:Perimeter
;WIDTH:0.42
G1 F1200.000
G1 X156.297 Y60.491 E0.01689
G1 X156.639 Y60.075 E0.01689
G1 X157.055 Y59.733 E0.01689
G1 X157.530 Y59.479 E0.01689
G1 X158.044 Y59.323 E0.01683
G1 X158.561 Y59.271 E0.01628
G1 X159.113 Y59.321 E0.01740
G1 X159.634 Y59.479 E0.01705
G1 X160.109 Y59.733 E0.01689
G1 X160.525 Y60.075 E0.01689
G1 X160.867 Y60.491 E0.01689
G1 X161.121 Y60.966 E0.01689
G1 X161.277 Y61.482 E0.01689
G1 X161.330 Y62.018 E0.01689
G1 X161.277 Y62.554 E0.01689
G1 X161.121 Y63.069 E0.01689
G1 X160.867 Y63.544 E0.01689
G1 X160.525 Y63.961 E0.01689
G1 X160.109 Y64.303 E0.01689
G1 X159.634 Y64.556 E0.01689
G1 X159.118 Y64.713 E0.01689
G1 X158.582 Y64.766 E0.01689
G1 X158.046 Y64.713 E0.01689
G1 X157.530 Y64.556 E0.01689
G1 X157.055 Y64.303 E0.01689
G1 X156.639 Y63.961 E0.01689
G1 X156.297 Y63.544 E0.01689
G1 X156.043 Y63.069 E0.01689
G1 X155.887 Y62.554 E0.01689
G1 X155.834 Y62.018 E0.01689
G1 X155.887 Y61.482 E0.01689
G1 X156.026 Y61.023 E0.01501
G1 X156.387 Y61.133 F10800.000
G1 F1200.000
G1 X156.612 Y60.701 E0.01527
G1 X156.907 Y60.342 E0.01456
G1 X157.266 Y60.048 E0.01456
G1 X157.675 Y59.829 E0.01456
G1 X158.118 Y59.695 E0.01452
G1 X158.563 Y59.650 E0.01399
G1 X159.041 Y59.693 E0.01505
G1 X159.489 Y59.829 E0.01467
G1 X159.898 Y60.048 E0.01456
G1 X160.257 Y60.342 E0.01456
G1 X160.552 Y60.701 E0.01456
G1 X160.771 Y61.111 E0.01456
G1 X160.905 Y61.555 E0.01456
G1 X160.951 Y62.018 E0.01456
G1 X160.905 Y62.480 E0.01456
G1 X160.771 Y62.924 E0.01456
G1 X160.552 Y63.334 E0.01456
G1 X160.257 Y63.693 E0.01456
G1 X159.898 Y63.987 E0.01456
G1 X159.489 Y64.206 E0.01456
G1 X159.044 Y64.341 E0.01456
G1 X158.582 Y64.387 E0.01456
G1 X158.120 Y64.341 E0.01456
G1 X157.675 Y64.206 E0.01456
G1 X157.266 Y63.987 E0.01456
G1 X156.907 Y63.693 E0.01456
G1 X156.612 Y63.334 E0.01456
G1 X156.393 Y62.924 E0.01456
G1 X156.258 Y62.480 E0.01456
G1 X156.213 Y62.018 E0.01456
G1 X156.258 Y61.555 E0.01456
G1 X156.369 Y61.190 E0.01196
G1 X156.743 Y61.256 F10800.000
G1 F1200.000
G1 X156.927 Y60.912 E0.01223
G1 X157.175 Y60.610 E0.01223
G1 X157.476 Y60.363 E0.01223
G1 X157.820 Y60.179 E0.01223
G1 X158.193 Y60.066 E0.01221
G1 X158.564 Y60.028 E0.01171
G1 X158.968 Y60.065 E0.01271
G1 X159.344 Y60.179 E0.01230
G1 X159.688 Y60.363 E0.01223
G1 X159.989 Y60.610 E0.01223
G1 X160.237 Y60.912 E0.01223
G1 X160.421 Y61.256 E0.01223
G1 X160.534 Y61.629 E0.01223
G1 X160.572 Y62.018 E0.01223
G1 X160.534 Y62.406 E0.01223
G1 X160.421 Y62.779 E0.01223
G1 X160.237 Y63.123 E0.01223
G1 X159.989 Y63.425 E0.01223
G1 X159.688 Y63.672 E0.01223
G1 X159.344 Y63.856 E0.01223
G1 X158.970 Y63.970 E0.01223
G1 X158.582 Y64.008 E0.01223
G1 X158.194 Y63.970 E0.01223
G1 X157.820 Y63.856 E0.01223
G1 X157.476 Y63.672 E0.01223
G1 X157.175 Y63.425 E0.01223
G1 X156.927 Y63.123 E0.01223
G1 X156.743 Y62.779 E0.01223
G1 X156.630 Y62.406 E0.01223
G1 X156.592 Y62.018 E0.01223
G1 X156.630 Y61.629 E0.01223
G1 X156.726 Y61.313 E0.01035
G1 X157.087 Y61.423 F10800.000
;TYPE:External perimeter
G1 F1200.000
G1 X157.242 Y61.123 E0.01061
G1 X157.443 Y60.878 E0.00990
G1 X157.687 Y60.678 E0.00990
G1 X157.965 Y60.529 E0.00990
G1 X158.267 Y60.437 E0.00989
G1 X158.566 Y60.407 E0.00942
G1 X158.896 Y60.437 E0.01036
G1 X159.199 Y60.529 E0.00993
G1 X159.477 Y60.678 E0.00990
G1 X159.721 Y60.878 E0.00990
G1 X159.922 Y61.123 E0.00990
G1 X160.071 Y61.401 E0.00990
G1 X160.162 Y61.703 E0.00990
G1 X160.193 Y62.018 E0.00990
G1 X160.162 Y62.332 E0.00990
G1 X160.071 Y62.634 E0.00990
G1 X159.922 Y62.913 E0.00990
G1 X159.721 Y63.157 E0.00990
G1 X159.477 Y63.357 E0.00990
G1 X159.199 Y63.506 E0.00990
G1 X158.896 Y63.598 E0.00990
G1 X158.582 Y63.629 E0.00990
G1 X158.268 Y63.598 E0.00990
G1 X157.965 Y63.506 E0.00990
G1 X157.687 Y63.357 E0.00990
G1 X157.443 Y63.157 E0.00990
G1 X157.242 Y62.913 E0.00990
G1 X157.093 Y62.634 E0.00990
G1 X157.002 Y62.332 E0.00990
G1 X156.971 Y62.018 E0.00990
G1 X157.002 Y61.703 E0.00990
G1 X157.069 Y61.480 E0.00731
G1 X156.878 Y61.157 F10800.000
;WIPE_START
G1 F8640.000
G1 X157.242 Y61.123 E-0.09177
G1 X157.443 Y60.878 E-0.07293
G1 X157.687 Y60.678 E-0.07294
G1 X157.965 Y60.529 E-0.07293
G1 X158.267 Y60.437 E-0.07286
G1 X158.566 Y60.407 E-0.06940
G1 X158.896 Y60.437 E-0.07632
G1 X159.199 Y60.529 E-0.07311
G1 X159.477 Y60.678 E-0.07293
G1 X159.721 Y60.878 E-0.07294
G1 X159.754 Y60.918 E-0.01185
;WIPE_END
G1 E-0.04000 F2100.000
G1 Z0.600 F10800.000
G1 X162.834 Y62.018
G1 Z0.200
G1 E0.80000 F2100.000
;TYPE:Perimeter
G1 F1200.000
G1 X162.887 Y61.482 E0.01689
G1 X163.043 Y60.966 E0.01689
G1 X163.297 Y60.491 E0.01689
G1 X163.639 Y60.075 E0.01689
G1 X164.055 Y59.733 E0.01689
G1 X164.530 Y59.479 E0.01689
G1 X165.044 Y59.323 E0.01683
G1 X165.561 Y59.271 E0.01628
G1 X166.113 Y59.321 E0.01740
G1 X166.634 Y59.479 E0.01705
G1 X167.109 Y59.733 E0.01689
G1 X167.525 Y60.075 E0.01689
G1 X167.867 Y60.491 E0.01689
G1 X168.121 Y60.966 E0.01689
G1 X168.277 Y61.482 E0.01689
G1 X168.330 Y62.018 E0.01689
G1 X168.277 Y62.554 E0.01689
G1 X168.121 Y63.069 E0.01689
G1 X167.867 Y63.544 E0.01689
G1 X167.525 Y63.961 E0.01689
G1 X167.109 Y64.303 E0.01689
G1 X166.634 Y64.556 E0.01689
G1 X166.118 Y64.713 E0.01689
G1 X165.582 Y64.766 E0.01689
G1 X165.046 Y64.713 E0.01689
G1 X164.530 Y64.556 E0.01689
G1 X164.055 Y64.303 E0.01689
G1 X163.639 Y63.961 E0.01689
G1 X163.297 Y63.544 E0.01689
G1 X163.043 Y63.069 E0.01689
G1 X162.887 Y62.554 E0.01689
G1 X162.840 Y62.077 E0.01501
G1 X163.215 Y62.040 F10800.000
G1 F1200.000
G1 X163.258 Y61.555 E0.01527
G1 X163.393 Y61.111 E0.01456
G1 X163.612 Y60.701 E0.01456
G1 X163.907 Y60.342 E0.01456
G1 X164.266 Y60.048 E0.01456
G1 X164.675 Y59.829 E0.01456
G1 X165.118 Y59.695 E0.01452
G1 X165.563 Y59.650 E0.01399
G1 X166.041 Y59.693 E0.01505
G1 X166.489 Y59.829 E0.01467
G1 X166.898 Y60.048 E0.01456
G1 X167.257 Y60.342 E0.01456
G1 X167.552 Y60.701 E0.01456
G1 X167.771 Y61.111 E0.01456
G1 X167.905 Y61.555 E0.01456
G1 X167.951 Y62.018 E0.01456
G1 X167.905 Y62.480 E0.01456
G1 X167.771 Y62.924 E0.01456
G1 X167.552 Y63.334 E0.01456
G1 X167.257 Y63.693 E0.01456
G1 X166.898 Y63.987 E0.01456
G1 X166.489 Y64.206 E0.01456
G1 X166.044 Y64.341 E0.01456
G1 X165.582 Y64.387 E0.01456
G1 X165.120 Y64.341 E0.01456
G1 X164.675 Y64.206 E0.01456
G1 X164.266 Y63.987 E0.01456
G1 X163.907 Y63.693 E0.01456
G1 X163.612 Y63.334 E0.01456
G1 X163.393 Y62.924 E0.01456
G1 X163.258 Y62.480 E0.01456
G1 X163.221 Y62.100 E0.01196
G1 X163.592 Y62.018 F10800.000
G1 F1200.000
G1 X163.630 Y61.629 E0.01223
G1 X163.743 Y61.256 E0.01223
G1 X163.927 Y60.912 E0.01223
G1 X164.175 Y60.610 E0.01223
G1 X164.476 Y60.363 E0.01223
G1 X164.820 Y60.179 E0.01223
G1 X165.193 Y60.066 E0.01221
G1 X165.564 Y60.028 E0.01171
G1 X165.968 Y60.065 E0.01271
G1 X166.344 Y60.179 E0.01230
G1 X166.688 Y60.363 E0.01223
G1 X166.989 Y60.610 E0.01223
G1 X167.237 Y60.912 E0.01223
G1 X167.421 Y61.256 E0.01223
G1 X167.534 Y61.629 E0.01223
G1 X167.572 Y62.018 E0.01223
G1 X167.534 Y62.406 E0.01223
G1 X167.421 Y62.779 E0.01223
G1 X167.237 Y63.123 E0.01223
G1 X166.989 Y63.425 E0.01223
G1 X166.688 Y63.672 E0.01223
G1 X166.344 Y63.856 E0.01223
G1 X165.970 Y63.970 E0.01223
G1 X165.582 Y64.008 E0.01223
G1 X165.194 Y63.970 E0.01223
G1 X164.820 Y63.856 E0.01223
G1 X164.476 Y63.672 E0.01223
G1 X164.175 Y63.425 E0.01223
G1 X163.927 Y63.123 E0.01223
G1 X163.743 Y62.779 E0.01223
G1 X163.630 Y62.406 E0.01223
G1 X163.598 Y62.077 E0.01035
G1 X163.973 Y62.040 F10800.000
;TYPE:External perimeter
G1 F1200.000
G1 X164.002 Y61.703 E0.01061
G1 X164.093 Y61.401 E0.00990
G1 X164.242 Y61.123 E0.00990
G1 X164.443 Y60.878 E0.00990
G1 X164.687 Y60.678 E0.00990
G1 X164.965 Y60.529 E0.00990
G1 X165.267 Y60.437 E0.00989
G1 X165.566 Y60.407 E0.00942
G1 X165.896 Y60.437 E0.01036
G1 X166.199 Y60.529 E0.00993
G1 X166.477 Y60.678 E0.00990
G1 X166.721 Y60.878 E0.00990
G1 X166.922 Y61.123 E0.00990
G1 X167.071 Y61.401 E0.00990
G1 X167.162 Y61.703 E0.00990
G1 X167.193 Y62.018 E0.00990
G1 X167.162 Y62.332 E0.00990
G1 X167.071 Y62.634 E0.00990
G1 X166.922 Y62.913 E0.00990
G1 X166.721 Y63.157 E0.00990
G1 X166.477 Y63.357 E0.00990
G1 X166.199 Y63.506 E0.00990
G1 X165.896 Y63.598 E0.00990
G1 X165.582 Y63.629 E0.00990
G1 X165.268 Y63.598 E0.00990
G1 X164.965 Y63.506 E0.00990
G1 X164.687 Y63.357 E0.00990
G1 X164.443 Y63.157 E0.00990
G1 X164.242 Y62.913 E0.00990
G1 X164.093 Y62.634 E0.00990
G1 X164.002 Y62.332 E0.00990
G1 X163.979 Y62.100 E0.00731
G1 X163.678 Y61.874 F10800.000
;WIPE_START
G1 F8640.000
G1 X164.002 Y61.703 E-0.09178
G1 X164.093 Y61.401 E-0.07293
G1 X164.242 Y61.123 E-0.07293
G1 X164.443 Y60.878 E-0.07293
G1 X164.687 Y60.678 E-0.07293
G1 X164.965 Y60.529 E-0.07293
G1 X165.267 Y60.437 E-0.07286
G1 X165.566 Y60.407 E-0.06940
G1 X165.896 Y60.437 E-0.07632
G1 X166.199 Y60.529 E-0.07311
G1 X166.244 Y60.553 E-0.01186
;WIPE_END
G1 E-0.04000 F2100.000
G1 Z0.600 F10800.000
G1 X169.541 Y59.059
G1 Z0.200
G1 E0.80000 F2100.000
;TYPE:Perimeter
G1 F1200.000
G1 X169.541 Y68.973 E0.31084
G1 X146.623 Y68.973 E0.71856
G1 X146.623 Y59.056 E0.31094
G1 X169.481 Y59.059 E0.71668
G1 X169.918 Y58.682 F10800.000
G1 F1200.000
G1 X169.918 Y69.350 E0.33449
G1 X146.246 Y69.350 E0.74221
G1 X146.246 Y58.678 E0.33459
G1 X169.858 Y58.682 E0.74033
G1 X170.295 Y58.305 F10800.000
G1 F1200.000
G1 X170.295 Y69.727 E0.35814
G1 X145.869 Y69.727 E0.76586
G1 X145.869 Y58.301 E0.35824
G1 X170.235 Y58.305 E0.76397
G1 X170.672 Y57.928 F10800.000
;TYPE:External perimeter
G1 F1200.000
G1 X170.672 Y70.104 E0.38178
G1 X145.492 Y70.104 E0.78950
M73 P1 R41
M73 Q1 S41
G1 X145.492 Y57.924 E0.38189
G1 X170.612 Y57.928 E0.78762
G1 X170.526 Y58.300 F10800.000
;WIPE_START
G1 F8640.000
G1 X170.628 Y61.219 E-0.76000
;WIPE_END
G1 E-0.04000 F2100.000
G1 Z0.600 F10800.000
G1 X168.654 Y59.172
G1 Z0.200
G1 E0.80000 F2100.000
;TYPE:Solid infill
;WIDTH:0.425398
G1 F1200.000
G1 X169.258 Y59.776 E0.02717
G1 X169.258 Y60.317 E0.01720
G1 X168.283 Y59.342 E0.04387
G1 X167.742 Y59.342 E0.01720
G1 X169.258 Y60.858 E0.06819
G1 X169.258 Y61.399 E0.01720
G1 X167.339 Y59.480 E0.08632
G1 X167.306 Y59.529 E0.00189
G1 X167.726 Y59.874 E0.01728
G1 X168.103 Y60.333 E0.01890
G1 X168.383 Y60.857 E0.01890
G1 X168.474 Y61.155 E0.00990
G1 X169.258 Y61.940 E0.03529
G1 X169.258 Y62.481 E0.01720
G1 X168.594 Y61.817 E0.02986
G1 X168.614 Y62.018 E0.00642
G1 X168.582 Y62.345 E0.01046
G1 X169.258 Y63.021 E0.03042
G1 X169.258 Y63.562 E0.01720
G1 X168.497 Y62.802 E0.03421
G1 X168.366 Y63.211 E0.01367
G1 X169.258 Y64.103 E0.04014
G1 X169.258 Y64.644 E0.01720
G1 X168.177 Y63.563 E0.04861
G1 X168.103 Y63.702 E0.00501
G1 X167.955 Y63.882 E0.00741
G1 X169.258 Y65.185 E0.05860
G1 X169.258 Y65.726 E0.01720
G1 X167.708 Y64.176 E0.06970
G1 X167.411 Y64.420 E0.01222
G1 X169.258 Y66.267 E0.08307
G1 X169.258 Y66.808 E0.01720
G1 X167.086 Y64.635 E0.09771
G1 X166.732 Y64.822 E0.01273
G1 X169.258 Y67.349 E0.11363
G1 X169.258 Y67.890 E0.01720
G1 X166.317 Y64.948 E0.13230
G1 X166.173 Y64.992 E0.00476
G1 X165.851 Y65.023 E0.01031
G1 X169.258 Y68.430 E0.15324
G1 X169.258 Y68.690 E0.00825
G1 X168.977 Y68.690 E0.00895
G1 X165.121 Y64.834 E0.17343
;WIPE_START
G1 F8640.000
G1 X167.448 Y67.161 E-0.76000
;WIPE_END
G1 E-0.04000 F2100.000
G1 Z0.600 F10800.000
G1 X163.838 Y59.765
G1 Z0.200
G1 E0.80000 F2100.000
G1 F1200.000
G1 X163.415 Y59.341 E0.01904
G1 X162.874 Y59.341 E0.01720
G1 X163.423 Y59.891 E0.02473
G1 X163.180 Y60.188 E0.01222
G1 X162.333 Y59.341 E0.03809
G1 X161.792 Y59.341 E0.01720
G1 X162.964 Y60.514 E0.05273
G1 X162.777 Y60.868 E0.01273
G1 X161.251 Y59.341 E0.06866
G1 X160.710 Y59.341 E0.01720
G1 X162.651 Y61.283 E0.08732
G1 X162.608 Y61.426 E0.00476
G1 X162.576 Y61.749 E0.01031
G1 X160.204 Y59.376 E0.10670
;WIPE_START
G1 F8640.000
G1 X162.531 Y61.704 E-0.76000
;WIPE_END
G1 E-0.04000 F2100.000
G1 Z0.600 F10800.000
G1 X161.233 Y60.946
G1 Z0.200
G1 E0.80000 F2100.000
G1 F1200.000
G1 X162.766 Y62.479 E0.06894
;WIPE_START
G1 F8640.000
G1 X161.233 Y60.946 E-0.50054
;WIPE_END
G1 E-0.29946 F2100.000
G1 Z0.600 F10800.000
G1 X161.409 Y61.663
G1 Z0.200
G1 E0.80000 F2100.000
G1 F1200.000
G1 X162.718 Y62.972 E0.05890
G1 X162.781 Y63.178 E0.00683
G1 X163.061 Y63.702 E0.01890
G1 X163.438 Y64.162 E0.01890
G1 X163.897 Y64.539 E0.01890
G1 X164.422 Y64.819 E0.01890
G1 X164.627 Y64.881 E0.00683
G1 X168.436 Y68.690 E0.17130
G1 X167.895 Y68.690 E0.01720
G1 X161.579 Y62.374 E0.28407
G1 X161.556 Y62.609 E0.00751
G1 X161.490 Y62.826 E0.00721
G1 X167.354 Y68.690 E0.26374
G1 X166.813 Y68.690 E0.01720
G1 X161.355 Y63.232 E0.24550
G1 X161.166 Y63.584 E0.01271
G1 X166.272 Y68.690 E0.22965
G1 X165.731 Y68.690 E0.01720
G1 X160.941 Y63.900 E0.21545
G1 X160.691 Y64.191 E0.01220
G1 X165.190 Y68.690 E0.20237
G1 X164.649 Y68.690 E0.01720
G1 X160.394 Y64.434 E0.19140
G1 X160.266 Y64.539 E0.00524
G1 X160.065 Y64.646 E0.00726
G1 X164.109 Y68.690 E0.18186
G1 X163.568 Y68.690 E0.01720
G1 X159.707 Y64.830 E0.17363
G1 X159.292 Y64.956 E0.01379
G1 X163.027 Y68.690 E0.16796
G1 X162.486 Y68.690 E0.01720
G1 X158.822 Y65.026 E0.16479
G1 X158.582 Y65.050 E0.00767
G1 X158.274 Y65.020 E0.00983
G1 X162.115 Y68.860 E0.17272
;WIPE_START
G1 F8640.000
G1 X159.787 Y66.532 E-0.76000
;WIPE_END
G1 E-0.04000 F2100.000
G1 Z0.600 F10800.000
G1 X156.820 Y59.779
G1 Z0.200
G1 E0.80000 F2100.000
G1 F1200.000
G1 X156.383 Y59.341 E0.01969
G1 X155.842 Y59.341 E0.01720
G1 X156.409 Y59.909 E0.02552
G1 X156.165 Y60.206 E0.01222
G1 X155.301 Y59.341 E0.03888
G1 X154.760 Y59.341 E0.01720
G1 X155.953 Y60.535 E0.05367
G1 X155.770 Y60.892 E0.01278
G1 X154.219 Y59.341 E0.06977
G1 X153.678 Y59.341 E0.01721
G1 X155.644 Y61.307 E0.08845
G1 X155.608 Y61.426 E0.00395
G1 X155.573 Y61.778 E0.01123
G1 X153.136 Y59.341 E0.10960
G1 X152.595 Y59.340 E0.01721
G1 X155.769 Y62.514 E0.14275
;WIPE_START
G1 F8640.000
G1 X153.442 Y60.187 E-0.76000
;WIPE_END
G1 E-0.04000 F2100.000
G1 Z0.600 F10800.000
G1 X151.885 Y59.171
G1 Z0.200
G1 E0.80000 F2100.000
G1 F1200.000
G1 X155.732 Y63.018 E0.17305
G1 X155.781 Y63.178 E0.00532
G1 X156.061 Y63.702 E0.01890
G1 X156.438 Y64.162 E0.01890
G1 X156.897 Y64.539 E0.01890
G1 X157.422 Y64.819 E0.01890
G1 X157.582 Y64.868 E0.00532
G1 X161.404 Y68.690 E0.17192
G1 X160.863 Y68.690 E0.01720
G1 X151.513 Y59.340 E0.42052
G1 X150.972 Y59.340 E0.01721
G1 X160.322 Y68.690 E0.42053
G1 X159.781 Y68.690 E0.01720
G1 X150.431 Y59.340 E0.42054
G1 X149.890 Y59.340 E0.01721
G1 X159.240 Y68.690 E0.42055
