; generated by PrusaSlicer 2.3.1+win64 on 2022-05-06 at 03:16:22 UTC

; 

; external perimeters extrusion width = 0.45mm
; perimeters extrusion width = 0.45mm
; infill extrusion width = 0.45mm
; solid infill extrusion width = 0.45mm
; top infill extrusion width = 0.40mm
; support material extrusion width = 0.35mm
; first layer extrusion width = 0.42mm

M73 P0 R42
M73 Q0 S42
M201 X1000 Y1000 Z200 E5000 ; sets maximum accelerations, mm/sec^2
M203 X200 Y200 Z12 E120 ; sets maximum feedrates, mm/sec
M204 P1250 R1250 T1250 ; sets acceleration (P, T) and retract acceleration (R), mm/sec^2
M205 X8.00 Y8.00 Z0.40 E4.50 ; sets the jerk limits, mm/sec
M205 S0 T0 ; sets the minimum extruding and travel feed rate, mm/sec
M107
;TYPE:Custom
M862.3 P "MK3S" ; printer model check
M862.1 P0.4 ; nozzle diameter check
M115 U3.9.3 ; tell printer latest fw version
G90 ; use absolute coordinates
M83 ; extruder relative mode
M104 S215 ; set extruder temp
M140 S67 ; set bed temp
M190 S67 ; wait for bed temp
M109 S215 ; wait for extruder temp
G28 W ; home all without mesh bed level
G80 ; mesh bed leveling
G1 Y-3.0 F1000.0 ; go outside print area
G92 E0.0
G1 X60.0 E9.0 F1000.0 ; intro line
G1 X100.0 E12.5 F1000.0 ; intro line
G92 E0.0
M221 S95

; Don't change E values below. Excessive value can damage the printer.

M907 E538 ; set extruder motor current
G21 ; set units to millimeters
G90 ; use absolute coordinates
M83 ; use relative distances for extrusion
M900 K0.05 ; Filament gcode LA 1.5
M900 K30 ; Filament gcode LA 1.0
;LAYER_CHANGE
;Z:0.2
;HEIGHT:0.2
;BEFORE_LAYER_CHANGE
G92 E0.0
;0.2


G1 E-0.80000 F2100.000
G1 Z0.400 F10800.000
;AFTER_LAYER_CHANGE
;0.2
; printing object z_zero_base.stl id:1 copy 0
G1 X151.668 Y77.713
G1 Z0.200
G1 E0.80000 F2100.000
M204 S1000
;TYPE:Support material
;WIDTH:0.42
G1 F1200.000
G1 X151.668 Y81.163 E0.10815
G1 X150.914 Y81.163 E0.02365
G1 X150.914 Y77.883 E0.10283
G1 X150.160 Y77.883 E0.02365
G1 X150.160 Y81.163 E0.10283
G1 X149.406 Y81.163 E0.02365
G1 X149.406 Y77.883 E0.10283
G1 X148.652 Y77.883 E0.02365
G1 X148.652 Y81.163 E0.10283
G1 X147.897 Y81.163 E0.02365
G1 X147.897 Y77.883 E0.10283
G1 X147.143 Y77.883 E0.02365
G1 X147.143 Y81.163 E0.10283
G1 X146.389 Y81.163 E0.02365
G1 X146.389 Y77.883 E0.10283
G1 X145.635 Y77.883 E0.02365
G1 X145.635 Y81.163 E0.10283
G1 X145.547 Y81.163 E0.00276
G1 X145.305 Y81.405 E0.01074
G1 X145.305 Y84.748 E0.10480
G1 X145.547 Y84.990 E0.01074
M73 P0 R41
G1 X145.635 Y84.990 E0.00276
G1 X145.635 Y101.163 E0.50709
G1 X146.389 Y101.163 E0.02365
G1 X146.389 Y84.990 E0.50709
G1 X147.143 Y84.990 E0.02365
G1 X147.143 Y101.163 E0.50709
G1 X147.897 Y101.163 E0.02365
G1 X147.897 Y101.033 E0.00408
G1 X147.148 Y101.033 E0.02351
G1 X147.148 Y100.348 E0.02146
G1 X147.897 Y100.348 E0.02351
G1 X147.897 Y84.990 E0.48155
G1 X148.652 Y84.990 E0.02365
G1 X148.652 Y100.348 E0.48155
G1 X149.406 Y100.348 E0.02365
G1 X149.406 Y84.990 E0.48155
G1 X150.160 Y84.990 E0.02365
G1 X150.160 Y100.348 E0.48155
G1 X150.914 Y100.348 E0.02365
G1 X150.914 Y84.990 E0.48155
M73 Q0 S41
G1 X151.668 Y84.990 E0.02365
G1 X151.668 Y100.348 E0.48155
G1 X152.422 Y100.348 E0.02365
G1 X152.422 Y77.883 E0.70438
G1 X153.177 Y77.883 E0.02365
G1 X153.177 Y100.348 E0.70438
G1 X153.931 Y100.348 E0.02365
G1 X153.931 Y77.883 E0.70438
G1 X154.685 Y77.883 E0.02365
G1 X154.685 Y110.270 E1.01546
G1 X155.439 Y110.270 E0.02365
G1 X155.439 Y77.883 E1.01546
G1 X156.193 Y77.883 E0.02365
G1 X156.193 Y110.270 E1.01546
M73 P1 R41
M73 Q1 S41
G1 X156.947 Y110.270 E0.02365
G1 X156.947 Y77.883 E1.01546
G1 X157.702 Y77.883 E0.02365
G1 X157.702 Y110.270 E1.01546
G1 X158.456 Y110.270 E0.02365
G1 X158.456 Y77.883 E1.01546
G1 X159.210 Y77.883 E0.02365
G1 X159.210 Y110.270 E1.01546
G1 X159.964 Y110.270 E0.02365
G1 X159.964 Y77.883 E1.01546
G1 X160.718 Y77.883 E0.02365
G1 X160.718 Y110.270 E1.01546
G1 X161.472 Y110.270 E0.02365
G1 X161.472 Y77.883 E1.01546
G1 X162.227 Y77.883 E0.02365
G1 X162.227 Y110.270 E1.01546
G1 X162.981 Y110.270 E0.02365
G1 X162.981 Y77.883 E1.01546
G1 X163.735 Y77.883 E0.02365
G1 X163.735 Y110.270 E1.01546
G1 X164.489 Y110.270 E0.02365
G1 X164.489 Y77.883 E1.01546
G1 X165.243 Y77.883 E0.02365
G1 X165.243 Y110.270 E1.01546
G1 X165.997 Y110.270 E0.02365
G1 X165.997 Y77.883 E1.01546
G1 X166.751 Y77.883 E0.02365
G1 X166.751 Y110.270 E1.01546
G1 X167.506 Y110.270 E0.02365
G1 X167.506 Y87.804 E0.70438
M73 Q2 S41
G1 X168.260 Y87.804 E0.02365
M73 P2 R41
G1 X168.260 Y110.270 E0.70438
G1 X169.014 Y110.270 E0.02365
G1 X169.014 Y87.804 E0.70438
G1 X169.768 Y87.804 E0.02365
G1 X169.768 Y110.270 E0.70438
G1 X170.522 Y110.270 E0.02365
G1 X170.522 Y87.804 E0.70438
G1 X171.276 Y87.804 E0.02365
G1 X171.276 Y110.270 E0.70438
G1 X172.031 Y110.270 E0.02365
G1 X172.031 Y87.804 E0.70438
G1 X172.785 Y87.804 E0.02365
G1 X172.785 Y110.270 E0.70438
G1 X173.539 Y110.270 E0.02365
G1 X173.539 Y87.804 E0.70438
G1 X174.293 Y87.804 E0.02365
G1 X174.293 Y110.270 E0.70438
G1 X175.047 Y110.270 E0.02365
G1 X175.047 Y87.804 E0.70438
G1 X175.801 Y87.804 E0.02365
G1 X175.801 Y110.270 E0.70438
G1 X176.556 Y110.270 E0.02365
G1 X176.556 Y87.804 E0.70438
G1 X177.310 Y87.804 E0.02365
G1 X177.310 Y110.270 E0.70438
G1 X178.064 Y110.270 E0.02365
G1 X178.064 Y87.804 E0.70438
G1 X178.818 Y87.804 E0.02365
G1 X178.818 Y110.270 E0.70438
G1 X179.572 Y110.270 E0.02365
G1 X179.572 Y87.804 E0.70438
G1 X180.326 Y87.804 E0.02365
G1 X180.326 Y110.270 E0.70438
M73 P2 R40
G1 X181.080 Y110.270 E0.02365
G1 X181.080 Y87.804 E0.70438
G1 X181.835 Y87.804 E0.02365
G1 X181.835 Y110.270 E0.70438
G1 X182.589 Y110.270 E0.02365
G1 X182.589 Y87.804 E0.70438
G1 X183.343 Y87.804 E0.02365
G1 X183.343 Y110.270 E0.70438
G1 X184.097 Y110.270 E0.02365
G1 X184.097 Y87.804 E0.70438
M73 P3 R40
M73 Q3 S40
G1 X184.851 Y87.804 E0.02365
G1 X184.851 Y110.270 E0.70438
G1 X185.605 Y110.270 E0.02365
G1 X185.605 Y87.804 E0.70438
G1 X186.360 Y87.804 E0.02365
G1 X186.360 Y110.439 E0.70970
;WIPE_START
G1 F8640.000
G1 X186.360 Y107.148 E-0.76000
;WIPE_END
G1 E-0.04000 F2100.000
G1 Z0.600 F10800.000
G1 X149.406 Y100.863
G1 Z0.200
G1 E0.80000 F2100.000
G1 F1200.000
G1 X149.406 Y101.163 E0.00940
G1 X150.160 Y101.163 E0.02365
G1 X150.160 Y101.033 E0.00408
G1 X150.914 Y101.033 E0.02365
G1 X150.914 Y101.163 E0.00408
G1 X151.668 Y101.163 E0.02365
G1 X151.668 Y101.033 E0.00408
G1 X152.422 Y101.033 E0.02365
G1 X152.422 Y110.270 E0.28962
G1 X153.177 Y110.270 E0.02365
G1 X153.177 Y101.033 E0.28962
G1 X153.931 Y101.033 E0.02365
G1 X153.931 Y110.439 E0.29494
G1 X151.668 Y110.439 F10800.000
G1 F1200.000
G1 X151.668 Y106.990 E0.10815
G1 X150.914 Y106.990 E0.02365
G1 X150.914 Y110.270 E0.10283
G1 X150.160 Y110.270 E0.02365
G1 X150.160 Y106.990 E0.10283
G1 X149.406 Y106.990 E0.02365
G1 X149.406 Y110.270 E0.10283
G1 X148.652 Y110.270 E0.02365
G1 X148.652 Y106.990 E0.10283
G1 X147.897 Y106.990 E0.02365
G1 X147.897 Y110.270 E0.10283
G1 X147.143 Y110.270 E0.02365
G1 X147.143 Y106.990 E0.10283
G1 X146.389 Y106.990 E0.02365
G1 X146.389 Y110.270 E0.10283
G1 X145.635 Y110.270 E0.02365
G1 X145.635 Y106.820 E0.10815
G1 X144.881 Y110.439 F10800.000
G1 F1200.000
G1 X144.881 Y77.883 E1.02078
G1 X144.127 Y77.883 E0.02365
G1 X144.127 Y110.270 E1.01546
G1 X143.373 Y110.270 E0.02365
G1 X143.373 Y77.883 E1.01546
G1 X142.618 Y77.883 E0.02365
G1 X142.618 Y110.270 E1.01546
G1 X141.864 Y110.270 E0.02365
G1 X141.864 Y77.883 E1.01546
G1 X141.110 Y77.883 E0.02365
G1 X141.110 Y110.270 E1.01546
G1 X140.356 Y110.270 E0.02365
G1 X140.356 Y77.883 E1.01546
G1 X139.602 Y77.883 E0.02365
G1 X139.602 Y110.270 E1.01546
G1 X138.848 Y110.270 E0.02365
G1 X138.848 Y77.883 E1.01546
G1 X138.093 Y77.883 E0.02365
G1 X138.093 Y110.270 E1.01546
M73 P4 R40
M73 Q4 S40
G1 X137.339 Y110.270 E0.02365
G1 X137.339 Y77.883 E1.01546
G1 X136.585 Y77.883 E0.02365
G1 X136.585 Y110.270 E1.01546
G1 X135.831 Y110.270 E0.02365
G1 X135.831 Y77.883 E1.01546
G1 X135.077 Y77.883 E0.02365
G1 X135.077 Y110.439 E1.02078
;WIPE_START
G1 F8640.000
G1 X135.077 Y107.148 E-0.76000
;WIPE_END
G1 E-0.04000 F2100.000
G1 Z0.600 F10800.000
G1 X147.259 Y105.035
G1 Z0.200
G1 E0.80000 F2100.000
;TYPE:Perimeter
G1 F1200.000
G1 X147.259 Y103.118 E0.06012
G1 X150.177 Y103.118 E0.09148
G1 X150.177 Y105.035 E0.06012
G1 X147.319 Y105.035 E0.08960
G1 X146.882 Y105.412 F10800.000
G1 F1200.000
G1 X146.882 Y102.741 E0.08377
G1 X150.554 Y102.741 E0.11512
G1 X150.554 Y105.412 E0.08377
G1 X146.942 Y105.412 E0.11324
G1 X146.505 Y105.789 F10800.000
G1 F1200.000
G1 X146.505 Y102.363 E0.10741
G1 X150.931 Y102.363 E0.13877
G1 X150.931 Y105.789 E0.10741
G1 X146.565 Y105.789 E0.13689
G1 X146.128 Y106.166 F10800.000
;TYPE:External perimeter
G1 F1200.000
G1 X146.128 Y101.986 E0.13106
G1 X151.308 Y101.986 E0.16242
G1 X151.308 Y106.166 E0.13106
G1 X146.188 Y106.166 E0.16053
G1 X146.245 Y105.784 F10800.000
;WIPE_START
G1 F8640.000
G1 X146.141 Y102.875 E-0.76000
;WIPE_END
G1 E-0.04000 F2100.000
G1 Z0.600 F10800.000
G1 X150.064 Y104.029
G1 Z0.200
G1 E0.80000 F2100.000
;TYPE:Solid infill
;WIDTH:0.436956
G1 F1200.000
G1 X149.435 Y103.400 E0.02912
G1 X148.878 Y103.400 E0.01826
G1 X149.894 Y104.417 E0.04708
G1 X149.894 Y104.752 E0.01100
G1 X149.673 Y104.752 E0.00726
G1 X148.321 Y103.400 E0.06264
G1 X147.764 Y103.400 E0.01826
G1 X149.115 Y104.752 E0.06264
G1 X148.558 Y104.752 E0.01826
G1 X147.542 Y103.736 E0.04708
G1 X147.542 Y104.294 E0.01826
G1 X148.171 Y104.922 E0.02912
;WIPE_START
G1 F8640.000
G1 X147.542 Y104.294 E-0.20521
G1 X147.542 Y103.736 E-0.12867
G1 X148.558 Y104.752 E-0.33177
G1 X148.967 Y104.752 E-0.09436
;WIPE_END
G1 E-0.04000 F2100.000
G1 Z0.600 F10800.000
G1 X146.882 Y83.412
G1 Z0.200
G1 E0.80000 F2100.000
;TYPE:Perimeter
;WIDTH:0.42
G1 F1200.000
G1 X146.882 Y82.741 E0.02106
G1 X150.554 Y82.741 E0.11512
G1 X150.554 Y83.412 E0.02106
G1 X146.942 Y83.412 E0.11324
G1 X146.505 Y83.789 F10800.000
G1 F1200.000
G1 X146.505 Y82.363 E0.04471
G1 X150.931 Y82.363 E0.13877
G1 X150.931 Y83.789 E0.04471
G1 X146.565 Y83.789 E0.13689
G1 X146.128 Y84.166 F10800.000
;TYPE:External perimeter
G1 F1200.000
G1 X146.128 Y81.986 E0.06835
G1 X151.308 Y81.986 E0.16242
G1 X151.308 Y84.166 E0.06835
G1 X146.188 Y84.166 E0.16053
G1 X146.281 Y83.797 F10800.000
;WIPE_START
G1 F8640.000
G1 X146.128 Y81.986 E-0.50356
G1 X147.239 Y81.986 E-0.25644
;WIPE_END
G1 E-0.04000 F2100.000
G1 Z0.600 F10800.000
G1 X150.365 Y83.076
G1 Z0.200
G1 E0.80000 F2100.000
;TYPE:Gap fill
;WIDTH:0.337526
G1 F1200.000
G1 X147.071 Y83.076 E0.08071
; stop printing object z_zero_base.stl id:1 copy 0
; printing object z_zero_cover.stl id:0 copy 0
;WIPE_START
G1 F8640.000
G1 X150.362 Y83.076 E-0.76000
;WIPE_END
G1 E-0.04000 F2100.000
G1 Z0.600 F10800.000
G1 X152.054 Y74.136
G1 Z0.200
G1 E0.80000 F2100.000
;TYPE:Perimeter
;WIDTH:0.42
G1 F1200.000
G1 X151.579 Y73.882 E0.01689
G1 X151.162 Y73.540 E0.01689
G1 X150.820 Y73.124 E0.01689
G1 X150.566 Y72.649 E0.01689
G1 X150.410 Y72.133 E0.01689
G1 X150.357 Y71.597 E0.01689
G1 X150.410 Y71.061 E0.01689
G1 X150.566 Y70.545 E0.01689
G1 X150.820 Y70.070 E0.01689
G1 X151.162 Y69.654 E0.01689
G1 X151.579 Y69.312 E0.01689
G1 X152.054 Y69.058 E0.01689
G1 X152.567 Y68.902 E0.01683
G1 X153.084 Y68.850 E0.01628
G1 X153.637 Y68.900 E0.01740
G1 X154.157 Y69.058 E0.01705
G1 X154.632 Y69.312 E0.01689
G1 X155.048 Y69.654 E0.01689
G1 X155.390 Y70.070 E0.01689
G1 X155.644 Y70.545 E0.01689
G1 X155.800 Y71.061 E0.01689
G1 X155.853 Y71.597 E0.01689
G1 X155.800 Y72.133 E0.01689
G1 X155.644 Y72.649 E0.01689
G1 X155.390 Y73.124 E0.01689
G1 X155.048 Y73.540 E0.01689
G1 X154.632 Y73.882 E0.01689
G1 X154.157 Y74.136 E0.01689
G1 X153.641 Y74.292 E0.01689
G1 X153.105 Y74.345 E0.01689
G1 X152.569 Y74.292 E0.01689
G1 X152.111 Y74.153 E0.01501
G1 X152.221 Y73.792 F10800.000
G1 F1200.000
G1 X151.789 Y73.567 E0.01527
G1 X151.430 Y73.272 E0.01456
G1 X151.135 Y72.913 E0.01456
G1 X150.917 Y72.504 E0.01456
G1 X150.782 Y72.059 E0.01456
G1 X150.736 Y71.597 E0.01456
G1 X150.782 Y71.135 E0.01456
G1 X150.917 Y70.690 E0.01456
G1 X151.135 Y70.281 E0.01456
G1 X151.430 Y69.922 E0.01456
G1 X151.789 Y69.627 E0.01456
G1 X152.199 Y69.408 E0.01456
G1 X152.642 Y69.274 E0.01452
G1 X153.086 Y69.229 E0.01399
G1 X153.564 Y69.272 E0.01505
G1 X154.012 Y69.408 E0.01467
G1 X154.421 Y69.627 E0.01456
G1 X154.780 Y69.922 E0.01456
G1 X155.075 Y70.281 E0.01456
G1 X155.294 Y70.690 E0.01456
G1 X155.429 Y71.135 E0.01456
G1 X155.474 Y71.597 E0.01456
G1 X155.429 Y72.059 E0.01456
G1 X155.294 Y72.504 E0.01456
G1 X155.075 Y72.913 E0.01456
G1 X154.780 Y73.272 E0.01456
G1 X154.421 Y73.567 E0.01456
G1 X154.012 Y73.786 E0.01456
G1 X153.567 Y73.920 E0.01456
G1 X153.105 Y73.966 E0.01456
G1 X152.643 Y73.920 E0.01456
G1 X152.278 Y73.810 E0.01196
G1 X152.344 Y73.436 F10800.000
G1 F1200.000
G1 X152.000 Y73.252 E0.01223
G1 X151.698 Y73.004 E0.01223
G1 X151.451 Y72.703 E0.01223
G1 X151.267 Y72.359 E0.01223
G1 X151.153 Y71.985 E0.01223
G1 X151.115 Y71.597 E0.01223
G1 X151.153 Y71.209 E0.01223
G1 X151.267 Y70.835 E0.01223
G1 X151.451 Y70.491 E0.01223
G1 X151.698 Y70.190 E0.01223
G1 X152.000 Y69.942 E0.01223
G1 X152.344 Y69.758 E0.01223
G1 X152.716 Y69.645 E0.01221
G1 X153.088 Y69.608 E0.01171
G1 X153.491 Y69.644 E0.01271
G1 X153.867 Y69.758 E0.01230
G1 X154.211 Y69.942 E0.01223
G1 X154.513 Y70.190 E0.01223
G1 X154.760 Y70.491 E0.01223
G1 X154.944 Y70.835 E0.01223
G1 X155.057 Y71.209 E0.01223
G1 X155.095 Y71.597 E0.01223
G1 X155.057 Y71.985 E0.01223
G1 X154.944 Y72.359 E0.01223
G1 X154.760 Y72.703 E0.01223
G1 X154.513 Y73.004 E0.01223
G1 X154.211 Y73.252 E0.01223
G1 X153.867 Y73.436 E0.01223
G1 X153.494 Y73.549 E0.01223
G1 X153.105 Y73.587 E0.01223
G1 X152.717 Y73.549 E0.01223
G1 X152.401 Y73.453 E0.01035
G1 X152.511 Y73.092 F10800.000
;TYPE:External perimeter
G1 F1200.000
G1 X152.210 Y72.937 E0.01061
G1 X151.966 Y72.736 E0.00990
G1 X151.766 Y72.492 E0.00990
G1 X151.617 Y72.214 E0.00990
G1 X151.525 Y71.911 E0.00990
G1 X151.494 Y71.597 E0.00990
G1 X151.525 Y71.283 E0.00990
G1 X151.617 Y70.980 E0.00990
G1 X151.766 Y70.702 E0.00990
G1 X151.966 Y70.458 E0.00990
G1 X152.210 Y70.257 E0.00990
G1 X152.489 Y70.108 E0.00990
G1 X152.791 Y70.017 E0.00989
G1 X153.090 Y69.986 E0.00942
G1 X153.419 Y70.016 E0.01036
G1 X153.722 Y70.108 E0.00993
G1 X154.000 Y70.257 E0.00990
G1 X154.245 Y70.458 E0.00990
G1 X154.445 Y70.702 E0.00990
G1 X154.594 Y70.980 E0.00990
G1 X154.686 Y71.283 E0.00990
G1 X154.717 Y71.597 E0.00990
G1 X154.686 Y71.911 E0.00990
G1 X154.594 Y72.214 E0.00990
G1 X154.445 Y72.492 E0.00990
G1 X154.245 Y72.736 E0.00990
G1 X154.000 Y72.937 E0.00990
G1 X153.722 Y73.086 E0.00990
G1 X153.420 Y73.177 E0.00990
G1 X153.105 Y73.208 E0.00990
G1 X152.791 Y73.177 E0.00990
G1 X152.568 Y73.110 E0.00731
G1 X152.244 Y73.301 F10800.000
;WIPE_START
G1 F8640.000
G1 X152.210 Y72.937 E-0.09177
G1 X151.966 Y72.736 E-0.07293
G1 X151.766 Y72.492 E-0.07293
G1 X151.617 Y72.214 E-0.07293
G1 X151.525 Y71.911 E-0.07293
G1 X151.494 Y71.597 E-0.07293
G1 X151.525 Y71.283 E-0.07293
G1 X151.617 Y70.980 E-0.07293
G1 X151.766 Y70.702 E-0.07293
G1 X151.966 Y70.458 E-0.07293
G1 X152.006 Y70.425 E-0.01182
;WIPE_END
G1 E-0.04000 F2100.000
G1 Z0.600 F10800.000
G1 X157.410 Y72.133
G1 Z0.200
G1 E0.80000 F2100.000
;TYPE:Perimeter
G1 F1200.000
G1 X157.357 Y71.597 E0.01689
G1 X157.410 Y71.061 E0.01689
G1 X157.566 Y70.545 E0.01689
G1 X157.820 Y70.070 E0.01689
G1 X158.162 Y69.654 E0.01689
G1 X158.579 Y69.312 E0.01689
G1 X159.054 Y69.058 E0.01689
G1 X159.567 Y68.902 E0.01683
G1 X160.084 Y68.850 E0.01628
G1 X160.637 Y68.900 E0.01740
G1 X161.157 Y69.058 E0.01705
G1 X161.632 Y69.312 E0.01689
G1 X162.048 Y69.654 E0.01689
G1 X162.390 Y70.070 E0.01689
G1 X162.644 Y70.545 E0.01689
G1 X162.800 Y71.061 E0.01689
G1 X162.853 Y71.597 E0.01689
G1 X162.800 Y72.133 E0.01689
G1 X162.644 Y72.649 E0.01689
G1 X162.390 Y73.124 E0.01689
G1 X162.048 Y73.540 E0.01689
G1 X161.632 Y73.882 E0.01689
G1 X161.157 Y74.136 E0.01689
G1 X160.641 Y74.292 E0.01689
G1 X160.105 Y74.345 E0.01689
G1 X159.569 Y74.292 E0.01689
G1 X159.054 Y74.136 E0.01689
G1 X158.579 Y73.882 E0.01689
G1 X158.162 Y73.540 E0.01689
G1 X157.820 Y73.124 E0.01689
G1 X157.566 Y72.649 E0.01689
G1 X157.428 Y72.190 E0.01501
