(x_cuts)
(Machine)
(  vendor: Autodesk)
(  model: Generic 3-axis)
(  description: This machine has XY axis on the Table and Z axis on the Head)
(T1  D=2 CR=0 - ZMIN=-11.5 - flat end mill)
G90 G94
G17
G21

(x_cuts)
T1
S12000 M3
G54
M8
G0 X82.1 Y116.834
Z15
Z5
G1 Z2.5 F30
G3 X98.15 Y107.271 Z-0.958 I16.05 J8.687 F200
X98.15 Y143.771 I0 J18.25 F150
X98.15 Y107.271 I0 J-18.25
X106.928 Y109.521 Z-1.917 I0 J18.25 F200
X89.372 Y141.521 I-8.778 J16 F150
X106.928 Y109.521 I8.778 J-16
X113.542 Y115.715 Z-2.875 I-8.778 J16 F200
X82.758 Y135.327 I-15.392 J9.806 F150
X113.542 Y115.715 I15.392 J-9.806
X116.361 Y124.327 Z-3.833 I-15.392 J9.806 F200
X79.939 Y126.715 I-18.211 J1.194 F150
X116.361 Y124.327 I18.211 J-1.194
X114.69 Y133.234 Z-4.792 I-18.211 J1.194 F200
X81.61 Y117.808 I-16.54 J-7.713 F150
X114.69 Y133.234 I16.54 J7.713
X108.941 Y140.239 Z-5.75 I-16.54 J-7.713 F200
X87.359 Y110.803 I-10.791 J-14.718 F150
X108.941 Y140.239 I10.791 J14.718
X100.532 Y143.615 Z-6.708 I-10.791 J-14.718 F200
X95.768 Y107.427 I-2.382 J-18.094 F150
X100.532 Y143.615 I2.382 J18.094
X91.536 Y142.53 Z-7.667 I-2.382 J-18.094 F200
X104.764 Y108.512 I6.614 J-17.009 F150
X91.536 Y142.53 I-6.614 J17.009
X84.17 Y137.252 Z-8.625 I6.614 J-17.009 F200
X112.13 Y113.79 I13.98 J-11.731 F150
X84.17 Y137.252 I-13.98 J11.731
X80.251 Y129.081 Z-9.583 I13.98 J-11.731 F200
X80.072 Y128.021 I17.899 J-3.56 F150
G1 Z-9.5
G3 X80.072 Y123.021 I18.078 J-2.5
G1 Z-9.583 F30
G3 X96.026 Y107.395 I18.078 J2.5 F150
G1 Z-9.5
G3 X101.024 Y107.499 I2.124 J18.126
G1 Z-9.583 F30
G3 X116.065 Y122.04 I-2.874 J18.022 F150
G1 Z-9.5
G3 X116.337 Y127.032 I-17.915 J3.481
G1 Z-9.583 F30
G3 X102.064 Y143.346 I-18.187 J-1.511 F150
G1 Z-9.5
G3 X97.079 Y143.74 I-3.914 J-17.825
G1 Z-9.583 F30
G3 X80.251 Y129.081 I1.071 J-18.219 F150
X80.072 Y128.021 Z-9.696 I17.899 J-3.56 F200
G1 Z-9.5
G3 X80.072 Y123.021 I18.078 J-2.5
G1 Z-10.221 F30
G3 X80.745 Y120.033 Z-10.542 I18.078 J2.5 F200
X96.026 Y107.395 I17.405 J5.488 F150
G1 Z-9.5
G3 X101.024 Y107.499 I2.124 J18.126
G1 Z-10.542 F30
G3 X116.065 Y122.04 I-2.874 J18.022 F150
G1 Z-9.5
G3 X116.337 Y127.032 I-17.915 J3.481
G1 Z-10.542 F30
G3 X102.064 Y143.346 I-18.187 J-1.511 F150
G1 Z-9.5
G3 X97.079 Y143.74 I-3.914 J-17.825
G1 Z-10.542 F30
G3 X80.072 Y128.021 I1.071 J-18.219 F150
G1 Z-9.5
G3 X80.072 Y123.021 I18.078 J-2.5
G1 Z-10.542 F30
G3 X80.745 Y120.033 I18.078 J2.5 F150
X85.53 Y112.338 Z-11.5 I17.405 J5.488 F200
X96.026 Y107.395 I12.62 J13.183 F150
G1 Z-9.5
G3 X101.024 Y107.499 I2.124 J18.126
G1 Z-11.5 F30
G3 X116.065 Y122.04 I-2.874 J18.022 F150
G1 Z-9.5
G3 X116.337 Y127.032 I-17.915 J3.481
G1 Z-11.5 F30
G3 X102.064 Y143.346 I-18.187 J-1.511 F150
G1 Z-9.5
G3 X97.079 Y143.74 I-3.914 J-17.825
G1 Z-11.5 F30
G3 X80.072 Y128.021 I1.071 J-18.219 F150
G1 Z-9.5
G3 X80.072 Y123.021 I18.078 J-2.5
G1 Z-11.5 F30
G3 X85.53 Y112.338 I18.078 J2.5 F150
G0 Z5
X162.331 Y73.486
G1 Z2.5 F30
G3 X148.25 Y65.598 Z-0.958 I-4.831 J-7.888 F200
X166.75 Y65.598 I9.25 J0 F150
X148.25 Y65.598 I-9.25 J0
X149.801 Y60.471 Z-1.917 I9.25 J0 F200
X165.199 Y70.726 I7.699 J5.128 F150
X149.801 Y60.471 I-7.699 J-5.128
X153.935 Y57.063 Z-2.875 I7.699 J5.128 F200
X161.065 Y74.134 I3.565 J8.535 F150
X153.935 Y57.063 I-3.565 J-8.535
X159.264 Y56.518 Z-3.833 I3.565 J8.535 F200
X155.736 Y74.678 I-1.764 J9.08 F150
X159.264 Y56.518 I1.764 J-9.08
X164.002 Y59.019 Z-4.792 I-1.764 J9.08 F200
X150.998 Y72.178 I-6.502 J6.579 F150
X164.002 Y59.019 I6.502 J-6.579
X166.559 Y63.726 Z-5.75 I-6.502 J6.579 F200
X148.441 Y67.47 I-9.059 J1.872 F150
X166.559 Y63.726 I9.059 J-1.872
X166.077 Y69.062 Z-6.708 I-9.059 J1.872 F200
X148.923 Y62.135 I-8.577 J-3.464 F150
X166.077 Y69.062 I8.577 J3.464
X162.719 Y73.236 Z-7.667 I-8.577 J-3.464 F200
X152.281 Y57.961 I-5.219 J-7.637 F150
X162.719 Y73.236 I5.219 J7.637
X157.61 Y74.848 Z-8.625 I-5.219 J-7.637 F200
X157.39 Y56.349 I-0.11 J-9.249 F150
X157.61 Y74.848 I0.11 J9.249
G1 X157.5 Z-8.644 F200
G3 X152.464 Y73.357 Z-9.583 I0 J-9.25
X148.254 Y65.32 I5.036 J-7.759 F150
G1 Z-9.5
G3 X149.75 Y60.549 I9.246 J0.279
G1 Z-9.583 F30
G3 X163.463 Y58.527 I7.75 J5.05 F150
G1 Z-9.5
G3 X166.272 Y62.664 I-5.963 J7.071
G1 Z-9.583 F30
G3 X161.5 Y73.939 I-8.772 J2.935 F150
G1 Z-9.5
G3 X156.575 Y74.802 I-4 J-8.34
G1 Z-9.583 F30
G3 X152.464 Y73.357 I0.925 J-9.204 F150
X149.008 Y69.264 Z-10.542 I5.036 J-7.759 F200
X148.254 Y65.32 I8.492 J-3.666 F150
G1 Z-9.5
G3 X149.75 Y60.549 I9.246 J0.279
G1 Z-10.542 F30
G3 X163.463 Y58.527 I7.75 J5.05 F150
G1 Z-9.5
G3 X166.272 Y62.664 I-5.963 J7.071
G1 Z-10.542 F30
G3 X161.5 Y73.939 I-8.772 J2.935 F150
G1 Z-9.5
G3 X156.575 Y74.802 I-4 J-8.34
G1 Z-10.542 F30
G3 X149.008 Y69.264 I0.925 J-9.204 F150
X148.254 Y65.32 Z-11.255 I8.492 J-3.666 F200
G1 Z-9.5
G3 X148.4 Y63.942 I9.246 J0.279
X149.75 Y60.549 I9.1 J1.656 F150
G1 Z-11.5 F30
G3 X163.463 Y58.527 I7.75 J5.05 F150
G1 Z-9.5
G3 X166.272 Y62.664 I-5.963 J7.071
G1 Z-11.5 F30
G3 X161.5 Y73.939 I-8.772 J2.935 F150
G1 Z-9.5
G3 X156.575 Y74.802 I-4 J-8.34
G1 Z-11.5 F30
G3 X148.254 Y65.32 I0.925 J-9.204 F150
G1 Z-9.5
G3 X148.4 Y63.942 I9.246 J0.279
G0 Z5
X152.669 Y219.71
G1 Z2.5 F30
G3 X166.75 Y227.598 Z-0.958 I4.831 J7.888 F200
X148.25 Y227.598 I-9.25 J0 F150
X166.75 Y227.598 I9.25 J0
X165.199 Y232.726 Z-1.917 I-9.25 J0 F200
X149.801 Y222.47 I-7.699 J-5.128 F150
X165.199 Y232.726 I7.699 J5.128
X161.065 Y236.133 Z-2.875 I-7.699 J-5.128 F200
X153.935 Y219.063 I-3.565 J-8.535 F150
X161.065 Y236.133 I3.565 J8.535
X155.736 Y236.678 Z-3.833 I-3.565 J-8.535 F200
X159.264 Y218.518 I1.764 J-9.08 F150
X155.736 Y236.678 I-1.764 J9.08
X150.998 Y234.177 Z-4.792 I1.764 J-9.08 F200
X164.002 Y221.019 I6.502 J-6.579 F150
X150.998 Y234.177 I-6.502 J6.579
X148.441 Y229.47 Z-5.75 I6.502 J-6.579 F200
X166.559 Y225.726 I9.059 J-1.872 F150
X148.441 Y229.47 I-9.059 J1.872
X148.923 Y224.134 Z-6.708 I9.059 J-1.872 F200
X166.077 Y231.062 I8.577 J3.464 F150
X148.923 Y224.134 I-8.577 J-3.464
X152.281 Y219.961 Z-7.667 I8.577 J3.464 F200
X162.719 Y235.235 I5.219 J7.637 F150
X152.281 Y219.961 I-5.219 J-7.637
X157.39 Y218.349 Z-8.625 I5.219 J7.637 F200
X157.61 Y236.847 I0.11 J9.249 F150
X157.39 Y218.349 I-0.11 J-9.249
G1 X157.5 Y218.348 Z-8.644 F200
G3 X162.536 Y219.839 Z-9.583 I0 J9.25
X166.046 Y231.137 I-5.036 J7.759 F150
G1 Z-9.5
G3 X162.956 Y235.068 I-8.546 J-3.539
G1 Z-9.583 F30
G3 X152.893 Y235.619 I-5.456 J-7.47 F150
G1 Z-9.5
G3 X149.392 Y232.05 I4.607 J-8.021
G1 Z-9.583 F30
G3 X155.022 Y218.686 I8.108 J-4.452 F150
G1 Z-9.5
G3 X160.022 Y218.698 I2.478 J8.912
G1 Z-9.583 F30
G3 X162.536 Y219.839 I-2.522 J8.9 F150
X165.992 Y223.932 Z-10.542 I-5.036 J7.759 F200
X166.046 Y231.137 I-8.492 J3.666 F150
G1 Z-9.5
G3 X162.956 Y235.068 I-8.546 J-3.539
G1 Z-10.542 F30
G3 X152.893 Y235.619 I-5.456 J-7.47 F150
G1 Z-9.5
G3 X149.392 Y232.05 I4.607 J-8.021
G1 Z-10.542 F30
G3 X155.022 Y218.686 I8.108 J-4.452 F150
G1 Z-9.5
G3 X160.022 Y218.698 I2.478 J8.912
G1 Z-10.542 F30
G3 X165.992 Y223.932 I-2.522 J8.9 F150
X166.6 Y229.254 Z-11.5 I-8.492 J3.666 F200
X166.046 Y231.137 I-9.1 J-1.656 F150
G1 Z-9.5
G3 X162.956 Y235.068 I-8.546 J-3.539
G1 Z-11.5 F30
G3 X152.893 Y235.619 I-5.456 J-7.47 F150
G1 Z-9.5
G3 X149.392 Y232.05 I4.607 J-8.021
G1 Z-11.5 F30
G3 X155.022 Y218.686 I8.108 J-4.452 F150
G1 Z-9.5
G3 X160.022 Y218.698 I2.478 J8.912
G1 Z-11.5 F30
G3 X166.6 Y229.254 I-2.522 J8.9 F150
G0 Z15
M9
M5
M30
