(x_back_wood_cutout)
(Machine)
(  vendor: Autodesk)
(  model: Generic 3-axis)
(  description: This machine has XY axis on the Table and Z axis on the Head)
(T1  D=1.9 CR=0 - ZMIN=-7 - flat end mill)
G90 G94
G17
G21

(x_back_wood_cutout)
T1
S12000 M3
G54
M8
G0 X83.734 Y48
Z15
Z5
G1 Z1.5 F50
Z-0.5
Y22 F150
G2 X82.784 Y21.05 I-0.95 J0
G1 X77.26
X69.973 Y4.615
G2 X69.104 Y4.05 I-0.868 J0.385
G1 X45.104
G2 X44.154 Y5 I0 J0.95
G1 Y65
G2 X45.104 Y65.95 I0.95 J0
G1 X69.104
G2 X69.973 Y65.385 I0 J-0.95
G1 X77.26 Y48.95
X82.784
G2 X83.734 Y48 I0 J-0.95
G0 Z5
X18.68 Y65.95
G1 Z1.5 F50
Z-0.5
X42.68 F150
G2 X43.63 Y65 I0 J-0.95
G1 Y5
G2 X42.68 Y4.05 I-0.95 J0
G1 X18.68
G2 X17.811 Y4.615 I0 J0.95
G1 X10.524 Y21.05
X5
G2 X4.05 Y22 I0 J0.95
G1 Y48
G2 X5 Y48.95 I0.95 J0
G1 X10.524
X17.811 Y65.385
G2 X18.68 Y65.95 I0.868 J-0.385
G1 Z-1 F50
X42.68 F150
G2 X43.63 Y65 I0 J-0.95
G1 Y5
G2 X42.68 Y4.05 I-0.95 J0
G1 X18.68
G2 X17.811 Y4.615 I0 J0.95
G1 X10.524 Y21.05
X5
G2 X4.05 Y22 I0 J0.95
G1 Y48
G2 X5 Y48.95 I0.95 J0
G1 X10.524
X17.811 Y65.385
G2 X18.68 Y65.95 I0.868 J-0.385
G0 Z5
X83.734 Y48
G1 Z1 F50
Z-1
Y22 F150
G2 X82.784 Y21.05 I-0.95 J0
G1 X77.26
X69.973 Y4.615
G2 X69.104 Y4.05 I-0.868 J0.385
G1 X45.104
G2 X44.154 Y5 I0 J0.95
G1 Y65
G2 X45.104 Y65.95 I0.95 J0
G1 X69.104
G2 X69.973 Y65.385 I0 J-0.95
G1 X77.26 Y48.95
X82.784
G2 X83.734 Y48 I0 J-0.95
G1 Z-1.5 F50
Y22 F150
G2 X82.784 Y21.05 I-0.95 J0
G1 X77.26
X69.973 Y4.615
G2 X69.104 Y4.05 I-0.868 J0.385
G1 X45.104
G2 X44.154 Y5 I0 J0.95
G1 Y65
G2 X45.104 Y65.95 I0.95 J0
G1 X69.104
G2 X69.973 Y65.385 I0 J-0.95
G1 X77.26 Y48.95
X82.784
G2 X83.734 Y48 I0 J-0.95
G0 Z5
X18.68 Y65.95
G1 Z0.5 F50
Z-1.5
X42.68 F150
G2 X43.63 Y65 I0 J-0.95
G1 Y5
G2 X42.68 Y4.05 I-0.95 J0
G1 X18.68
G2 X17.811 Y4.615 I0 J0.95
G1 X10.524 Y21.05
X5
G2 X4.05 Y22 I0 J0.95
G1 Y48
G2 X5 Y48.95 I0.95 J0
G1 X10.524
X17.811 Y65.385
G2 X18.68 Y65.95 I0.868 J-0.385
G1 Z-2 F50
X42.68 F150
G2 X43.63 Y65 I0 J-0.95
G1 Y5
G2 X42.68 Y4.05 I-0.95 J0
G1 X18.68
G2 X17.811 Y4.615 I0 J0.95
G1 X10.524 Y21.05
X5
G2 X4.05 Y22 I0 J0.95
G1 Y48
G2 X5 Y48.95 I0.95 J0
G1 X10.524
X17.811 Y65.385
G2 X18.68 Y65.95 I0.868 J-0.385
G0 Z5
X83.734 Y48
G1 Z0 F50
Z-2
Y22 F150
G2 X82.784 Y21.05 I-0.95 J0
G1 X77.26
X69.973 Y4.615
G2 X69.104 Y4.05 I-0.868 J0.385
G1 X45.104
G2 X44.154 Y5 I0 J0.95
G1 Y65
G2 X45.104 Y65.95 I0.95 J0
G1 X69.104
G2 X69.973 Y65.385 I0 J-0.95
G1 X77.26 Y48.95
X82.784
G2 X83.734 Y48 I0 J-0.95
G1 Z-2.5 F50
Y22 F150
G2 X82.784 Y21.05 I-0.95 J0
G1 X77.26
X69.973 Y4.615
G2 X69.104 Y4.05 I-0.868 J0.385
G1 X45.104
G2 X44.154 Y5 I0 J0.95
G1 Y65
G2 X45.104 Y65.95 I0.95 J0
G1 X69.104
G2 X69.973 Y65.385 I0 J-0.95
G1 X77.26 Y48.95
X82.784
G2 X83.734 Y48 I0 J-0.95
G0 Z5
X18.68 Y65.95
G1 Z-0.5 F50
Z-2.5
X42.68 F150
G2 X43.63 Y65 I0 J-0.95
G1 Y5
G2 X42.68 Y4.05 I-0.95 J0
G1 X18.68
G2 X17.811 Y4.615 I0 J0.95
G1 X10.524 Y21.05
X5
G2 X4.05 Y22 I0 J0.95
G1 Y48
G2 X5 Y48.95 I0.95 J0
G1 X10.524
X17.811 Y65.385
G2 X18.68 Y65.95 I0.868 J-0.385
G1 Z-3 F50
X42.68 F150
G2 X43.63 Y65 I0 J-0.95
G1 Y5
G2 X42.68 Y4.05 I-0.95 J0
G1 X18.68
G2 X17.811 Y4.615 I0 J0.95
G1 X10.524 Y21.05
X5
G2 X4.05 Y22 I0 J0.95
G1 Y48
G2 X5 Y48.95 I0.95 J0
G1 X10.524
X17.811 Y65.385
G2 X18.68 Y65.95 I0.868 J-0.385
G0 Z5
X83.734 Y48
G1 Z-1 F50
Z-3
Y22 F150
G2 X82.784 Y21.05 I-0.95 J0
G1 X77.26
X69.973 Y4.615
G2 X69.104 Y4.05 I-0.868 J0.385
G1 X45.104
G2 X44.154 Y5 I0 J0.95
G1 Y65
G2 X45.104 Y65.95 I0.95 J0
G1 X69.104
G2 X69.973 Y65.385 I0 J-0.95
G1 X77.26 Y48.95
X82.784
G2 X83.734 Y48 I0 J-0.95
G1 Z-3.5 F50
Y22 F150
G2 X82.784 Y21.05 I-0.95 J0
G1 X77.26
X69.973 Y4.615
G2 X69.104 Y4.05 I-0.868 J0.385
G1 X45.104
G2 X44.154 Y5 I0 J0.95
G1 Y65
G2 X45.104 Y65.95 I0.95 J0
G1 X69.104
G2 X69.973 Y65.385 I0 J-0.95
G1 X77.26 Y48.95
X82.784
G2 X83.734 Y48 I0 J-0.95
G0 Z5
X18.68 Y65.95
G1 Z-1.5 F50
Z-3.5
X42.68 F150
G2 X43.63 Y65 I0 J-0.95
G1 Y5
G2 X42.68 Y4.05 I-0.95 J0
G1 X18.68
G2 X17.811 Y4.615 I0 J0.95
G1 X10.524 Y21.05
X5
G2 X4.05 Y22 I0 J0.95
G1 Y48
G2 X5 Y48.95 I0.95 J0
G1 X10.524
X17.811 Y65.385
G2 X18.68 Y65.95 I0.868 J-0.385
G1 Z-4 F50
X42.68 F150
G2 X43.63 Y65 I0 J-0.95
G1 Y5
G2 X42.68 Y4.05 I-0.95 J0
G1 X18.68
G2 X17.811 Y4.615 I0 J0.95
G1 X10.524 Y21.05
X5
G2 X4.05 Y22 I0 J0.95
G1 Y48
G2 X5 Y48.95 I0.95 J0
G1 X10.524
X17.811 Y65.385
G2 X18.68 Y65.95 I0.868 J-0.385
G0 Z5
X83.734 Y48
G1 Z-2 F50
Z-4
Y22 F150
G2 X82.784 Y21.05 I-0.95 J0
G1 X77.26
X69.973 Y4.615
G2 X69.104 Y4.05 I-0.868 J0.385
G1 X45.104
G2 X44.154 Y5 I0 J0.95
G1 Y65
G2 X45.104 Y65.95 I0.95 J0
G1 X69.104
G2 X69.973 Y65.385 I0 J-0.95
G1 X77.26 Y48.95
X82.784
G2 X83.734 Y48 I0 J-0.95
G1 Z-4.5 F50
Y22 F150
G2 X82.784 Y21.05 I-0.95 J0
G1 X77.26
X69.973 Y4.615
G2 X69.104 Y4.05 I-0.868 J0.385
G1 X45.104
G2 X44.154 Y5 I0 J0.95
G1 Y65
G2 X45.104 Y65.95 I0.95 J0
G1 X69.104
G2 X69.973 Y65.385 I0 J-0.95
G1 X77.26 Y48.95
X82.784
G2 X83.734 Y48 I0 J-0.95
G0 Z5
X18.68 Y65.95
G1 Z-2.5 F50
Z-4.5
X42.68 F150
G2 X43.63 Y65 I0 J-0.95
G1 Y5
G2 X42.68 Y4.05 I-0.95 J0
G1 X18.68
G2 X17.811 Y4.615 I0 J0.95
G1 X10.524 Y21.05
X5
G2 X4.05 Y22 I0 J0.95
G1 Y48
G2 X5 Y48.95 I0.95 J0
G1 X10.524
X17.811 Y65.385
G2 X18.68 Y65.95 I0.868 J-0.385
G1 Z-5 F50
X42.68 F150
G2 X43.63 Y65 I0 J-0.95
G1 Y5
G2 X42.68 Y4.05 I-0.95 J0
G1 X18.68
G2 X17.811 Y4.615 I0 J0.95
G1 X10.524 Y21.05
X5
G2 X4.05 Y22 I0 J0.95
G1 Y48
G2 X5 Y48.95 I0.95 J0
G1 X10.524
X17.811 Y65.385
G2 X18.68 Y65.95 I0.868 J-0.385
G0 Z5
X83.734 Y48
G1 Z-3 F50
Z-5
Y22 F150
G2 X82.784 Y21.05 I-0.95 J0
G1 X77.26
X69.973 Y4.615
G2 X69.104 Y4.05 I-0.868 J0.385
G1 X45.104
G2 X44.154 Y5 I0 J0.95
G1 Y65
G2 X45.104 Y65.95 I0.95 J0
G1 X69.104
G2 X69.973 Y65.385 I0 J-0.95
G1 X77.26 Y48.95
X82.784
G2 X83.734 Y48 I0 J-0.95
G1 Z-5.5 F50
Y37.45 F150
Z-5
Y32.55
Z-5.5 F50
Y22 F150
G2 X82.784 Y21.05 I-0.95 J0
G1 X77.26
X69.973 Y4.615
G2 X69.104 Y4.05 I-0.868 J0.385
G1 X59.554
Z-5
X54.654
Z-5.5 F50
X45.104 F150
G2 X44.154 Y5 I0 J0.95
G1 Y12.55
Z-5
Y17.45
Z-5.5 F50
Y32.55 F150
Z-5
Y37.45
Z-5.5 F50
Y52.55 F150
Z-5
Y57.45
Z-5.5 F50
Y65 F150
G2 X45.104 Y65.95 I0.95 J0
G1 X54.654
Z-5
X59.554
Z-5.5 F50
X69.104 F150
G2 X69.973 Y65.385 I0 J-0.95
G1 X77.26 Y48.95
X82.784
G2 X83.734 Y48 I0 J-0.95
G0 Z5
X18.68 Y65.95
G1 Z-3.5 F50
Z-5.5
X28.23 F150
Z-5
X33.13
Z-5.5 F50
X42.68 F150
G2 X43.63 Y65 I0 J-0.95
G1 Y57.45
Z-5
Y52.55
Z-5.5 F50
Y37.45 F150
Z-5
Y32.55
Z-5.5 F50
Y17.45 F150
Z-5
Y12.55
Z-5.5 F50
Y5 F150
G2 X42.68 Y4.05 I-0.95 J0
G1 X33.13
Z-5
X28.23
Z-5.5 F50
X18.68 F150
G2 X17.811 Y4.615 I0 J0.95
G1 X10.524 Y21.05
X5
G2 X4.05 Y22 I0 J0.95
G1 Y32.55
Z-5
Y37.45
Z-5.5 F50
Y48 F150
G2 X5 Y48.95 I0.95 J0
G1 X10.524
X17.811 Y65.385
G2 X18.68 Y65.95 I0.868 J-0.385
G1 Z-6 F50
X28.23 F150
Z-5
X33.13
Z-6 F50
X42.68 F150
G2 X43.63 Y65 I0 J-0.95
G1 Y57.45
Z-5
Y52.55
Z-6 F50
Y37.45 F150
Z-5
Y32.55
Z-6 F50
Y17.45 F150
Z-5
Y12.55
Z-6 F50
Y5 F150
G2 X42.68 Y4.05 I-0.95 J0
G1 X33.13
Z-5
X28.23
Z-6 F50
X18.68 F150
G2 X17.811 Y4.615 I0 J0.95
G1 X10.524 Y21.05
X5
G2 X4.05 Y22 I0 J0.95
G1 Y32.55
Z-5
Y37.45
Z-6 F50
Y48 F150
G2 X5 Y48.95 I0.95 J0
G1 X10.524
X17.811 Y65.385
G2 X18.68 Y65.95 I0.868 J-0.385
G0 Z5
X83.734 Y48
G1 Z-4 F50
Z-6
Y37.45 F150
Z-5
Y32.55
Z-6 F50
Y22 F150
G2 X82.784 Y21.05 I-0.95 J0
G1 X77.26
X69.973 Y4.615
G2 X69.104 Y4.05 I-0.868 J0.385
G1 X59.554
Z-5
X54.654
Z-6 F50
X45.104 F150
G2 X44.154 Y5 I0 J0.95
G1 Y12.55
Z-5
Y17.45
Z-6 F50
Y32.55 F150
Z-5
Y37.45
Z-6 F50
Y52.55 F150
Z-5
Y57.45
Z-6 F50
Y65 F150
G2 X45.104 Y65.95 I0.95 J0
G1 X54.654
Z-5
X59.554
Z-6 F50
X69.104 F150
G2 X69.973 Y65.385 I0 J-0.95
G1 X77.26 Y48.95
X82.784
G2 X83.734 Y48 I0 J-0.95
G1 Z-6.5 F50
Y37.45 F150
Z-5
Y32.55
Z-6.5 F50
Y22 F150
G2 X82.784 Y21.05 I-0.95 J0
G1 X77.26
X69.973 Y4.615
G2 X69.104 Y4.05 I-0.868 J0.385
G1 X59.554
Z-5
X54.654
Z-6.5 F50
X45.104 F150
G2 X44.154 Y5 I0 J0.95
G1 Y12.55
Z-5
Y17.45
Z-6.5 F50
Y32.55 F150
Z-5
Y37.45
Z-6.5 F50
Y52.55 F150
Z-5
Y57.45
Z-6.5 F50
Y65 F150
G2 X45.104 Y65.95 I0.95 J0
G1 X54.654
Z-5
X59.554
Z-6.5 F50
X69.104 F150
G2 X69.973 Y65.385 I0 J-0.95
G1 X77.26 Y48.95
X82.784
G2 X83.734 Y48 I0 J-0.95
G0 Z5
X18.68 Y65.95
G1 Z-4.5 F50
Z-6.5
X28.23 F150
Z-5
X33.13
Z-6.5 F50
X42.68 F150
G2 X43.63 Y65 I0 J-0.95
G1 Y57.45
Z-5
Y52.55
Z-6.5 F50
Y37.45 F150
Z-5
Y32.55
Z-6.5 F50
Y17.45 F150
Z-5
Y12.55
Z-6.5 F50
Y5 F150
G2 X42.68 Y4.05 I-0.95 J0
G1 X33.13
Z-5
X28.23
Z-6.5 F50
X18.68 F150
G2 X17.811 Y4.615 I0 J0.95
G1 X10.524 Y21.05
X5
G2 X4.05 Y22 I0 J0.95
G1 Y32.55
Z-5
Y37.45
Z-6.5 F50
Y48 F150
G2 X5 Y48.95 I0.95 J0
G1 X10.524
X17.811 Y65.385
G2 X18.68 Y65.95 I0.868 J-0.385
G1 Z-7 F50
X28.23 F150
Z-5
X33.13
Z-7 F50
X42.68 F150
G2 X43.63 Y65 I0 J-0.95
G1 Y57.45
Z-5
Y52.55
Z-7 F50
Y37.45 F150
Z-5
Y32.55
Z-7 F50
Y17.45 F150
Z-5
Y12.55
Z-7 F50
Y5 F150
G2 X42.68 Y4.05 I-0.95 J0
G1 X33.13
Z-5
X28.23
Z-7 F50
X18.68 F150
G2 X17.811 Y4.615 I0 J0.95
G1 X10.524 Y21.05
X5
G2 X4.05 Y22 I0 J0.95
G1 Y32.55
Z-5
Y37.45
Z-7 F50
Y48 F150
G2 X5 Y48.95 I0.95 J0
G1 X10.524
X17.811 Y65.385
G2 X18.68 Y65.95 I0.868 J-0.385
G0 Z5
X83.734 Y48
G1 Z-5 F50
Z-7
Y37.45 F150
Z-5
Y32.55
Z-7 F50
Y22 F150
G2 X82.784 Y21.05 I-0.95 J0
G1 X77.26
X69.973 Y4.615
G2 X69.104 Y4.05 I-0.868 J0.385
G1 X59.554
Z-5
X54.654
Z-7 F50
X45.104 F150
G2 X44.154 Y5 I0 J0.95
G1 Y12.55
Z-5
Y17.45
Z-7 F50
Y32.55 F150
Z-5
Y37.45
Z-7 F50
Y52.55 F150
Z-5
Y57.45
Z-7 F50
Y65 F150
G2 X45.104 Y65.95 I0.95 J0
G1 X54.654
Z-5
X59.554
Z-7 F50
X69.104 F150
G2 X69.973 Y65.385 I0 J-0.95
G1 X77.26 Y48.95
X82.784
G2 X83.734 Y48 I0 J-0.95
G0 Z15
M9
M5
M30
