(x_back_wood_pockets)
(Machine)
(  vendor: Autodesk)
(  model: Generic 3-axis)
(  description: This machine has XY axis on the Table and Z axis on the Head)
(T1  D=1.9 CR=0 - ZMIN=-7 - flat end mill)
G90 G94
G17
G21

(wood_pockets)
T1
S12000 M3
G54
M8
G0 X30.049 Y41
Z15
Z5
G1 Z3 F50
Z-0.5
Y41.027 F150
X30.043 Y41.067
X30.025 Y41.104
X29.996 Y41.133
X29.959 Y41.151
X29.919 Y41.157
X29.865
X29.825 Y41.151
X29.788 Y41.133
X29.759 Y41.104
X29.741 Y41.067
X29.735 Y41.027
Y29.08
G3 X30.049 Y29.08 I0.157 J0
G1 Y41
G2 X30.449 Y41.742 I0.889 J0
G3 X30.207 Y42.55 I-0.242 J0.367
G1 X28.342
Y27.45
X31.442
Y42.55
X30.207
G3 X30.007 Y42.382 I0 J-0.202
G1 X29.867 Y41.565
X29.852 Y41.515
X29.825 Y41.472
X29.807 Y41.446
X29.793 Y41.418
X29.659 Y41.074
G3 X30.035 Y40.926 I0.188 J-0.074
X30.049 Y41 I-0.188 J0.074
G1 Z-1 F50
Y41.027 F150
X30.043 Y41.067
X30.025 Y41.104
X29.996 Y41.133
X29.959 Y41.151
X29.919 Y41.157
X29.865
X29.825 Y41.151
X29.788 Y41.133
X29.759 Y41.104
X29.741 Y41.067
X29.735 Y41.027
Y29.08
G3 X30.049 Y29.08 I0.157 J0
G1 Y41
G2 X30.449 Y41.742 I0.889 J0
G3 X30.207 Y42.55 I-0.242 J0.367
G1 X28.342
Y27.45
X31.442
Y42.55
X30.207
G3 X30.007 Y42.382 I0 J-0.202
G1 X29.867 Y41.565
X29.852 Y41.515
X29.825 Y41.472
X29.807 Y41.446
X29.793 Y41.418
X29.659 Y41.074
G3 X30.035 Y40.926 I0.188 J-0.074
X30.049 Y41 I-0.188 J0.074
G1 Z-1.5 F50
Y41.027 F150
X30.043 Y41.067
X30.025 Y41.104
X29.996 Y41.133
X29.959 Y41.151
X29.919 Y41.157
X29.865
X29.825 Y41.151
X29.788 Y41.133
X29.759 Y41.104
X29.741 Y41.067
X29.735 Y41.027
Y29.08
G3 X30.049 Y29.08 I0.157 J0
G1 Y41
G2 X30.449 Y41.742 I0.889 J0
G3 X30.207 Y42.55 I-0.242 J0.367
G1 X28.342
Y27.45
X31.442
Y42.55
X30.207
G3 X30.007 Y42.382 I0 J-0.202
G1 X29.867 Y41.565
X29.852 Y41.515
X29.825 Y41.472
X29.807 Y41.446
X29.793 Y41.418
X29.659 Y41.074
G3 X30.035 Y40.926 I0.188 J-0.074
X30.049 Y41 I-0.188 J0.074
G1 Z-2 F50
Y41.027 F150
X30.043 Y41.067
X30.025 Y41.104
X29.996 Y41.133
X29.959 Y41.151
X29.919 Y41.157
X29.865
X29.825 Y41.151
X29.788 Y41.133
X29.759 Y41.104
X29.741 Y41.067
X29.735 Y41.027
Y29.08
G3 X30.049 Y29.08 I0.157 J0
G1 Y41
G2 X30.449 Y41.742 I0.889 J0
G3 X30.207 Y42.55 I-0.242 J0.367
G1 X28.342
Y27.45
X31.442
Y42.55
X30.207
G3 X30.007 Y42.382 I0 J-0.202
G1 X29.867 Y41.565
X29.852 Y41.515
X29.825 Y41.472
X29.807 Y41.446
X29.793 Y41.418
X29.659 Y41.074
G3 X30.035 Y40.926 I0.188 J-0.074
X30.049 Y41 I-0.188 J0.074
G1 Z-2.5 F50
Y41.027 F150
X30.043 Y41.067
X30.025 Y41.104
X29.996 Y41.133
X29.959 Y41.151
X29.919 Y41.157
X29.865
X29.825 Y41.151
X29.788 Y41.133
X29.759 Y41.104
X29.741 Y41.067
X29.735 Y41.027
Y29.08
G3 X30.049 Y29.08 I0.157 J0
G1 Y41
G2 X30.449 Y41.742 I0.889 J0
G3 X30.207 Y42.55 I-0.242 J0.367
G1 X28.342
Y27.45
X31.442
Y42.55
X30.207
G3 X30.007 Y42.382 I0 J-0.202
G1 X29.867 Y41.565
X29.852 Y41.515
X29.825 Y41.472
X29.807 Y41.446
X29.793 Y41.418
X29.659 Y41.074
G3 X30.035 Y40.926 I0.188 J-0.074
X30.049 Y41 I-0.188 J0.074
G1 Z-3 F50
Y41.027 F150
X30.043 Y41.067
X30.025 Y41.104
X29.996 Y41.133
X29.959 Y41.151
X29.919 Y41.157
X29.865
X29.825 Y41.151
X29.788 Y41.133
X29.759 Y41.104
X29.741 Y41.067
X29.735 Y41.027
Y29.08
G3 X30.049 Y29.08 I0.157 J0
G1 Y41
G2 X30.449 Y41.742 I0.889 J0
G3 X30.207 Y42.55 I-0.242 J0.367
G1 X28.342
Y27.45
X31.442
Y42.55
X30.207
G3 X30.007 Y42.382 I0 J-0.202
G1 X29.867 Y41.565
X29.852 Y41.515
X29.825 Y41.472
X29.807 Y41.446
X29.793 Y41.418
X29.659 Y41.074
G3 X30.035 Y40.926 I0.188 J-0.074
X30.049 Y41 I-0.188 J0.074
G1 Z-3.5 F50
Y41.027 F150
X30.043 Y41.067
X30.025 Y41.104
X29.996 Y41.133
X29.959 Y41.151
X29.919 Y41.157
X29.865
X29.825 Y41.151
X29.788 Y41.133
X29.759 Y41.104
X29.741 Y41.067
X29.735 Y41.027
Y29.08
G3 X30.049 Y29.08 I0.157 J0
G1 Y41
G2 X30.449 Y41.742 I0.889 J0
G3 X30.207 Y42.55 I-0.242 J0.367
G1 X28.342
Y27.45
X31.442
Y42.55
X30.207
G3 X30.007 Y42.382 I0 J-0.202
G1 X29.867 Y41.565
X29.852 Y41.515
X29.825 Y41.472
X29.807 Y41.446
X29.793 Y41.418
X29.659 Y41.074
G3 X30.035 Y40.926 I0.188 J-0.074
X30.049 Y41 I-0.188 J0.074
G1 Z-4 F50
Y41.027 F150
X30.043 Y41.067
X30.025 Y41.104
X29.996 Y41.133
X29.959 Y41.151
X29.919 Y41.157
X29.865
X29.825 Y41.151
X29.788 Y41.133
X29.759 Y41.104
X29.741 Y41.067
X29.735 Y41.027
Y29.08
G3 X30.049 Y29.08 I0.157 J0
G1 Y41
G2 X30.449 Y41.742 I0.889 J0
G3 X30.207 Y42.55 I-0.242 J0.367
G1 X28.342
Y27.45
X31.442
Y42.55
X30.207
G3 X30.007 Y42.382 I0 J-0.202
G1 X29.867 Y41.565
X29.852 Y41.515
X29.825 Y41.472
X29.807 Y41.446
X29.793 Y41.418
X29.659 Y41.074
G3 X30.035 Y40.926 I0.188 J-0.074
X30.049 Y41 I-0.188 J0.074
G1 Z-4.5 F50
Y41.027 F150
X30.043 Y41.067
X30.025 Y41.104
X29.996 Y41.133
X29.959 Y41.151
X29.919 Y41.157
X29.865
X29.825 Y41.151
X29.788 Y41.133
X29.759 Y41.104
X29.741 Y41.067
X29.735 Y41.027
Y29.08
G3 X30.049 Y29.08 I0.157 J0
G1 Y41
G2 X30.449 Y41.742 I0.889 J0
G3 X30.207 Y42.55 I-0.242 J0.367
G1 X28.342
Y27.45
X31.442
Y42.55
X30.207
G3 X30.007 Y42.382 I0 J-0.202
G1 X29.867 Y41.565
X29.852 Y41.515
X29.825 Y41.472
X29.807 Y41.446
X29.793 Y41.418
X29.659 Y41.074
G3 X30.035 Y40.926 I0.188 J-0.074
X30.049 Y41 I-0.188 J0.074
G1 Z-5 F50
Y41.027 F150
X30.043 Y41.067
X30.025 Y41.104
X29.996 Y41.133
X29.959 Y41.151
X29.919 Y41.157
X29.865
X29.825 Y41.151
X29.788 Y41.133
X29.759 Y41.104
X29.741 Y41.067
X29.735 Y41.027
Y29.08
G3 X30.049 Y29.08 I0.157 J0
G1 Y41
G2 X30.449 Y41.742 I0.889 J0
G3 X30.207 Y42.55 I-0.242 J0.367
G1 X28.342
Y27.45
X31.442
Y42.55
X30.207
G3 X30.007 Y42.382 I0 J-0.202
G1 X29.867 Y41.565
X29.852 Y41.515
X29.825 Y41.472
X29.807 Y41.446
X29.793 Y41.418
X29.659 Y41.074
G3 X30.035 Y40.926 I0.188 J-0.074
X30.049 Y41 I-0.188 J0.074
G1 Z-5.5 F50
Y41.027 F150
X30.043 Y41.067
X30.025 Y41.104
X29.996 Y41.133
X29.959 Y41.151
X29.919 Y41.157
X29.865
X29.825 Y41.151
X29.788 Y41.133
X29.759 Y41.104
X29.741 Y41.067
X29.735 Y41.027
Y29.08
G3 X30.049 Y29.08 I0.157 J0
G1 Y41
G2 X30.449 Y41.742 I0.889 J0
G3 X30.207 Y42.55 I-0.242 J0.367
G1 X28.342
Y27.45
X31.442
Y42.55
X30.207
G3 X30.007 Y42.382 I0 J-0.202
G1 X29.867 Y41.565
X29.852 Y41.515
X29.825 Y41.472
X29.807 Y41.446
X29.793 Y41.418
X29.659 Y41.074
G3 X30.035 Y40.926 I0.188 J-0.074
X30.049 Y41 I-0.188 J0.074
G1 Z-6 F50
Y41.027 F150
X30.043 Y41.067
X30.025 Y41.104
X29.996 Y41.133
X29.959 Y41.151
X29.919 Y41.157
X29.865
X29.825 Y41.151
X29.788 Y41.133
X29.759 Y41.104
X29.741 Y41.067
X29.735 Y41.027
Y29.08
G3 X30.049 Y29.08 I0.157 J0
G1 Y41
G2 X30.449 Y41.742 I0.889 J0
G3 X30.207 Y42.55 I-0.242 J0.367
G1 X28.342
Y27.45
X31.442
Y42.55
X30.207
G3 X30.007 Y42.382 I0 J-0.202
G1 X29.867 Y41.565
X29.852 Y41.515
X29.825 Y41.472
X29.807 Y41.446
X29.793 Y41.418
X29.659 Y41.074
G3 X30.035 Y40.926 I0.188 J-0.074
X30.049 Y41 I-0.188 J0.074
G1 Z-6.5 F50
Y41.027 F150
X30.043 Y41.067
X30.025 Y41.104
X29.996 Y41.133
X29.959 Y41.151
X29.919 Y41.157
X29.865
X29.825 Y41.151
X29.788 Y41.133
X29.759 Y41.104
X29.741 Y41.067
X29.735 Y41.027
Y29.08
G3 X30.049 Y29.08 I0.157 J0
G1 Y41
G2 X30.449 Y41.742 I0.889 J0
G3 X30.207 Y42.55 I-0.242 J0.367
G1 X28.342
Y27.45
X31.442
Y42.55
X30.207
G3 X30.007 Y42.382 I0 J-0.202
G1 X29.867 Y41.565
X29.852 Y41.515
X29.825 Y41.472
X29.807 Y41.446
X29.793 Y41.418
X29.659 Y41.074
G3 X30.035 Y40.926 I0.188 J-0.074
X30.049 Y41 I-0.188 J0.074
G1 Z-7 F50
Y41.027 F150
X30.043 Y41.067
X30.025 Y41.104
X29.996 Y41.133
X29.959 Y41.151
X29.919 Y41.157
X29.865
X29.825 Y41.151
X29.788 Y41.133
X29.759 Y41.104
X29.741 Y41.067
X29.735 Y41.027
Y29.08
G3 X30.049 Y29.08 I0.157 J0
G1 Y41
G2 X30.449 Y41.742 I0.889 J0
G3 X30.207 Y42.55 I-0.242 J0.367
G1 X28.342
Y27.45
X31.442
Y42.55
X30.207
G0 Z5
X29.142 Y54.7
G1 Z3 F50
Z-0.5
G3 X29.142 Y56.3 I0 J0.8 F150
X29.142 Y54.7 I0 J-0.8
G1 Z-1 F50
G3 X29.142 Y56.3 I0 J0.8 F150
X29.142 Y54.7 I0 J-0.8
G1 Z-1.5 F50
G3 X29.142 Y56.3 I0 J0.8 F150
X29.142 Y54.7 I0 J-0.8
G1 Z-2 F50
G3 X29.142 Y56.3 I0 J0.8 F150
X29.142 Y54.7 I0 J-0.8
G1 Z-2.5 F50
G3 X29.142 Y56.3 I0 J0.8 F150
X29.142 Y54.7 I0 J-0.8
G1 Z-3 F50
G3 X29.142 Y56.3 I0 J0.8 F150
X29.142 Y54.7 I0 J-0.8
G1 Z-3.5 F50
G3 X29.142 Y56.3 I0 J0.8 F150
X29.142 Y54.7 I0 J-0.8
G1 Z-4 F50
G3 X29.142 Y56.3 I0 J0.8 F150
X29.142 Y54.7 I0 J-0.8
G1 Z-4.5 F50
G3 X29.142 Y56.3 I0 J0.8 F150
X29.142 Y54.7 I0 J-0.8
G1 Z-5 F50
G3 X29.142 Y56.3 I0 J0.8 F150
X29.142 Y54.7 I0 J-0.8
G1 Z-5.5 F50
G3 X29.142 Y56.3 I0 J0.8 F150
X29.142 Y54.7 I0 J-0.8
G1 Z-6 F50
G3 X29.142 Y56.3 I0 J0.8 F150
X29.142 Y54.7 I0 J-0.8
G1 Z-6.5 F50
G3 X29.142 Y56.3 I0 J0.8 F150
X29.142 Y54.7 I0 J-0.8
G1 Z-7 F50
G3 X29.142 Y56.3 I0 J0.8 F150
X29.142 Y54.7 I0 J-0.8
G0 Z5
X13.68 Y34.2
G1 Z3 F50
Z-0.5
G3 X13.68 Y35.8 I0 J0.8 F150
X13.68 Y34.2 I0 J-0.8
G1 Z-1 F50
G3 X13.68 Y35.8 I0 J0.8 F150
X13.68 Y34.2 I0 J-0.8
G1 Z-1.5 F50
G3 X13.68 Y35.8 I0 J0.8 F150
X13.68 Y34.2 I0 J-0.8
G1 Z-2 F50
G3 X13.68 Y35.8 I0 J0.8 F150
X13.68 Y34.2 I0 J-0.8
G1 Z-2.5 F50
G3 X13.68 Y35.8 I0 J0.8 F150
X13.68 Y34.2 I0 J-0.8
G1 Z-3 F50
G3 X13.68 Y35.8 I0 J0.8 F150
X13.68 Y34.2 I0 J-0.8
G1 Z-3.5 F50
G3 X13.68 Y35.8 I0 J0.8 F150
X13.68 Y34.2 I0 J-0.8
G1 Z-4 F50
G3 X13.68 Y35.8 I0 J0.8 F150
X13.68 Y34.2 I0 J-0.8
G1 Z-4.5 F50
G3 X13.68 Y35.8 I0 J0.8 F150
X13.68 Y34.2 I0 J-0.8
G1 Z-5 F50
G3 X13.68 Y35.8 I0 J0.8 F150
X13.68 Y34.2 I0 J-0.8
G1 Z-5.5 F50
G3 X13.68 Y35.8 I0 J0.8 F150
X13.68 Y34.2 I0 J-0.8
G1 Z-6 F50
G3 X13.68 Y35.8 I0 J0.8 F150
X13.68 Y34.2 I0 J-0.8
G1 Z-6.5 F50
G3 X13.68 Y35.8 I0 J0.8 F150
X13.68 Y34.2 I0 J-0.8
G1 Z-7 F50
G3 X13.68 Y35.8 I0 J0.8 F150
X13.68 Y34.2 I0 J-0.8
G0 Z5
X29.942 Y14.5
G1 Z3 F50
Z-0.5
G3 X28.342 Y14.5 I-0.8 J0 F150
X29.942 Y14.5 I0.8 J0
G1 Z-1 F50
G3 X28.342 Y14.5 I-0.8 J0 F150
X29.942 Y14.5 I0.8 J0
G1 Z-1.5 F50
G3 X28.342 Y14.5 I-0.8 J0 F150
X29.942 Y14.5 I0.8 J0
G1 Z-2 F50
G3 X28.342 Y14.5 I-0.8 J0 F150
X29.942 Y14.5 I0.8 J0
G1 Z-2.5 F50
G3 X28.342 Y14.5 I-0.8 J0 F150
X29.942 Y14.5 I0.8 J0
G1 Z-3 F50
G3 X28.342 Y14.5 I-0.8 J0 F150
X29.942 Y14.5 I0.8 J0
G1 Z-3.5 F50
G3 X28.342 Y14.5 I-0.8 J0 F150
X29.942 Y14.5 I0.8 J0
G1 Z-4 F50
G3 X28.342 Y14.5 I-0.8 J0 F150
X29.942 Y14.5 I0.8 J0
G1 Z-4.5 F50
G3 X28.342 Y14.5 I-0.8 J0 F150
X29.942 Y14.5 I0.8 J0
G1 Z-5 F50
G3 X28.342 Y14.5 I-0.8 J0 F150
X29.942 Y14.5 I0.8 J0
G1 Z-5.5 F50
G3 X28.342 Y14.5 I-0.8 J0 F150
X29.942 Y14.5 I0.8 J0
G1 Z-6 F50
G3 X28.342 Y14.5 I-0.8 J0 F150
X29.942 Y14.5 I0.8 J0
G1 Z-6.5 F50
G3 X28.342 Y14.5 I-0.8 J0 F150
X29.942 Y14.5 I0.8 J0
G1 Z-7 F50
G3 X28.342 Y14.5 I-0.8 J0 F150
X29.942 Y14.5 I0.8 J0
G0 Z5
X57.842
G1 Z3 F50
Z-0.5
G3 X59.442 Y14.5 I0.8 J0 F150
X57.842 Y14.5 I-0.8 J0
G1 Z-1 F50
G3 X59.442 Y14.5 I0.8 J0 F150
X57.842 Y14.5 I-0.8 J0
G1 Z-1.5 F50
G3 X59.442 Y14.5 I0.8 J0 F150
X57.842 Y14.5 I-0.8 J0
G1 Z-2 F50
G3 X59.442 Y14.5 I0.8 J0 F150
X57.842 Y14.5 I-0.8 J0
G1 Z-2.5 F50
G3 X59.442 Y14.5 I0.8 J0 F150
X57.842 Y14.5 I-0.8 J0
G1 Z-3 F50
G3 X59.442 Y14.5 I0.8 J0 F150
X57.842 Y14.5 I-0.8 J0
G1 Z-3.5 F50
G3 X59.442 Y14.5 I0.8 J0 F150
X57.842 Y14.5 I-0.8 J0
G1 Z-4 F50
G3 X59.442 Y14.5 I0.8 J0 F150
X57.842 Y14.5 I-0.8 J0
G1 Z-4.5 F50
G3 X59.442 Y14.5 I0.8 J0 F150
X57.842 Y14.5 I-0.8 J0
G1 Z-5 F50
G3 X59.442 Y14.5 I0.8 J0 F150
X57.842 Y14.5 I-0.8 J0
G1 Z-5.5 F50
G3 X59.442 Y14.5 I0.8 J0 F150
X57.842 Y14.5 I-0.8 J0
G1 Z-6 F50
G3 X59.442 Y14.5 I0.8 J0 F150
X57.842 Y14.5 I-0.8 J0
G1 Z-6.5 F50
G3 X59.442 Y14.5 I0.8 J0 F150
X57.842 Y14.5 I-0.8 J0
G1 Z-7 F50
G3 X59.442 Y14.5 I0.8 J0 F150
X57.842 Y14.5 I-0.8 J0
G0 Z5
X57.892 Y41.157
G1 Z3 F50
Z-0.5
X57.865 F150
X57.825 Y41.151
X57.788 Y41.133
X57.759 Y41.104
X57.741 Y41.067
X57.735 Y41.027
Y28.973
X57.741 Y28.933
X57.759 Y28.896
X57.788 Y28.867
X57.825 Y28.849
X57.865 Y28.843
X57.919
X57.959 Y28.849
X57.996 Y28.867
X58.025 Y28.896
X58.043 Y28.933
X58.049 Y28.973
Y41.027
X58.043 Y41.067
X58.025 Y41.104
X57.996 Y41.133
X57.959 Y41.151
X57.919 Y41.157
X57.892
G2 X57.15 Y41.557 I0 J0.889
G3 X56.342 Y41.315 I-0.367 J-0.242
G1 Y27.45
X59.442
Y42.55
X56.342
Y41.315
G3 X56.51 Y41.115 I0.202 J0
G1 X57.327 Y40.975
X57.377 Y40.96
X57.42 Y40.933
X57.446 Y40.915
X57.474 Y40.901
X57.818 Y40.767
G3 X57.966 Y41.143 I0.074 J0.188
X57.892 Y41.157 I-0.074 J-0.188
G1 Z-1 F50
X57.865 F150
X57.825 Y41.151
X57.788 Y41.133
X57.759 Y41.104
X57.741 Y41.067
X57.735 Y41.027
Y28.973
X57.741 Y28.933
X57.759 Y28.896
X57.788 Y28.867
X57.825 Y28.849
X57.865 Y28.843
X57.919
X57.959 Y28.849
X57.996 Y28.867
X58.025 Y28.896
X58.043 Y28.933
X58.049 Y28.973
Y41.027
X58.043 Y41.067
X58.025 Y41.104
X57.996 Y41.133
X57.959 Y41.151
X57.919 Y41.157
X57.892
G2 X57.15 Y41.557 I0 J0.889
G3 X56.342 Y41.315 I-0.367 J-0.242
G1 Y27.45
X59.442
Y42.55
X56.342
Y41.315
G3 X56.51 Y41.115 I0.202 J0
G1 X57.327 Y40.975
X57.377 Y40.96
X57.42 Y40.933
X57.446 Y40.915
X57.474 Y40.901
X57.818 Y40.767
G3 X57.966 Y41.143 I0.074 J0.188
X57.892 Y41.157 I-0.074 J-0.188
G1 Z-1.5 F50
X57.865 F150
X57.825 Y41.151
X57.788 Y41.133
X57.759 Y41.104
X57.741 Y41.067
X57.735 Y41.027
Y28.973
X57.741 Y28.933
X57.759 Y28.896
X57.788 Y28.867
X57.825 Y28.849
X57.865 Y28.843
X57.919
X57.959 Y28.849
X57.996 Y28.867
X58.025 Y28.896
X58.043 Y28.933
X58.049 Y28.973
Y41.027
X58.043 Y41.067
X58.025 Y41.104
X57.996 Y41.133
X57.959 Y41.151
X57.919 Y41.157
X57.892
G2 X57.15 Y41.557 I0 J0.889
G3 X56.342 Y41.315 I-0.367 J-0.242
G1 Y27.45
X59.442
Y42.55
X56.342
Y41.315
G3 X56.51 Y41.115 I0.202 J0
G1 X57.327 Y40.975
X57.377 Y40.96
X57.42 Y40.933
X57.446 Y40.915
X57.474 Y40.901
X57.818 Y40.767
G3 X57.966 Y41.143 I0.074 J0.188
X57.892 Y41.157 I-0.074 J-0.188
G1 Z-2 F50
X57.865 F150
X57.825 Y41.151
X57.788 Y41.133
X57.759 Y41.104
X57.741 Y41.067
X57.735 Y41.027
Y28.973
X57.741 Y28.933
X57.759 Y28.896
X57.788 Y28.867
X57.825 Y28.849
X57.865 Y28.843
X57.919
X57.959 Y28.849
X57.996 Y28.867
X58.025 Y28.896
X58.043 Y28.933
X58.049 Y28.973
Y41.027
X58.043 Y41.067
X58.025 Y41.104
X57.996 Y41.133
X57.959 Y41.151
X57.919 Y41.157
X57.892
G2 X57.15 Y41.557 I0 J0.889
G3 X56.342 Y41.315 I-0.367 J-0.242
G1 Y27.45
X59.442
Y42.55
X56.342
Y41.315
G3 X56.51 Y41.115 I0.202 J0
G1 X57.327 Y40.975
X57.377 Y40.96
X57.42 Y40.933
X57.446 Y40.915
X57.474 Y40.901
X57.818 Y40.767
G3 X57.966 Y41.143 I0.074 J0.188
X57.892 Y41.157 I-0.074 J-0.188
G1 Z-2.5 F50
X57.865 F150
X57.825 Y41.151
X57.788 Y41.133
X57.759 Y41.104
X57.741 Y41.067
X57.735 Y41.027
Y28.973
X57.741 Y28.933
X57.759 Y28.896
X57.788 Y28.867
X57.825 Y28.849
X57.865 Y28.843
X57.919
X57.959 Y28.849
X57.996 Y28.867
X58.025 Y28.896
X58.043 Y28.933
X58.049 Y28.973
Y41.027
X58.043 Y41.067
X58.025 Y41.104
X57.996 Y41.133
X57.959 Y41.151
X57.919 Y41.157
X57.892
G2 X57.15 Y41.557 I0 J0.889
G3 X56.342 Y41.315 I-0.367 J-0.242
G1 Y27.45
X59.442
Y42.55
X56.342
Y41.315
G3 X56.51 Y41.115 I0.202 J0
G1 X57.327 Y40.975
X57.377 Y40.96
X57.42 Y40.933
X57.446 Y40.915
X57.474 Y40.901
X57.818 Y40.767
G3 X57.966 Y41.143 I0.074 J0.188
X57.892 Y41.157 I-0.074 J-0.188
G1 Z-3 F50
X57.865 F150
X57.825 Y41.151
X57.788 Y41.133
X57.759 Y41.104
X57.741 Y41.067
X57.735 Y41.027
Y28.973
X57.741 Y28.933
X57.759 Y28.896
X57.788 Y28.867
X57.825 Y28.849
X57.865 Y28.843
X57.919
X57.959 Y28.849
X57.996 Y28.867
X58.025 Y28.896
X58.043 Y28.933
X58.049 Y28.973
Y41.027
X58.043 Y41.067
X58.025 Y41.104
X57.996 Y41.133
X57.959 Y41.151
X57.919 Y41.157
X57.892
G2 X57.15 Y41.557 I0 J0.889
G3 X56.342 Y41.315 I-0.367 J-0.242
G1 Y27.45
X59.442
Y42.55
X56.342
Y41.315
G3 X56.51 Y41.115 I0.202 J0
G1 X57.327 Y40.975
X57.377 Y40.96
X57.42 Y40.933
X57.446 Y40.915
X57.474 Y40.901
X57.818 Y40.767
G3 X57.966 Y41.143 I0.074 J0.188
X57.892 Y41.157 I-0.074 J-0.188
G1 Z-3.5 F50
X57.865 F150
X57.825 Y41.151
X57.788 Y41.133
X57.759 Y41.104
X57.741 Y41.067
X57.735 Y41.027
Y28.973
X57.741 Y28.933
X57.759 Y28.896
X57.788 Y28.867
X57.825 Y28.849
X57.865 Y28.843
X57.919
X57.959 Y28.849
X57.996 Y28.867
X58.025 Y28.896
X58.043 Y28.933
X58.049 Y28.973
Y41.027
X58.043 Y41.067
X58.025 Y41.104
X57.996 Y41.133
X57.959 Y41.151
X57.919 Y41.157
X57.892
G2 X57.15 Y41.557 I0 J0.889
G3 X56.342 Y41.315 I-0.367 J-0.242
G1 Y27.45
X59.442
Y42.55
X56.342
Y41.315
G3 X56.51 Y41.115 I0.202 J0
G1 X57.327 Y40.975
X57.377 Y40.96
X57.42 Y40.933
X57.446 Y40.915
X57.474 Y40.901
X57.818 Y40.767
G3 X57.966 Y41.143 I0.074 J0.188
X57.892 Y41.157 I-0.074 J-0.188
G1 Z-4 F50
X57.865 F150
X57.825 Y41.151
X57.788 Y41.133
X57.759 Y41.104
X57.741 Y41.067
X57.735 Y41.027
Y28.973
X57.741 Y28.933
X57.759 Y28.896
X57.788 Y28.867
X57.825 Y28.849
X57.865 Y28.843
X57.919
X57.959 Y28.849
X57.996 Y28.867
X58.025 Y28.896
X58.043 Y28.933
X58.049 Y28.973
Y41.027
X58.043 Y41.067
X58.025 Y41.104
X57.996 Y41.133
X57.959 Y41.151
X57.919 Y41.157
X57.892
G2 X57.15 Y41.557 I0 J0.889
G3 X56.342 Y41.315 I-0.367 J-0.242
G1 Y27.45
X59.442
Y42.55
X56.342
Y41.315
G3 X56.51 Y41.115 I0.202 J0
G1 X57.327 Y40.975
X57.377 Y40.96
X57.42 Y40.933
X57.446 Y40.915
X57.474 Y40.901
X57.818 Y40.767
G3 X57.966 Y41.143 I0.074 J0.188
X57.892 Y41.157 I-0.074 J-0.188
G1 Z-4.5 F50
X57.865 F150
X57.825 Y41.151
X57.788 Y41.133
X57.759 Y41.104
X57.741 Y41.067
X57.735 Y41.027
Y28.973
X57.741 Y28.933
X57.759 Y28.896
X57.788 Y28.867
X57.825 Y28.849
X57.865 Y28.843
X57.919
X57.959 Y28.849
X57.996 Y28.867
X58.025 Y28.896
X58.043 Y28.933
X58.049 Y28.973
Y41.027
X58.043 Y41.067
X58.025 Y41.104
X57.996 Y41.133
X57.959 Y41.151
X57.919 Y41.157
X57.892
G2 X57.15 Y41.557 I0 J0.889
G3 X56.342 Y41.315 I-0.367 J-0.242
G1 Y27.45
X59.442
Y42.55
X56.342
Y41.315
G3 X56.51 Y41.115 I0.202 J0
G1 X57.327 Y40.975
X57.377 Y40.96
X57.42 Y40.933
X57.446 Y40.915
X57.474 Y40.901
X57.818 Y40.767
G3 X57.966 Y41.143 I0.074 J0.188
X57.892 Y41.157 I-0.074 J-0.188
G1 Z-5 F50
X57.865 F150
X57.825 Y41.151
X57.788 Y41.133
X57.759 Y41.104
X57.741 Y41.067
X57.735 Y41.027
Y28.973
X57.741 Y28.933
X57.759 Y28.896
X57.788 Y28.867
X57.825 Y28.849
X57.865 Y28.843
X57.919
X57.959 Y28.849
X57.996 Y28.867
X58.025 Y28.896
X58.043 Y28.933
X58.049 Y28.973
Y41.027
X58.043 Y41.067
X58.025 Y41.104
X57.996 Y41.133
X57.959 Y41.151
X57.919 Y41.157
X57.892
G2 X57.15 Y41.557 I0 J0.889
G3 X56.342 Y41.315 I-0.367 J-0.242
G1 Y27.45
X59.442
Y42.55
X56.342
Y41.315
G3 X56.51 Y41.115 I0.202 J0
G1 X57.327 Y40.975
X57.377 Y40.96
X57.42 Y40.933
X57.446 Y40.915
X57.474 Y40.901
X57.818 Y40.767
G3 X57.966 Y41.143 I0.074 J0.188
X57.892 Y41.157 I-0.074 J-0.188
G1 Z-5.5 F50
X57.865 F150
X57.825 Y41.151
X57.788 Y41.133
X57.759 Y41.104
X57.741 Y41.067
X57.735 Y41.027
Y28.973
X57.741 Y28.933
X57.759 Y28.896
X57.788 Y28.867
X57.825 Y28.849
X57.865 Y28.843
X57.919
X57.959 Y28.849
X57.996 Y28.867
X58.025 Y28.896
X58.043 Y28.933
X58.049 Y28.973
Y41.027
X58.043 Y41.067
X58.025 Y41.104
X57.996 Y41.133
X57.959 Y41.151
X57.919 Y41.157
X57.892
G2 X57.15 Y41.557 I0 J0.889
G3 X56.342 Y41.315 I-0.367 J-0.242
G1 Y27.45
X59.442
Y42.55
X56.342
Y41.315
G3 X56.51 Y41.115 I0.202 J0
G1 X57.327 Y40.975
X57.377 Y40.96
X57.42 Y40.933
X57.446 Y40.915
X57.474 Y40.901
X57.818 Y40.767
G3 X57.966 Y41.143 I0.074 J0.188
X57.892 Y41.157 I-0.074 J-0.188
G1 Z-6 F50
X57.865 F150
X57.825 Y41.151
X57.788 Y41.133
X57.759 Y41.104
X57.741 Y41.067
X57.735 Y41.027
Y28.973
X57.741 Y28.933
X57.759 Y28.896
X57.788 Y28.867
X57.825 Y28.849
X57.865 Y28.843
X57.919
X57.959 Y28.849
X57.996 Y28.867
X58.025 Y28.896
X58.043 Y28.933
X58.049 Y28.973
Y41.027
X58.043 Y41.067
X58.025 Y41.104
X57.996 Y41.133
X57.959 Y41.151
X57.919 Y41.157
X57.892
G2 X57.15 Y41.557 I0 J0.889
G3 X56.342 Y41.315 I-0.367 J-0.242
G1 Y27.45
X59.442
Y42.55
X56.342
Y41.315
G3 X56.51 Y41.115 I0.202 J0
G1 X57.327 Y40.975
X57.377 Y40.96
X57.42 Y40.933
X57.446 Y40.915
X57.474 Y40.901
X57.818 Y40.767
G3 X57.966 Y41.143 I0.074 J0.188
X57.892 Y41.157 I-0.074 J-0.188
G1 Z-6.5 F50
X57.865 F150
X57.825 Y41.151
X57.788 Y41.133
X57.759 Y41.104
X57.741 Y41.067
X57.735 Y41.027
Y28.973
X57.741 Y28.933
X57.759 Y28.896
X57.788 Y28.867
X57.825 Y28.849
X57.865 Y28.843
X57.919
X57.959 Y28.849
X57.996 Y28.867
X58.025 Y28.896
X58.043 Y28.933
X58.049 Y28.973
Y41.027
X58.043 Y41.067
X58.025 Y41.104
X57.996 Y41.133
X57.959 Y41.151
X57.919 Y41.157
X57.892
G2 X57.15 Y41.557 I0 J0.889
G3 X56.342 Y41.315 I-0.367 J-0.242
G1 Y27.45
X59.442
Y42.55
X56.342
Y41.315
G3 X56.51 Y41.115 I0.202 J0
G1 X57.327 Y40.975
X57.377 Y40.96
X57.42 Y40.933
X57.446 Y40.915
X57.474 Y40.901
X57.818 Y40.767
G3 X57.966 Y41.143 I0.074 J0.188
X57.892 Y41.157 I-0.074 J-0.188
G1 Z-7 F50
X57.865 F150
X57.825 Y41.151
X57.788 Y41.133
X57.759 Y41.104
X57.741 Y41.067
X57.735 Y41.027
Y28.973
X57.741 Y28.933
X57.759 Y28.896
X57.788 Y28.867
X57.825 Y28.849
X57.865 Y28.843
X57.919
X57.959 Y28.849
X57.996 Y28.867
X58.025 Y28.896
X58.043 Y28.933
X58.049 Y28.973
Y41.027
X58.043 Y41.067
X58.025 Y41.104
X57.996 Y41.133
X57.959 Y41.151
X57.919 Y41.157
X57.892
G2 X57.15 Y41.557 I0 J0.889
G3 X56.342 Y41.315 I-0.367 J-0.242
G1 Y27.45
X59.442
Y42.55
X56.342
Y41.315
G0 Z5
X58.642 Y56.3
G1 Z3 F50
Z-0.5
G3 X58.642 Y54.7 I0 J-0.8 F150
X58.642 Y56.3 I0 J0.8
G1 Z-1 F50
G3 X58.642 Y54.7 I0 J-0.8 F150
X58.642 Y56.3 I0 J0.8
G1 Z-1.5 F50
G3 X58.642 Y54.7 I0 J-0.8 F150
X58.642 Y56.3 I0 J0.8
G1 Z-2 F50
G3 X58.642 Y54.7 I0 J-0.8 F150
X58.642 Y56.3 I0 J0.8
G1 Z-2.5 F50
G3 X58.642 Y54.7 I0 J-0.8 F150
X58.642 Y56.3 I0 J0.8
G1 Z-3 F50
G3 X58.642 Y54.7 I0 J-0.8 F150
X58.642 Y56.3 I0 J0.8
G1 Z-3.5 F50
G3 X58.642 Y54.7 I0 J-0.8 F150
X58.642 Y56.3 I0 J0.8
G1 Z-4 F50
G3 X58.642 Y54.7 I0 J-0.8 F150
X58.642 Y56.3 I0 J0.8
G1 Z-4.5 F50
G3 X58.642 Y54.7 I0 J-0.8 F150
X58.642 Y56.3 I0 J0.8
G1 Z-5 F50
G3 X58.642 Y54.7 I0 J-0.8 F150
X58.642 Y56.3 I0 J0.8
G1 Z-5.5 F50
G3 X58.642 Y54.7 I0 J-0.8 F150
X58.642 Y56.3 I0 J0.8
G1 Z-6 F50
G3 X58.642 Y54.7 I0 J-0.8 F150
X58.642 Y56.3 I0 J0.8
G1 Z-6.5 F50
G3 X58.642 Y54.7 I0 J-0.8 F150
X58.642 Y56.3 I0 J0.8
G1 Z-7 F50
G3 X58.642 Y54.7 I0 J-0.8 F150
X58.642 Y56.3 I0 J0.8
G0 Z5
X74.904 Y35
G1 Z3 F50
Z-0.5
G3 X73.304 Y35 I-0.8 J0 F150
X74.904 Y35 I0.8 J0
G1 Z-1 F50
G3 X73.304 Y35 I-0.8 J0 F150
X74.904 Y35 I0.8 J0
G1 Z-1.5 F50
G3 X73.304 Y35 I-0.8 J0 F150
X74.904 Y35 I0.8 J0
G1 Z-2 F50
G3 X73.304 Y35 I-0.8 J0 F150
X74.904 Y35 I0.8 J0
G1 Z-2.5 F50
G3 X73.304 Y35 I-0.8 J0 F150
X74.904 Y35 I0.8 J0
G1 Z-3 F50
G3 X73.304 Y35 I-0.8 J0 F150
X74.904 Y35 I0.8 J0
G1 Z-3.5 F50
G3 X73.304 Y35 I-0.8 J0 F150
X74.904 Y35 I0.8 J0
G1 Z-4 F50
G3 X73.304 Y35 I-0.8 J0 F150
X74.904 Y35 I0.8 J0
G1 Z-4.5 F50
G3 X73.304 Y35 I-0.8 J0 F150
X74.904 Y35 I0.8 J0
G1 Z-5 F50
G3 X73.304 Y35 I-0.8 J0 F150
X74.904 Y35 I0.8 J0
G1 Z-5.5 F50
G3 X73.304 Y35 I-0.8 J0 F150
X74.904 Y35 I0.8 J0
G1 Z-6 F50
G3 X73.304 Y35 I-0.8 J0 F150
X74.904 Y35 I0.8 J0
G1 Z-6.5 F50
G3 X73.304 Y35 I-0.8 J0 F150
X74.904 Y35 I0.8 J0
G1 Z-7 F50
G3 X73.304 Y35 I-0.8 J0 F150
X74.904 Y35 I0.8 J0
G0 Z15
M9
M5
M30
