(x_cutout)
(Machine)
(  vendor: Autodesk)
(  model: Generic 3-axis)
(  description: This machine has XY axis on the Table and Z axis on the Head)
(T1  D=2 CR=0 - ZMIN=-11.75 - flat end mill)
G90 G94
G17
G21

(x_cutout)
T1
S12000 M3
G54
M8
G0 X7.35 Y102.343
Z15
Z5
G1 Z2.5 F30
Y122.021 Z-0.97 F200
Y122.074 Z-0.979
G2 X11.5 Y126.171 I4.15 J-0.053 F150
G1 X62.076 Y126.126
G3 X62.395 Y126.445 I0 J0.319
G1 X62.35 Y153.612
G2 X65.37 Y164.777 I22.148 J0
G1 X107.961 Y237.751
G2 X124.5 Y247.248 I16.539 J-9.653
G1 X190.5
G2 X209.327 Y231.605 I0 J-19.15
G1 X246.614 Y31.415
G2 X246.65 Y31.021 I-2.114 J-0.394
G1 Y9.221
G2 X244.5 Y7.071 I-2.15 J0
G1 X212.2
G2 X210.05 Y9.221 I0 J2.15
G1 X210.095 Y17.788
G3 X209.767 Y18.116 I-0.328 J0
G1 X206.733
G3 X206.405 Y17.788 I0 J-0.328
G1 X206.45 Y9.021
G2 X204.3 Y6.871 I-2.15 J0
G1 X104.704 Y6.752
G2 X103.143 Y7.472 I-0.004 J2.043
X102.55 Y9.086 I1.9 J1.614
G1 X102.595 Y17.588
G3 X102.267 Y17.916 I-0.328 J0
G1 X99.233
G3 X98.905 Y17.588 I0 J-0.328
X98.927 Y13.337 I401.638 J0
G2 X98.95 Y9.086 I-401.616 J-4.251
X96.804 Y6.936 I-2.15 J0
G1 X64.504 Y6.871
G2 X62.35 Y9.021 I-0.004 J2.15
G1 X62.395 Y53.618
G3 X62.348 Y54.089 I-2.395 J0
X60.682 Y58.16 I-11.364 J-2.276
X57.649 Y61.346 I-10.21 J-6.683
G1 X9.059 Y96.684
G2 X7.35 Y100.04 I2.441 J3.356
G1 Y122.021
Y122.074
G2 X7.914 Y122.827 I0.798 J-0.01
G3 X8.63 Y123.436 I-0.348 J1.134
G2 X11.5 Y125.221 I2.87 J-1.415
G1 X62.5
G3 X63.3 Y126.021 I0 J0.8
G1 Y153.612
G2 X66.19 Y164.298 I21.2 J0
G1 X108.782 Y237.272
G2 X124.5 Y246.298 I15.719 J-9.174
G1 X190.5
G2 X208.393 Y231.431 I0 J-18.2
G1 X245.68 Y31.241
X245.695 Y31.132
X245.7 Y31.021
Y9.221
G2 X244.5 Y8.021 I-1.2 J0
G1 X212.2
G2 X211 Y9.221 I0 J1.2
G1 Y18.021
G3 X210 Y19.021 I-1 J0
G1 X206.5
G3 X205.5 Y18.021 I0 J-1
G1 Y9.021
G2 X204.3 Y7.821 I-1.2 J0
G1 X164.501
X104.702 Y7.702
G2 X103.5 Y8.902 I-0.002 J1.2
G1 Y17.821
G3 X102.5 Y18.821 I-1 J0
G1 X99
G3 X98 Y17.821 I0 J-1
G1 Y9.086
G2 X96.802 Y7.886 I-1.2 J0
G1 X64.502 Y7.821
G2 X63.3 Y9.021 I-0.002 J1.2
G1 Y53.921
G3 X58.208 Y62.114 I-12.63 J-2.172
G1 X9.618 Y97.452
G2 X8.3 Y100.04 I1.882 J2.588
G1 Y122.021
G2 X8.63 Y123.436 I3.2 J0
G1 X8.658 Y123.476
X8.696 Y123.506
X8.742 Y123.524
X8.79 Y123.527
X8.839 Y123.53
X8.884 Y123.545
X8.924 Y123.573
X8.955 Y123.61
G2 X11.5 Y125.021 I2.545 J-1.589
G1 X62.5
G3 X63.5 Y126.021 I0 J1
G1 Y153.612
G2 X66.363 Y164.197 I21 J0
G1 X108.954 Y237.171
G2 X124.5 Y246.098 I15.546 J-9.073
G1 X190.5
G2 X208.196 Y231.394 I0 J-18
G1 X245.483 Y31.204
X245.496 Y31.113
X245.5 Y31.021
Y9.221
G2 X244.5 Y8.221 I-1 J0
G1 X212.2
G2 X211.2 Y9.221 I0 J1
G1 Y18.021
G3 X210 Y19.221 I-1.2 J0
G1 X206.5
G3 X205.3 Y18.021 I0 J-1.2
G1 Y9.021
G2 X204.3 Y8.021 I-1 J0
G1 X164.501
X104.702 Y7.902
G2 X103.7 Y8.902 I-0.002 J1
G1 Y17.821
G3 X102.5 Y19.021 I-1.2 J0
G1 X99
G3 X97.8 Y17.821 I0 J-1.2
G1 Y9.086
G2 X96.802 Y8.086 I-1 J0
G1 X64.502 Y8.021
G2 X63.5 Y9.021 I-0.002 J1
G1 Y53.938
G3 X58.325 Y62.276 I-12.83 J-2.189
G1 X9.736 Y97.614
G2 X8.5 Y100.04 I1.765 J2.426
G1 Y122.021
G2 X8.955 Y123.61 I3 J0
G0 Z5
X7.35 Y102.343
G1 Z1.521 F30
Y122.021 Z-1.949 F200
Y122.074 Z-1.958
G2 X11.5 Y126.171 I4.15 J-0.053 F150
G1 X62.076 Y126.126
G3 X62.395 Y126.445 I0 J0.319
G1 X62.35 Y153.612
G2 X65.37 Y164.777 I22.148 J0
G1 X107.961 Y237.751
G2 X124.5 Y247.248 I16.539 J-9.653
G1 X190.5
G2 X209.327 Y231.605 I0 J-19.15
G1 X246.614 Y31.415
G2 X246.65 Y31.021 I-2.114 J-0.394
G1 Y9.221
G2 X244.5 Y7.071 I-2.15 J0
G1 X212.2
G2 X210.05 Y9.221 I0 J2.15
G1 X210.095 Y17.788
G3 X209.767 Y18.116 I-0.328 J0
G1 X206.733
G3 X206.405 Y17.788 I0 J-0.328
G1 X206.45 Y9.021
G2 X204.3 Y6.871 I-2.15 J0
G1 X104.704 Y6.752
G2 X103.143 Y7.472 I-0.004 J2.043
X102.55 Y9.086 I1.9 J1.614
G1 X102.595 Y17.588
G3 X102.267 Y17.916 I-0.328 J0
G1 X99.233
G3 X98.905 Y17.588 I0 J-0.328
X98.927 Y13.337 I401.638 J0
G2 X98.95 Y9.086 I-401.616 J-4.251
X96.804 Y6.936 I-2.15 J0
G1 X64.504 Y6.871
G2 X62.35 Y9.021 I-0.004 J2.15
G1 X62.395 Y53.618
G3 X62.348 Y54.089 I-2.395 J0
X60.682 Y58.16 I-11.364 J-2.276
X57.649 Y61.346 I-10.21 J-6.683
G1 X9.059 Y96.684
G2 X7.35 Y100.04 I2.441 J3.356
G1 Y122.021
Y122.074
G2 X7.914 Y122.827 I0.798 J-0.01
G3 X8.63 Y123.436 I-0.348 J1.134
G2 X11.5 Y125.221 I2.87 J-1.415
G1 X62.5
G3 X63.3 Y126.021 I0 J0.8
G1 Y153.612
G2 X66.19 Y164.298 I21.2 J0
G1 X108.782 Y237.272
G2 X124.5 Y246.298 I15.719 J-9.174
G1 X190.5
G2 X208.393 Y231.431 I0 J-18.2
G1 X245.68 Y31.241
X245.695 Y31.132
X245.7 Y31.021
Y9.221
G2 X244.5 Y8.021 I-1.2 J0
G1 X212.2
G2 X211 Y9.221 I0 J1.2
G1 Y18.021
G3 X210 Y19.021 I-1 J0
G1 X206.5
G3 X205.5 Y18.021 I0 J-1
G1 Y9.021
G2 X204.3 Y7.821 I-1.2 J0
G1 X164.501
X104.702 Y7.702
G2 X103.5 Y8.902 I-0.002 J1.2
G1 Y17.821
G3 X102.5 Y18.821 I-1 J0
G1 X99
G3 X98 Y17.821 I0 J-1
G1 Y9.086
G2 X96.802 Y7.886 I-1.2 J0
G1 X64.502 Y7.821
G2 X63.3 Y9.021 I-0.002 J1.2
G1 Y53.921
G3 X58.208 Y62.114 I-12.63 J-2.172
G1 X9.618 Y97.452
G2 X8.3 Y100.04 I1.882 J2.588
G1 Y122.021
G2 X8.63 Y123.436 I3.2 J0
G1 X8.658 Y123.476
X8.696 Y123.506
X8.742 Y123.524
X8.79 Y123.527
X8.839 Y123.53
X8.884 Y123.545
X8.924 Y123.573
X8.955 Y123.61
G2 X11.5 Y125.021 I2.545 J-1.589
G1 X62.5
G3 X63.5 Y126.021 I0 J1
G1 Y153.612
G2 X66.363 Y164.197 I21 J0
G1 X108.954 Y237.171
G2 X124.5 Y246.098 I15.546 J-9.073
G1 X190.5
G2 X208.196 Y231.394 I0 J-18
G1 X245.483 Y31.204
X245.496 Y31.113
X245.5 Y31.021
Y9.221
G2 X244.5 Y8.221 I-1 J0
G1 X212.2
G2 X211.2 Y9.221 I0 J1
G1 Y18.021
G3 X210 Y19.221 I-1.2 J0
G1 X206.5
G3 X205.3 Y18.021 I0 J-1.2
G1 Y9.021
G2 X204.3 Y8.021 I-1 J0
G1 X164.501
X104.702 Y7.902
G2 X103.7 Y8.902 I-0.002 J1
G1 Y17.821
G3 X102.5 Y19.021 I-1.2 J0
G1 X99
G3 X97.8 Y17.821 I0 J-1.2
G1 Y9.086
G2 X96.802 Y8.086 I-1 J0
G1 X64.502 Y8.021
G2 X63.5 Y9.021 I-0.002 J1
G1 Y53.938
G3 X58.325 Y62.276 I-12.83 J-2.189
G1 X9.736 Y97.614
G2 X8.5 Y100.04 I1.765 J2.426
G1 Y122.021
G2 X8.955 Y123.61 I3 J0
G0 Z5
X7.35 Y102.343
G1 Z0.542 F30
Y122.021 Z-2.928 F200
Y122.074 Z-2.938
G2 X11.5 Y126.171 I4.15 J-0.053 F150
G1 X62.076 Y126.126
G3 X62.395 Y126.445 I0 J0.319
G1 X62.35 Y153.612
G2 X65.37 Y164.777 I22.148 J0
G1 X107.961 Y237.751
G2 X124.5 Y247.248 I16.539 J-9.653
G1 X190.5
G2 X209.327 Y231.605 I0 J-19.15
G1 X246.614 Y31.415
G2 X246.65 Y31.021 I-2.114 J-0.394
G1 Y9.221
G2 X244.5 Y7.071 I-2.15 J0
G1 X212.2
G2 X210.05 Y9.221 I0 J2.15
G1 X210.095 Y17.788
G3 X209.767 Y18.116 I-0.328 J0
G1 X206.733
G3 X206.405 Y17.788 I0 J-0.328
G1 X206.45 Y9.021
G2 X204.3 Y6.871 I-2.15 J0
G1 X104.704 Y6.752
G2 X103.143 Y7.472 I-0.004 J2.043
X102.55 Y9.086 I1.9 J1.614
G1 X102.595 Y17.588
G3 X102.267 Y17.916 I-0.328 J0
G1 X99.233
G3 X98.905 Y17.588 I0 J-0.328
X98.927 Y13.337 I401.638 J0
G2 X98.95 Y9.086 I-401.616 J-4.251
X96.804 Y6.936 I-2.15 J0
G1 X64.504 Y6.871
G2 X62.35 Y9.021 I-0.004 J2.15
G1 X62.395 Y53.618
G3 X62.348 Y54.089 I-2.395 J0
X60.682 Y58.16 I-11.364 J-2.276
X57.649 Y61.346 I-10.21 J-6.683
G1 X9.059 Y96.684
G2 X7.35 Y100.04 I2.441 J3.356
G1 Y122.021
Y122.074
G2 X7.914 Y122.827 I0.798 J-0.01
G3 X8.63 Y123.436 I-0.348 J1.134
G2 X11.5 Y125.221 I2.87 J-1.415
G1 X62.5
G3 X63.3 Y126.021 I0 J0.8
G1 Y153.612
G2 X66.19 Y164.298 I21.2 J0
G1 X108.782 Y237.272
G2 X124.5 Y246.298 I15.719 J-9.174
G1 X190.5
G2 X208.393 Y231.431 I0 J-18.2
G1 X245.68 Y31.241
X245.695 Y31.132
X245.7 Y31.021
Y9.221
G2 X244.5 Y8.021 I-1.2 J0
G1 X212.2
G2 X211 Y9.221 I0 J1.2
G1 Y18.021
G3 X210 Y19.021 I-1 J0
G1 X206.5
G3 X205.5 Y18.021 I0 J-1
G1 Y9.021
G2 X204.3 Y7.821 I-1.2 J0
G1 X164.501
X104.702 Y7.702
G2 X103.5 Y8.902 I-0.002 J1.2
G1 Y17.821
G3 X102.5 Y18.821 I-1 J0
G1 X99
G3 X98 Y17.821 I0 J-1
G1 Y9.086
G2 X96.802 Y7.886 I-1.2 J0
G1 X64.502 Y7.821
G2 X63.3 Y9.021 I-0.002 J1.2
G1 Y53.921
G3 X58.208 Y62.114 I-12.63 J-2.172
G1 X9.618 Y97.452
G2 X8.3 Y100.04 I1.882 J2.588
G1 Y122.021
G2 X8.63 Y123.436 I3.2 J0
G1 X8.658 Y123.476
X8.696 Y123.506
X8.742 Y123.524
X8.79 Y123.527
X8.839 Y123.53
X8.884 Y123.545
X8.924 Y123.573
X8.955 Y123.61
G2 X11.5 Y125.021 I2.545 J-1.589
G1 X62.5
G3 X63.5 Y126.021 I0 J1
G1 Y153.612
G2 X66.363 Y164.197 I21 J0
G1 X108.954 Y237.171
G2 X124.5 Y246.098 I15.546 J-9.073
G1 X190.5
G2 X208.196 Y231.394 I0 J-18
G1 X245.483 Y31.204
X245.496 Y31.113
X245.5 Y31.021
Y9.221
G2 X244.5 Y8.221 I-1 J0
G1 X212.2
G2 X211.2 Y9.221 I0 J1
G1 Y18.021
G3 X210 Y19.221 I-1.2 J0
G1 X206.5
G3 X205.3 Y18.021 I0 J-1.2
G1 Y9.021
G2 X204.3 Y8.021 I-1 J0
G1 X164.501
X104.702 Y7.902
G2 X103.7 Y8.902 I-0.002 J1
G1 Y17.821
G3 X102.5 Y19.021 I-1.2 J0
G1 X99
G3 X97.8 Y17.821 I0 J-1.2
G1 Y9.086
G2 X96.802 Y8.086 I-1 J0
G1 X64.502 Y8.021
G2 X63.5 Y9.021 I-0.002 J1
G1 Y53.938
G3 X58.325 Y62.276 I-12.83 J-2.189
G1 X9.736 Y97.614
G2 X8.5 Y100.04 I1.765 J2.426
G1 Y122.021
G2 X8.955 Y123.61 I3 J0
G0 Z5
X7.35 Y102.343
G1 Z-0.438 F30
Y122.021 Z-3.907 F200
Y122.074 Z-3.917
G2 X11.5 Y126.171 I4.15 J-0.053 F150
G1 X62.076 Y126.126
G3 X62.395 Y126.445 I0 J0.319
G1 X62.35 Y153.612
G2 X65.37 Y164.777 I22.148 J0
G1 X107.961 Y237.751
G2 X124.5 Y247.248 I16.539 J-9.653
G1 X190.5
G2 X209.327 Y231.605 I0 J-19.15
G1 X246.614 Y31.415
G2 X246.65 Y31.021 I-2.114 J-0.394
G1 Y9.221
G2 X244.5 Y7.071 I-2.15 J0
G1 X212.2
G2 X210.05 Y9.221 I0 J2.15
G1 X210.095 Y17.788
G3 X209.767 Y18.116 I-0.328 J0
G1 X206.733
G3 X206.405 Y17.788 I0 J-0.328
G1 X206.45 Y9.021
G2 X204.3 Y6.871 I-2.15 J0
G1 X104.704 Y6.752
G2 X103.143 Y7.472 I-0.004 J2.043
X102.55 Y9.086 I1.9 J1.614
G1 X102.595 Y17.588
G3 X102.267 Y17.916 I-0.328 J0
G1 X99.233
G3 X98.905 Y17.588 I0 J-0.328
X98.927 Y13.337 I401.638 J0
G2 X98.95 Y9.086 I-401.616 J-4.251
X96.804 Y6.936 I-2.15 J0
G1 X64.504 Y6.871
G2 X62.35 Y9.021 I-0.004 J2.15
G1 X62.395 Y53.618
G3 X62.348 Y54.089 I-2.395 J0
X60.682 Y58.16 I-11.364 J-2.276
X57.649 Y61.346 I-10.21 J-6.683
G1 X9.059 Y96.684
G2 X7.35 Y100.04 I2.441 J3.356
G1 Y122.021
Y122.074
G2 X7.914 Y122.827 I0.798 J-0.01
G3 X8.63 Y123.436 I-0.348 J1.134
G2 X11.5 Y125.221 I2.87 J-1.415
G1 X62.5
G3 X63.3 Y126.021 I0 J0.8
G1 Y153.612
G2 X66.19 Y164.298 I21.2 J0
G1 X108.782 Y237.272
G2 X124.5 Y246.298 I15.719 J-9.174
G1 X190.5
G2 X208.393 Y231.431 I0 J-18.2
G1 X245.68 Y31.241
X245.695 Y31.132
X245.7 Y31.021
Y9.221
G2 X244.5 Y8.021 I-1.2 J0
G1 X212.2
G2 X211 Y9.221 I0 J1.2
G1 Y18.021
G3 X210 Y19.021 I-1 J0
G1 X206.5
G3 X205.5 Y18.021 I0 J-1
G1 Y9.021
G2 X204.3 Y7.821 I-1.2 J0
G1 X164.501
X104.702 Y7.702
G2 X103.5 Y8.902 I-0.002 J1.2
G1 Y17.821
G3 X102.5 Y18.821 I-1 J0
G1 X99
G3 X98 Y17.821 I0 J-1
G1 Y9.086
G2 X96.802 Y7.886 I-1.2 J0
G1 X64.502 Y7.821
G2 X63.3 Y9.021 I-0.002 J1.2
G1 Y53.921
G3 X58.208 Y62.114 I-12.63 J-2.172
G1 X9.618 Y97.452
G2 X8.3 Y100.04 I1.882 J2.588
G1 Y122.021
G2 X8.63 Y123.436 I3.2 J0
G1 X8.658 Y123.476
X8.696 Y123.506
X8.742 Y123.524
X8.79 Y123.527
X8.839 Y123.53
X8.884 Y123.545
X8.924 Y123.573
X8.955 Y123.61
G2 X11.5 Y125.021 I2.545 J-1.589
G1 X62.5
G3 X63.5 Y126.021 I0 J1
G1 Y153.612
G2 X66.363 Y164.197 I21 J0
G1 X108.954 Y237.171
G2 X124.5 Y246.098 I15.546 J-9.073
G1 X190.5
G2 X208.196 Y231.394 I0 J-18
G1 X245.483 Y31.204
X245.496 Y31.113
X245.5 Y31.021
Y9.221
G2 X244.5 Y8.221 I-1 J0
G1 X212.2
G2 X211.2 Y9.221 I0 J1
G1 Y18.021
G3 X210 Y19.221 I-1.2 J0
G1 X206.5
G3 X205.3 Y18.021 I0 J-1.2
G1 Y9.021
G2 X204.3 Y8.021 I-1 J0
G1 X164.501
X104.702 Y7.902
G2 X103.7 Y8.902 I-0.002 J1
G1 Y17.821
G3 X102.5 Y19.021 I-1.2 J0
G1 X99
G3 X97.8 Y17.821 I0 J-1.2
G1 Y9.086
G2 X96.802 Y8.086 I-1 J0
G1 X64.502 Y8.021
G2 X63.5 Y9.021 I-0.002 J1
G1 Y53.938
G3 X58.325 Y62.276 I-12.83 J-2.189
G1 X9.736 Y97.614
G2 X8.5 Y100.04 I1.765 J2.426
G1 Y122.021
G2 X8.955 Y123.61 I3 J0
G0 Z5
X7.35 Y102.343
G1 Z-1.417 F30
Y122.021 Z-4.886 F200
Y122.074 Z-4.896
G2 X11.5 Y126.171 I4.15 J-0.053 F150
G1 X62.076 Y126.126
G3 X62.395 Y126.445 I0 J0.319
G1 X62.35 Y153.612
G2 X65.37 Y164.777 I22.148 J0
G1 X107.961 Y237.751
G2 X124.5 Y247.248 I16.539 J-9.653
G1 X190.5
G2 X209.327 Y231.605 I0 J-19.15
G1 X246.614 Y31.415
G2 X246.65 Y31.021 I-2.114 J-0.394
G1 Y9.221
G2 X244.5 Y7.071 I-2.15 J0
G1 X212.2
G2 X210.05 Y9.221 I0 J2.15
G1 X210.095 Y17.788
G3 X209.767 Y18.116 I-0.328 J0
G1 X206.733
G3 X206.405 Y17.788 I0 J-0.328
G1 X206.45 Y9.021
G2 X204.3 Y6.871 I-2.15 J0
G1 X104.704 Y6.752
G2 X103.143 Y7.472 I-0.004 J2.043
X102.55 Y9.086 I1.9 J1.614
G1 X102.595 Y17.588
G3 X102.267 Y17.916 I-0.328 J0
G1 X99.233
G3 X98.905 Y17.588 I0 J-0.328
X98.927 Y13.337 I401.638 J0
G2 X98.95 Y9.086 I-401.616 J-4.251
X96.804 Y6.936 I-2.15 J0
G1 X64.504 Y6.871
G2 X62.35 Y9.021 I-0.004 J2.15
G1 X62.395 Y53.618
G3 X62.348 Y54.089 I-2.395 J0
X60.682 Y58.16 I-11.364 J-2.276
X57.649 Y61.346 I-10.21 J-6.683
G1 X9.059 Y96.684
G2 X7.35 Y100.04 I2.441 J3.356
G1 Y122.021
Y122.074
G2 X7.914 Y122.827 I0.798 J-0.01
G3 X8.63 Y123.436 I-0.348 J1.134
G2 X11.5 Y125.221 I2.87 J-1.415
G1 X62.5
G3 X63.3 Y126.021 I0 J0.8
G1 Y153.612
G2 X66.19 Y164.298 I21.2 J0
G1 X108.782 Y237.272
G2 X124.5 Y246.298 I15.719 J-9.174
G1 X190.5
G2 X208.393 Y231.431 I0 J-18.2
G1 X245.68 Y31.241
X245.695 Y31.132
X245.7 Y31.021
Y9.221
G2 X244.5 Y8.021 I-1.2 J0
G1 X212.2
G2 X211 Y9.221 I0 J1.2
G1 Y18.021
G3 X210 Y19.021 I-1 J0
G1 X206.5
G3 X205.5 Y18.021 I0 J-1
G1 Y9.021
G2 X204.3 Y7.821 I-1.2 J0
G1 X164.501
X104.702 Y7.702
G2 X103.5 Y8.902 I-0.002 J1.2
G1 Y17.821
G3 X102.5 Y18.821 I-1 J0
G1 X99
G3 X98 Y17.821 I0 J-1
G1 Y9.086
G2 X96.802 Y7.886 I-1.2 J0
G1 X64.502 Y7.821
G2 X63.3 Y9.021 I-0.002 J1.2
G1 Y53.921
G3 X58.208 Y62.114 I-12.63 J-2.172
G1 X9.618 Y97.452
G2 X8.3 Y100.04 I1.882 J2.588
G1 Y122.021
G2 X8.63 Y123.436 I3.2 J0
G1 X8.658 Y123.476
X8.696 Y123.506
X8.742 Y123.524
X8.79 Y123.527
X8.839 Y123.53
X8.884 Y123.545
X8.924 Y123.573
X8.955 Y123.61
G2 X11.5 Y125.021 I2.545 J-1.589
G1 X62.5
G3 X63.5 Y126.021 I0 J1
G1 Y153.612
G2 X66.363 Y164.197 I21 J0
G1 X108.954 Y237.171
G2 X124.5 Y246.098 I15.546 J-9.073
G1 X190.5
G2 X208.196 Y231.394 I0 J-18
G1 X245.483 Y31.204
X245.496 Y31.113
X245.5 Y31.021
Y9.221
G2 X244.5 Y8.221 I-1 J0
G1 X212.2
G2 X211.2 Y9.221 I0 J1
G1 Y18.021
G3 X210 Y19.221 I-1.2 J0
G1 X206.5
G3 X205.3 Y18.021 I0 J-1.2
G1 Y9.021
G2 X204.3 Y8.021 I-1 J0
G1 X164.501
X104.702 Y7.902
G2 X103.7 Y8.902 I-0.002 J1
G1 Y17.821
G3 X102.5 Y19.021 I-1.2 J0
G1 X99
G3 X97.8 Y17.821 I0 J-1.2
G1 Y9.086
G2 X96.802 Y8.086 I-1 J0
G1 X64.502 Y8.021
G2 X63.5 Y9.021 I-0.002 J1
G1 Y53.938
G3 X58.325 Y62.276 I-12.83 J-2.189
G1 X9.736 Y97.614
G2 X8.5 Y100.04 I1.765 J2.426
G1 Y122.021
G2 X8.955 Y123.61 I3 J0
G0 Z5
X7.35 Y102.343
G1 Z-2.396 F30
Y122.021 Z-5.866 F200
Y122.074 Z-5.875
G2 X11.5 Y126.171 I4.15 J-0.053 F150
G1 X62.076 Y126.126
G3 X62.395 Y126.445 I0 J0.319
G1 X62.35 Y153.612
G2 X65.37 Y164.777 I22.148 J0
G1 X107.961 Y237.751
G2 X124.5 Y247.248 I16.539 J-9.653
G1 X190.5
G2 X209.327 Y231.605 I0 J-19.15
G1 X246.614 Y31.415
G2 X246.65 Y31.021 I-2.114 J-0.394
G1 Y9.221
G2 X244.5 Y7.071 I-2.15 J0
G1 X212.2
G2 X210.05 Y9.221 I0 J2.15
G1 X210.095 Y17.788
G3 X209.767 Y18.116 I-0.328 J0
G1 X206.733
G3 X206.405 Y17.788 I0 J-0.328
G1 X206.45 Y9.021
G2 X204.3 Y6.871 I-2.15 J0
G1 X104.704 Y6.752
G2 X103.143 Y7.472 I-0.004 J2.043
X102.55 Y9.086 I1.9 J1.614
G1 X102.595 Y17.588
G3 X102.267 Y17.916 I-0.328 J0
G1 X99.233
G3 X98.905 Y17.588 I0 J-0.328
X98.927 Y13.337 I401.638 J0
G2 X98.95 Y9.086 I-401.616 J-4.251
X96.804 Y6.936 I-2.15 J0
G1 X64.504 Y6.871
G2 X62.35 Y9.021 I-0.004 J2.15
G1 X62.395 Y53.618
G3 X62.348 Y54.089 I-2.395 J0
X60.682 Y58.16 I-11.364 J-2.276
X57.649 Y61.346 I-10.21 J-6.683
G1 X9.059 Y96.684
G2 X7.35 Y100.04 I2.441 J3.356
G1 Y122.021
Y122.074
G2 X7.914 Y122.827 I0.798 J-0.01
G3 X8.63 Y123.436 I-0.348 J1.134
G2 X11.5 Y125.221 I2.87 J-1.415
G1 X62.5
G3 X63.3 Y126.021 I0 J0.8
G1 Y153.612
G2 X66.19 Y164.298 I21.2 J0
G1 X108.782 Y237.272
G2 X124.5 Y246.298 I15.719 J-9.174
G1 X190.5
G2 X208.393 Y231.431 I0 J-18.2
G1 X245.68 Y31.241
X245.695 Y31.132
X245.7 Y31.021
Y9.221
G2 X244.5 Y8.021 I-1.2 J0
G1 X212.2
G2 X211 Y9.221 I0 J1.2
G1 Y18.021
G3 X210 Y19.021 I-1 J0
G1 X206.5
G3 X205.5 Y18.021 I0 J-1
G1 Y9.021
G2 X204.3 Y7.821 I-1.2 J0
G1 X164.501
X104.702 Y7.702
G2 X103.5 Y8.902 I-0.002 J1.2
G1 Y17.821
G3 X102.5 Y18.821 I-1 J0
G1 X99
G3 X98 Y17.821 I0 J-1
G1 Y9.086
G2 X96.802 Y7.886 I-1.2 J0
G1 X64.502 Y7.821
G2 X63.3 Y9.021 I-0.002 J1.2
G1 Y53.921
G3 X58.208 Y62.114 I-12.63 J-2.172
G1 X9.618 Y97.452
G2 X8.3 Y100.04 I1.882 J2.588
G1 Y122.021
G2 X8.63 Y123.436 I3.2 J0
G1 X8.658 Y123.476
X8.696 Y123.506
X8.742 Y123.524
X8.79 Y123.527
X8.839 Y123.53
X8.884 Y123.545
X8.924 Y123.573
X8.955 Y123.61
G2 X11.5 Y125.021 I2.545 J-1.589
G1 X62.5
G3 X63.5 Y126.021 I0 J1
G1 Y153.612
G2 X66.363 Y164.197 I21 J0
G1 X108.954 Y237.171
G2 X124.5 Y246.098 I15.546 J-9.073
G1 X190.5
G2 X208.196 Y231.394 I0 J-18
G1 X245.483 Y31.204
X245.496 Y31.113
X245.5 Y31.021
Y9.221
G2 X244.5 Y8.221 I-1 J0
G1 X212.2
G2 X211.2 Y9.221 I0 J1
G1 Y18.021
G3 X210 Y19.221 I-1.2 J0
G1 X206.5
G3 X205.3 Y18.021 I0 J-1.2
G1 Y9.021
G2 X204.3 Y8.021 I-1 J0
G1 X164.501
X104.702 Y7.902
G2 X103.7 Y8.902 I-0.002 J1
G1 Y17.821
G3 X102.5 Y19.021 I-1.2 J0
G1 X99
G3 X97.8 Y17.821 I0 J-1.2
G1 Y9.086
G2 X96.802 Y8.086 I-1 J0
G1 X64.502 Y8.021
G2 X63.5 Y9.021 I-0.002 J1
G1 Y53.938
G3 X58.325 Y62.276 I-12.83 J-2.189
G1 X9.736 Y97.614
G2 X8.5 Y100.04 I1.765 J2.426
G1 Y122.021
G2 X8.955 Y123.61 I3 J0
G0 Z5
X7.35 Y102.343
G1 Z-3.375 F30
Y122.021 Z-6.845 F200
Y122.074 Z-6.854
G2 X11.5 Y126.171 I4.15 J-0.053 F150
G1 X62.076 Y126.126
G3 X62.395 Y126.445 I0 J0.319
G1 X62.35 Y153.612
G2 X65.37 Y164.777 I22.148 J0
G1 X107.961 Y237.751
G2 X124.5 Y247.248 I16.539 J-9.653
G1 X190.5
G2 X209.327 Y231.605 I0 J-19.15
G1 X246.614 Y31.415
G2 X246.65 Y31.021 I-2.114 J-0.394
G1 Y9.221
G2 X244.5 Y7.071 I-2.15 J0
G1 X212.2
G2 X210.05 Y9.221 I0 J2.15
G1 X210.095 Y17.788
G3 X209.767 Y18.116 I-0.328 J0
G1 X206.733
G3 X206.405 Y17.788 I0 J-0.328
G1 X206.45 Y9.021
G2 X204.3 Y6.871 I-2.15 J0
G1 X104.704 Y6.752
G2 X103.143 Y7.472 I-0.004 J2.043
X102.55 Y9.086 I1.9 J1.614
G1 X102.595 Y17.588
G3 X102.267 Y17.916 I-0.328 J0
G1 X99.233
G3 X98.905 Y17.588 I0 J-0.328
X98.927 Y13.337 I401.638 J0
G2 X98.95 Y9.086 I-401.616 J-4.251
X96.804 Y6.936 I-2.15 J0
G1 X64.504 Y6.871
G2 X62.35 Y9.021 I-0.004 J2.15
G1 X62.395 Y53.618
G3 X62.348 Y54.089 I-2.395 J0
X60.682 Y58.16 I-11.364 J-2.276
X57.649 Y61.346 I-10.21 J-6.683
G1 X9.059 Y96.684
G2 X7.35 Y100.04 I2.441 J3.356
G1 Y122.021
Y122.074
G2 X7.914 Y122.827 I0.798 J-0.01
G3 X8.63 Y123.436 I-0.348 J1.134
G2 X11.5 Y125.221 I2.87 J-1.415
G1 X62.5
G3 X63.3 Y126.021 I0 J0.8
G1 Y153.612
G2 X66.19 Y164.298 I21.2 J0
G1 X108.782 Y237.272
G2 X124.5 Y246.298 I15.719 J-9.174
G1 X190.5
G2 X208.393 Y231.431 I0 J-18.2
G1 X245.68 Y31.241
X245.695 Y31.132
X245.7 Y31.021
Y9.221
G2 X244.5 Y8.021 I-1.2 J0
G1 X212.2
G2 X211 Y9.221 I0 J1.2
G1 Y18.021
G3 X210 Y19.021 I-1 J0
G1 X206.5
G3 X205.5 Y18.021 I0 J-1
G1 Y9.021
G2 X204.3 Y7.821 I-1.2 J0
G1 X164.501
X104.702 Y7.702
G2 X103.5 Y8.902 I-0.002 J1.2
G1 Y17.821
G3 X102.5 Y18.821 I-1 J0
G1 X99
G3 X98 Y17.821 I0 J-1
G1 Y9.086
G2 X96.802 Y7.886 I-1.2 J0
G1 X64.502 Y7.821
G2 X63.3 Y9.021 I-0.002 J1.2
G1 Y53.921
G3 X58.208 Y62.114 I-12.63 J-2.172
G1 X9.618 Y97.452
G2 X8.3 Y100.04 I1.882 J2.588
G1 Y122.021
G2 X8.63 Y123.436 I3.2 J0
G1 X8.658 Y123.476
X8.696 Y123.506
X8.742 Y123.524
X8.79 Y123.527
X8.839 Y123.53
X8.884 Y123.545
X8.924 Y123.573
X8.955 Y123.61
G2 X11.5 Y125.021 I2.545 J-1.589
G1 X62.5
G3 X63.5 Y126.021 I0 J1
G1 Y153.612
G2 X66.363 Y164.197 I21 J0
G1 X108.954 Y237.171
G2 X124.5 Y246.098 I15.546 J-9.073
G1 X190.5
G2 X208.196 Y231.394 I0 J-18
G1 X245.483 Y31.204
X245.496 Y31.113
X245.5 Y31.021
Y9.221
G2 X244.5 Y8.221 I-1 J0
G1 X212.2
G2 X211.2 Y9.221 I0 J1
G1 Y18.021
G3 X210 Y19.221 I-1.2 J0
G1 X206.5
G3 X205.3 Y18.021 I0 J-1.2
G1 Y9.021
G2 X204.3 Y8.021 I-1 J0
G1 X164.501
X104.702 Y7.902
G2 X103.7 Y8.902 I-0.002 J1
G1 Y17.821
G3 X102.5 Y19.021 I-1.2 J0
G1 X99
G3 X97.8 Y17.821 I0 J-1.2
G1 Y9.086
G2 X96.802 Y8.086 I-1 J0
G1 X64.502 Y8.021
G2 X63.5 Y9.021 I-0.002 J1
G1 Y53.938
G3 X58.325 Y62.276 I-12.83 J-2.189
G1 X9.736 Y97.614
G2 X8.5 Y100.04 I1.765 J2.426
G1 Y122.021
G2 X8.955 Y123.61 I3 J0
G0 Z5
X7.35 Y102.343
G1 Z-4.354 F30
Y122.021 Z-7.824 F200
Y122.074 Z-7.833
G2 X11.5 Y126.171 I4.15 J-0.053 F150
G1 X62.076 Y126.126
G3 X62.395 Y126.445 I0 J0.319
G1 X62.35 Y153.612
G2 X65.37 Y164.777 I22.148 J0
G1 X107.961 Y237.751
G2 X124.5 Y247.248 I16.539 J-9.653
G1 X190.5
G2 X209.327 Y231.605 I0 J-19.15
G1 X246.614 Y31.415
G2 X246.65 Y31.021 I-2.114 J-0.394
G1 Y9.221
G2 X244.5 Y7.071 I-2.15 J0
G1 X212.2
G2 X210.05 Y9.221 I0 J2.15
G1 X210.095 Y17.788
G3 X209.767 Y18.116 I-0.328 J0
G1 X206.733
G3 X206.405 Y17.788 I0 J-0.328
G1 X206.45 Y9.021
G2 X204.3 Y6.871 I-2.15 J0
G1 X104.704 Y6.752
G2 X103.143 Y7.472 I-0.004 J2.043
X102.55 Y9.086 I1.9 J1.614
G1 X102.595 Y17.588
G3 X102.267 Y17.916 I-0.328 J0
G1 X99.233
G3 X98.905 Y17.588 I0 J-0.328
X98.927 Y13.337 I401.638 J0
G2 X98.95 Y9.086 I-401.616 J-4.251
X96.804 Y6.936 I-2.15 J0
G1 X64.504 Y6.871
G2 X62.35 Y9.021 I-0.004 J2.15
G1 X62.395 Y53.618
G3 X62.348 Y54.089 I-2.395 J0
X60.682 Y58.16 I-11.364 J-2.276
X57.649 Y61.346 I-10.21 J-6.683
G1 X9.059 Y96.684
G2 X7.35 Y100.04 I2.441 J3.356
G1 Y122.021
Y122.074
G2 X7.914 Y122.827 I0.798 J-0.01
G3 X8.63 Y123.436 I-0.348 J1.134
G2 X11.5 Y125.221 I2.87 J-1.415
G1 X62.5
G3 X63.3 Y126.021 I0 J0.8
G1 Y153.612
G2 X66.19 Y164.298 I21.2 J0
G1 X108.782 Y237.272
G2 X124.5 Y246.298 I15.719 J-9.174
G1 X190.5
G2 X208.393 Y231.431 I0 J-18.2
G1 X245.68 Y31.241
X245.695 Y31.132
X245.7 Y31.021
Y9.221
G2 X244.5 Y8.021 I-1.2 J0
G1 X212.2
G2 X211 Y9.221 I0 J1.2
G1 Y18.021
G3 X210 Y19.021 I-1 J0
G1 X206.5
G3 X205.5 Y18.021 I0 J-1
G1 Y9.021
G2 X204.3 Y7.821 I-1.2 J0
G1 X164.501
X104.702 Y7.702
G2 X103.5 Y8.902 I-0.002 J1.2
G1 Y17.821
G3 X102.5 Y18.821 I-1 J0
G1 X99
G3 X98 Y17.821 I0 J-1
G1 Y9.086
G2 X96.802 Y7.886 I-1.2 J0
G1 X64.502 Y7.821
G2 X63.3 Y9.021 I-0.002 J1.2
G1 Y53.921
G3 X58.208 Y62.114 I-12.63 J-2.172
G1 X9.618 Y97.452
G2 X8.3 Y100.04 I1.882 J2.588
G1 Y122.021
G2 X8.63 Y123.436 I3.2 J0
G1 X8.658 Y123.476
X8.696 Y123.506
X8.742 Y123.524
X8.79 Y123.527
X8.839 Y123.53
X8.884 Y123.545
X8.924 Y123.573
X8.955 Y123.61
G2 X11.5 Y125.021 I2.545 J-1.589
G1 X62.5
G3 X63.5 Y126.021 I0 J1
G1 Y153.612
G2 X66.363 Y164.197 I21 J0
G1 X108.954 Y237.171
G2 X124.5 Y246.098 I15.546 J-9.073
G1 X190.5
G2 X208.196 Y231.394 I0 J-18
G1 X245.483 Y31.204
X245.496 Y31.113
X245.5 Y31.021
Y9.221
G2 X244.5 Y8.221 I-1 J0
G1 X212.2
G2 X211.2 Y9.221 I0 J1
G1 Y18.021
G3 X210 Y19.221 I-1.2 J0
G1 X206.5
G3 X205.3 Y18.021 I0 J-1.2
G1 Y9.021
G2 X204.3 Y8.021 I-1 J0
G1 X164.501
X104.702 Y7.902
G2 X103.7 Y8.902 I-0.002 J1
G1 Y17.821
G3 X102.5 Y19.021 I-1.2 J0
G1 X99
G3 X97.8 Y17.821 I0 J-1.2
G1 Y9.086
G2 X96.802 Y8.086 I-1 J0
G1 X64.502 Y8.021
G2 X63.5 Y9.021 I-0.002 J1
G1 Y53.938
G3 X58.325 Y62.276 I-12.83 J-2.189
G1 X9.736 Y97.614
G2 X8.5 Y100.04 I1.765 J2.426
G1 Y122.021
G2 X8.955 Y123.61 I3 J0
G0 Z5
X7.35 Y102.343
G1 Z-5.333 F30
Y122.021 Z-8.803 F200
Y122.074 Z-8.813
G2 X11.5 Y126.171 I4.15 J-0.053 F150
G1 X62.076 Y126.126
G3 X62.395 Y126.445 I0 J0.319
G1 X62.35 Y153.612
G2 X65.37 Y164.777 I22.148 J0
G1 X107.961 Y237.751
G2 X124.5 Y247.248 I16.539 J-9.653
G1 X190.5
G2 X209.327 Y231.605 I0 J-19.15
G1 X246.614 Y31.415
G2 X246.65 Y31.021 I-2.114 J-0.394
G1 Y9.221
G2 X244.5 Y7.071 I-2.15 J0
G1 X212.2
G2 X210.05 Y9.221 I0 J2.15
G1 X210.095 Y17.788
G3 X209.767 Y18.116 I-0.328 J0
G1 X206.733
G3 X206.405 Y17.788 I0 J-0.328
G1 X206.45 Y9.021
G2 X204.3 Y6.871 I-2.15 J0
G1 X104.704 Y6.752
G2 X103.143 Y7.472 I-0.004 J2.043
X102.55 Y9.086 I1.9 J1.614
G1 X102.595 Y17.588
G3 X102.267 Y17.916 I-0.328 J0
G1 X99.233
G3 X98.905 Y17.588 I0 J-0.328
X98.927 Y13.337 I401.638 J0
G2 X98.95 Y9.086 I-401.616 J-4.251
X96.804 Y6.936 I-2.15 J0
G1 X64.504 Y6.871
G2 X62.35 Y9.021 I-0.004 J2.15
G1 X62.395 Y53.618
G3 X62.348 Y54.089 I-2.395 J0
X60.682 Y58.16 I-11.364 J-2.276
X57.649 Y61.346 I-10.21 J-6.683
G1 X9.059 Y96.684
G2 X7.35 Y100.04 I2.441 J3.356
G1 Y122.021
Y122.074
G2 X7.914 Y122.827 I0.798 J-0.01
G3 X8.63 Y123.436 I-0.348 J1.134
G2 X11.5 Y125.221 I2.87 J-1.415
G1 X62.5
G3 X63.3 Y126.021 I0 J0.8
G1 Y153.612
G2 X66.19 Y164.298 I21.2 J0
G1 X108.782 Y237.272
G2 X124.5 Y246.298 I15.719 J-9.174
G1 X190.5
G2 X208.393 Y231.431 I0 J-18.2
G1 X245.68 Y31.241
X245.695 Y31.132
X245.7 Y31.021
Y9.221
G2 X244.5 Y8.021 I-1.2 J0
G1 X212.2
G2 X211 Y9.221 I0 J1.2
G1 Y18.021
G3 X210 Y19.021 I-1 J0
G1 X206.5
G3 X205.5 Y18.021 I0 J-1
G1 Y9.021
G2 X204.3 Y7.821 I-1.2 J0
G1 X164.501
X104.702 Y7.702
G2 X103.5 Y8.902 I-0.002 J1.2
G1 Y17.821
G3 X102.5 Y18.821 I-1 J0
G1 X99
G3 X98 Y17.821 I0 J-1
G1 Y9.086
G2 X96.802 Y7.886 I-1.2 J0
G1 X64.502 Y7.821
G2 X63.3 Y9.021 I-0.002 J1.2
G1 Y53.921
G3 X58.208 Y62.114 I-12.63 J-2.172
G1 X9.618 Y97.452
G2 X8.3 Y100.04 I1.882 J2.588
G1 Y122.021
G2 X8.63 Y123.436 I3.2 J0
G1 X8.658 Y123.476
X8.696 Y123.506
X8.742 Y123.524
X8.79 Y123.527
X8.839 Y123.53
X8.884 Y123.545
X8.924 Y123.573
X8.955 Y123.61
G2 X11.5 Y125.021 I2.545 J-1.589
G1 X62.5
G3 X63.5 Y126.021 I0 J1
G1 Y153.612
G2 X66.363 Y164.197 I21 J0
G1 X108.954 Y237.171
G2 X124.5 Y246.098 I15.546 J-9.073
G1 X190.5
G2 X208.196 Y231.394 I0 J-18
G1 X245.483 Y31.204
X245.496 Y31.113
X245.5 Y31.021
Y9.221
G2 X244.5 Y8.221 I-1 J0
G1 X212.2
G2 X211.2 Y9.221 I0 J1
G1 Y18.021
G3 X210 Y19.221 I-1.2 J0
G1 X206.5
G3 X205.3 Y18.021 I0 J-1.2
G1 Y9.021
G2 X204.3 Y8.021 I-1 J0
G1 X164.501
X104.702 Y7.902
G2 X103.7 Y8.902 I-0.002 J1
G1 Y17.821
G3 X102.5 Y19.021 I-1.2 J0
G1 X99
G3 X97.8 Y17.821 I0 J-1.2
G1 Y9.086
G2 X96.802 Y8.086 I-1 J0
G1 X64.502 Y8.021
G2 X63.5 Y9.021 I-0.002 J1
G1 Y53.938
G3 X58.325 Y62.276 I-12.83 J-2.189
G1 X9.736 Y97.614
G2 X8.5 Y100.04 I1.765 J2.426
G1 Y122.021
G2 X8.955 Y123.61 I3 J0
G0 Z5
X7.35 Y102.343
G1 Z-6.313 F30
Y122.021 Z-9.782 F200
Y122.074 Z-9.792
G2 X11.5 Y126.171 I4.15 J-0.053 F150
G1 X34.5 Y126.151
Z-9.75
X39.5 Y126.146
Z-9.792 F30
X62.076 Y126.126 F150
G3 X62.395 Y126.445 I0 J0.319
G1 X62.35 Y153.612
G2 X65.37 Y164.777 I22.148 J0
G1 X85.405 Y199.105
Z-9.75
X87.926 Y203.423
Z-9.792 F30
X107.961 Y237.751 F150
G2 X124.5 Y247.248 I16.539 J-9.653
G1 X155
Z-9.75
X160
Z-9.792 F30
X190.5 F150
G2 X209.327 Y231.605 I0 J-19.15
G1 X213.53 Y209.039
Z-9.75
X214.445 Y204.123
Z-9.792 F30
X222.851 Y158.992 F150
Z-9.75
X223.767 Y154.076
Z-9.792 F30
X232.173 Y108.944 F150
Z-9.75
X233.089 Y104.029
Z-9.792 F30
X241.495 Y58.897 F150
Z-9.75
X242.411 Y53.981
Z-9.792 F30
X246.614 Y31.415 F150
G2 X246.65 Y31.021 I-2.114 J-0.394
G1 Y9.221
G2 X244.5 Y7.071 I-2.15 J0
G1 X212.2
G2 X210.05 Y9.221 I0 J2.15
G1 X210.095 Y17.788
G3 X209.767 Y18.116 I-0.328 J0
G1 X206.733
G3 X206.405 Y17.788 I0 J-0.328
G1 X206.45 Y9.021
G2 X204.3 Y6.871 I-2.15 J0
G1 X137.104 Y6.791
Z-9.75
X132.104 Y6.785
Z-9.792 F30
X104.704 Y6.752 F150
G2 X103.143 Y7.472 I-0.004 J2.043
X102.55 Y9.086 I1.9 J1.614
G1 X102.595 Y17.588
G3 X102.267 Y17.916 I-0.328 J0
G1 X99.233
G3 X98.905 Y17.588 I0 J-0.328
X98.927 Y13.337 I401.638 J0
G2 X98.95 Y9.086 I-401.616 J-4.251
X96.804 Y6.936 I-2.15 J0
G1 X64.504 Y6.871
G2 X62.35 Y9.021 I-0.004 J2.15
G1 X62.395 Y53.618
G3 X62.348 Y54.089 I-2.395 J0
X60.682 Y58.16 I-11.364 J-2.276
X57.649 Y61.346 I-10.21 J-6.683
G1 X35.376 Y77.544
Z-9.75
X31.332 Y80.485
Z-9.792 F30
X9.059 Y96.684 F150
G2 X7.35 Y100.04 I2.441 J3.356
G1 Y122.021
Y122.074
G2 X7.914 Y122.827 I0.798 J-0.01
G3 X8.63 Y123.436 I-0.348 J1.134
G2 X11.5 Y125.221 I2.87 J-1.415
G1 X34.5
Z-9.75
X39.5
Z-9.792 F30
X62.5 F150
G3 X63.3 Y126.021 I0 J0.8
G1 Y153.612
G2 X66.19 Y164.298 I21.2 J0
G1 X86.226 Y198.626
Z-9.75
X88.746 Y202.944
Z-9.792 F30
X108.782 Y237.272 F150
G2 X124.5 Y246.298 I15.719 J-9.174
G1 X155
Z-9.75
X160
Z-9.792 F30
X190.5 F150
G2 X208.393 Y231.431 I0 J-18.2
G1 X212.596 Y208.865
Z-9.75
X213.511 Y203.949
Z-9.792 F30
X221.918 Y158.818 F150
Z-9.75
X222.833 Y153.902
Z-9.792 F30
X231.239 Y108.771 F150
Z-9.75
X232.155 Y103.855
Z-9.792 F30
X240.561 Y58.723 F150
Z-9.75
X241.477 Y53.807
Z-9.792 F30
X245.68 Y31.241 F150
X245.695 Y31.132
X245.7 Y31.021
Y9.221
G2 X244.5 Y8.021 I-1.2 J0
G1 X212.2
G2 X211 Y9.221 I0 J1.2
G1 Y18.021
G3 X210 Y19.021 I-1 J0
G1 X206.5
G3 X205.5 Y18.021 I0 J-1
G1 Y9.021
G2 X204.3 Y7.821 I-1.2 J0
G1 X164.501
X137.102 Y7.767
Z-9.75
X132.102 Y7.757
Z-9.792 F30
X104.702 Y7.702 F150
G2 X103.5 Y8.902 I-0.002 J1.2
G1 Y17.821
G3 X102.5 Y18.821 I-1 J0
G1 X99
G3 X98 Y17.821 I0 J-1
G1 Y9.086
G2 X96.802 Y7.886 I-1.2 J0
G1 X64.502 Y7.821
G2 X63.3 Y9.021 I-0.002 J1.2
G1 Y53.921
G3 X58.208 Y62.114 I-12.63 J-2.172
G1 X35.935 Y78.312
Z-9.75
X31.891 Y81.253
Z-9.792 F30
X9.618 Y97.452 F150
G2 X8.3 Y100.04 I1.882 J2.588
G1 Y122.021
G2 X8.63 Y123.436 I3.2 J0
G1 X8.658 Y123.476
X8.696 Y123.506
X8.742 Y123.524
X8.79 Y123.527
X8.839 Y123.53
X8.884 Y123.545
X8.924 Y123.573
X8.955 Y123.61
G2 X11.5 Y125.021 I2.545 J-1.589
G1 X34.5
Z-9.75
X39.5
Z-9.792 F30
X62.5 F150
G3 X63.5 Y126.021 I0 J1
G1 Y153.612
G2 X66.363 Y164.197 I21 J0
G1 X86.399 Y198.525
Z-9.75
X88.919 Y202.843
Z-9.792 F30
X108.954 Y237.171 F150
G2 X124.5 Y246.098 I15.546 J-9.073
G1 X155
Z-9.75
X160
Z-9.792 F30
X190.5 F150
G2 X208.196 Y231.394 I0 J-18
G1 X212.399 Y208.828
Z-9.75
X213.315 Y203.913
Z-9.792 F30
X221.721 Y158.781 F150
Z-9.75
X222.636 Y153.865
Z-9.792 F30
X231.043 Y108.734 F150
Z-9.75
X231.958 Y103.818
Z-9.792 F30
X240.364 Y58.686 F150
Z-9.75
X241.28 Y53.771
Z-9.792 F30
X245.483 Y31.204 F150
X245.496 Y31.113
X245.5 Y31.021
Y9.221
G2 X244.5 Y8.221 I-1 J0
G1 X212.2
G2 X211.2 Y9.221 I0 J1
G1 Y18.021
G3 X210 Y19.221 I-1.2 J0
G1 X206.5
G3 X205.3 Y18.021 I0 J-1.2
G1 Y9.021
G2 X204.3 Y8.021 I-1 J0
G1 X164.501
X137.102 Y7.967
Z-9.75
X132.102 Y7.957
Z-9.792 F30
X104.702 Y7.902 F150
G2 X103.7 Y8.902 I-0.002 J1
G1 Y17.821
G3 X102.5 Y19.021 I-1.2 J0
G1 X99
G3 X97.8 Y17.821 I0 J-1.2
G1 Y9.086
G2 X96.802 Y8.086 I-1 J0
G1 X64.502 Y8.021
G2 X63.5 Y9.021 I-0.002 J1
G1 Y53.938
G3 X58.325 Y62.276 I-12.83 J-2.189
G1 X36.052 Y78.474
Z-9.75
X32.009 Y81.415
Z-9.792 F30
X9.736 Y97.614 F150
G2 X8.5 Y100.04 I1.765 J2.426
G1 Y122.021
G2 X8.955 Y123.61 I3 J0
G0 Z5
X7.35 Y102.343
G1 Z-7.292 F30
Y122.021 Z-10.761 F200
Y122.074 Z-10.771
G2 X11.5 Y126.171 I4.15 J-0.053 F150
G1 X34.5 Y126.151
Z-9.75
X39.5 Y126.146
Z-10.771 F30
X62.076 Y126.126 F150
G3 X62.395 Y126.445 I0 J0.319
G1 X62.35 Y153.612
G2 X65.37 Y164.777 I22.148 J0
G1 X85.405 Y199.105
Z-9.75
X87.926 Y203.423
Z-10.771 F30
X107.961 Y237.751 F150
G2 X124.5 Y247.248 I16.539 J-9.653
G1 X155
Z-9.75
X160
Z-10.771 F30
X190.5 F150
G2 X209.327 Y231.605 I0 J-19.15
G1 X213.53 Y209.039
Z-9.75
X214.445 Y204.123
Z-10.771 F30
X222.851 Y158.992 F150
Z-9.75
X223.767 Y154.076
Z-10.771 F30
X232.173 Y108.944 F150
Z-9.75
X233.089 Y104.029
Z-10.771 F30
X241.495 Y58.897 F150
Z-9.75
X242.411 Y53.981
Z-10.771 F30
X246.614 Y31.415 F150
G2 X246.65 Y31.021 I-2.114 J-0.394
G1 Y9.221
G2 X244.5 Y7.071 I-2.15 J0
G1 X212.2
G2 X210.05 Y9.221 I0 J2.15
G1 X210.095 Y17.788
G3 X209.767 Y18.116 I-0.328 J0
G1 X206.733
G3 X206.405 Y17.788 I0 J-0.328
G1 X206.45 Y9.021
G2 X204.3 Y6.871 I-2.15 J0
G1 X137.104 Y6.791
Z-9.75
X132.104 Y6.785
Z-10.771 F30
X104.704 Y6.752 F150
G2 X103.143 Y7.472 I-0.004 J2.043
X102.55 Y9.086 I1.9 J1.614
G1 X102.595 Y17.588
G3 X102.267 Y17.916 I-0.328 J0
G1 X99.233
G3 X98.905 Y17.588 I0 J-0.328
X98.927 Y13.337 I401.638 J0
G2 X98.95 Y9.086 I-401.616 J-4.251
X96.804 Y6.936 I-2.15 J0
G1 X64.504 Y6.871
G2 X62.35 Y9.021 I-0.004 J2.15
G1 X62.395 Y53.618
G3 X62.348 Y54.089 I-2.395 J0
X60.682 Y58.16 I-11.364 J-2.276
X57.649 Y61.346 I-10.21 J-6.683
G1 X35.376 Y77.544
Z-9.75
X31.332 Y80.485
Z-10.771 F30
X9.059 Y96.684 F150
G2 X7.35 Y100.04 I2.441 J3.356
G1 Y122.021
Y122.074
G2 X7.914 Y122.827 I0.798 J-0.01
G3 X8.63 Y123.436 I-0.348 J1.134
G2 X11.5 Y125.221 I2.87 J-1.415
G1 X34.5
Z-9.75
X39.5
Z-10.771 F30
X62.5 F150
G3 X63.3 Y126.021 I0 J0.8
G1 Y153.612
G2 X66.19 Y164.298 I21.2 J0
G1 X86.226 Y198.626
Z-9.75
X88.746 Y202.944
Z-10.771 F30
X108.782 Y237.272 F150
G2 X124.5 Y246.298 I15.719 J-9.174
G1 X155
Z-9.75
X160
Z-10.771 F30
X190.5 F150
G2 X208.393 Y231.431 I0 J-18.2
G1 X212.596 Y208.865
Z-9.75
X213.511 Y203.949
Z-10.771 F30
X221.918 Y158.818 F150
Z-9.75
X222.833 Y153.902
Z-10.771 F30
X231.239 Y108.771 F150
Z-9.75
X232.155 Y103.855
Z-10.771 F30
X240.561 Y58.723 F150
Z-9.75
X241.477 Y53.807
Z-10.771 F30
X245.68 Y31.241 F150
X245.695 Y31.132
X245.7 Y31.021
Y9.221
G2 X244.5 Y8.021 I-1.2 J0
G1 X212.2
G2 X211 Y9.221 I0 J1.2
G1 Y18.021
G3 X210 Y19.021 I-1 J0
G1 X206.5
G3 X205.5 Y18.021 I0 J-1
G1 Y9.021
G2 X204.3 Y7.821 I-1.2 J0
G1 X164.501
X137.102 Y7.767
Z-9.75
X132.102 Y7.757
Z-10.771 F30
X104.702 Y7.702 F150
G2 X103.5 Y8.902 I-0.002 J1.2
G1 Y17.821
G3 X102.5 Y18.821 I-1 J0
G1 X99
G3 X98 Y17.821 I0 J-1
G1 Y9.086
G2 X96.802 Y7.886 I-1.2 J0
G1 X64.502 Y7.821
G2 X63.3 Y9.021 I-0.002 J1.2
G1 Y53.921
G3 X58.208 Y62.114 I-12.63 J-2.172
G1 X35.935 Y78.312
Z-9.75
X31.891 Y81.253
Z-10.771 F30
X9.618 Y97.452 F150
G2 X8.3 Y100.04 I1.882 J2.588
G1 Y122.021
G2 X8.63 Y123.436 I3.2 J0
G1 X8.658 Y123.476
X8.696 Y123.506
X8.742 Y123.524
X8.79 Y123.527
X8.839 Y123.53
X8.884 Y123.545
X8.924 Y123.573
X8.955 Y123.61
G2 X11.5 Y125.021 I2.545 J-1.589
G1 X34.5
Z-9.75
X39.5
Z-10.771 F30
X62.5 F150
G3 X63.5 Y126.021 I0 J1
G1 Y153.612
G2 X66.363 Y164.197 I21 J0
G1 X86.399 Y198.525
Z-9.75
X88.919 Y202.843
Z-10.771 F30
X108.954 Y237.171 F150
G2 X124.5 Y246.098 I15.546 J-9.073
G1 X155
Z-9.75
X160
Z-10.771 F30
X190.5 F150
G2 X208.196 Y231.394 I0 J-18
G1 X212.399 Y208.828
Z-9.75
X213.315 Y203.913
Z-10.771 F30
X221.721 Y158.781 F150
Z-9.75
X222.636 Y153.865
Z-10.771 F30
X231.043 Y108.734 F150
Z-9.75
X231.958 Y103.818
Z-10.771 F30
X240.364 Y58.686 F150
Z-9.75
X241.28 Y53.771
Z-10.771 F30
X245.483 Y31.204 F150
X245.496 Y31.113
X245.5 Y31.021
Y9.221
G2 X244.5 Y8.221 I-1 J0
G1 X212.2
G2 X211.2 Y9.221 I0 J1
G1 Y18.021
G3 X210 Y19.221 I-1.2 J0
G1 X206.5
G3 X205.3 Y18.021 I0 J-1.2
G1 Y9.021
G2 X204.3 Y8.021 I-1 J0
G1 X164.501
X137.102 Y7.967
Z-9.75
X132.102 Y7.957
Z-10.771 F30
X104.702 Y7.902 F150
G2 X103.7 Y8.902 I-0.002 J1
G1 Y17.821
G3 X102.5 Y19.021 I-1.2 J0
G1 X99
G3 X97.8 Y17.821 I0 J-1.2
G1 Y9.086
G2 X96.802 Y8.086 I-1 J0
G1 X64.502 Y8.021
G2 X63.5 Y9.021 I-0.002 J1
G1 Y53.938
G3 X58.325 Y62.276 I-12.83 J-2.189
G1 X36.052 Y78.474
Z-9.75
X32.009 Y81.415
Z-10.771 F30
X9.736 Y97.614 F150
G2 X8.5 Y100.04 I1.765 J2.426
G1 Y122.021
G2 X8.955 Y123.61 I3 J0
G0 Z5
X7.35 Y102.343
G1 Z-8.271 F30
Y122.021 Z-11.741 F200
Y122.074 Z-11.75
G2 X11.5 Y126.171 I4.15 J-0.053 F150
G1 X34.5 Y126.151
Z-9.75
X39.5 Y126.146
Z-11.75 F30
X62.076 Y126.126 F150
G3 X62.395 Y126.445 I0 J0.319
G1 X62.35 Y153.612
G2 X65.37 Y164.777 I22.148 J0
G1 X85.405 Y199.105
Z-9.75
X87.926 Y203.423
Z-11.75 F30
X107.961 Y237.751 F150
G2 X124.5 Y247.248 I16.539 J-9.653
G1 X155
Z-9.75
X160
Z-11.75 F30
X190.5 F150
G2 X209.327 Y231.605 I0 J-19.15
G1 X213.53 Y209.039
Z-9.75
X214.445 Y204.123
Z-11.75 F30
X222.851 Y158.992 F150
Z-9.75
X223.767 Y154.076
Z-11.75 F30
X232.173 Y108.944 F150
Z-9.75
X233.089 Y104.029
Z-11.75 F30
X241.495 Y58.897 F150
Z-9.75
X242.411 Y53.981
Z-11.75 F30
X246.614 Y31.415 F150
G2 X246.65 Y31.021 I-2.114 J-0.394
G1 Y9.221
G2 X244.5 Y7.071 I-2.15 J0
G1 X212.2
G2 X210.05 Y9.221 I0 J2.15
G1 X210.095 Y17.788
G3 X209.767 Y18.116 I-0.328 J0
G1 X206.733
G3 X206.405 Y17.788 I0 J-0.328
G1 X206.45 Y9.021
G2 X204.3 Y6.871 I-2.15 J0
G1 X137.104 Y6.791
Z-9.75
X132.104 Y6.785
Z-11.75 F30
X104.704 Y6.752 F150
G2 X103.143 Y7.472 I-0.004 J2.043
X102.55 Y9.086 I1.9 J1.614
G1 X102.595 Y17.588
G3 X102.267 Y17.916 I-0.328 J0
G1 X99.233
G3 X98.905 Y17.588 I0 J-0.328
X98.927 Y13.337 I401.638 J0
G2 X98.95 Y9.086 I-401.616 J-4.251
X96.804 Y6.936 I-2.15 J0
G1 X64.504 Y6.871
G2 X62.35 Y9.021 I-0.004 J2.15
G1 X62.395 Y53.618
G3 X62.348 Y54.089 I-2.395 J0
X60.682 Y58.16 I-11.364 J-2.276
X57.649 Y61.346 I-10.21 J-6.683
G1 X35.376 Y77.544
Z-9.75
X31.332 Y80.485
Z-11.75 F30
X9.059 Y96.684 F150
G2 X7.35 Y100.04 I2.441 J3.356
G1 Y122.021
Y122.074
G2 X7.914 Y122.827 I0.798 J-0.01
G3 X8.63 Y123.436 I-0.348 J1.134
G2 X11.5 Y125.221 I2.87 J-1.415
G1 X34.5
Z-9.75
X39.5
Z-11.75 F30
X62.5 F150
G3 X63.3 Y126.021 I0 J0.8
G1 Y153.612
G2 X66.19 Y164.298 I21.2 J0
G1 X86.226 Y198.626
Z-9.75
X88.746 Y202.944
Z-11.75 F30
X108.782 Y237.272 F150
G2 X124.5 Y246.298 I15.719 J-9.174
G1 X155
Z-9.75
X160
Z-11.75 F30
X190.5 F150
G2 X208.393 Y231.431 I0 J-18.2
G1 X212.596 Y208.865
Z-9.75
X213.511 Y203.949
Z-11.75 F30
X221.918 Y158.818 F150
Z-9.75
X222.833 Y153.902
Z-11.75 F30
X231.239 Y108.771 F150
Z-9.75
X232.155 Y103.855
Z-11.75 F30
X240.561 Y58.723 F150
Z-9.75
X241.477 Y53.807
Z-11.75 F30
X245.68 Y31.241 F150
X245.695 Y31.132
X245.7 Y31.021
Y9.221
G2 X244.5 Y8.021 I-1.2 J0
G1 X212.2
G2 X211 Y9.221 I0 J1.2
G1 Y18.021
G3 X210 Y19.021 I-1 J0
G1 X206.5
G3 X205.5 Y18.021 I0 J-1
G1 Y9.021
G2 X204.3 Y7.821 I-1.2 J0
G1 X164.501
X137.102 Y7.767
Z-9.75
X132.102 Y7.757
Z-11.75 F30
X104.702 Y7.702 F150
G2 X103.5 Y8.902 I-0.002 J1.2
G1 Y17.821
G3 X102.5 Y18.821 I-1 J0
G1 X99
G3 X98 Y17.821 I0 J-1
G1 Y9.086
G2 X96.802 Y7.886 I-1.2 J0
G1 X64.502 Y7.821
G2 X63.3 Y9.021 I-0.002 J1.2
G1 Y53.921
G3 X58.208 Y62.114 I-12.63 J-2.172
G1 X35.935 Y78.312
Z-9.75
X31.891 Y81.253
Z-11.75 F30
X9.618 Y97.452 F150
G2 X8.3 Y100.04 I1.882 J2.588
G1 Y122.021
G2 X8.63 Y123.436 I3.2 J0
G1 X8.658 Y123.476
X8.696 Y123.506
X8.742 Y123.524
X8.79 Y123.527
X8.839 Y123.53
X8.884 Y123.545
X8.924 Y123.573
X8.955 Y123.61
G2 X11.5 Y125.021 I2.545 J-1.589
G1 X34.5
Z-9.75
X39.5
Z-11.75 F30
X62.5 F150
G3 X63.5 Y126.021 I0 J1
G1 Y153.612
G2 X66.363 Y164.197 I21 J0
G1 X86.399 Y198.525
Z-9.75
X88.919 Y202.843
Z-11.75 F30
X108.954 Y237.171 F150
G2 X124.5 Y246.098 I15.546 J-9.073
G1 X155
Z-9.75
X160
Z-11.75 F30
X190.5 F150
G2 X208.196 Y231.394 I0 J-18
G1 X212.399 Y208.828
Z-9.75
X213.315 Y203.913
Z-11.75 F30
X221.721 Y158.781 F150
Z-9.75
X222.636 Y153.865
Z-11.75 F30
X231.043 Y108.734 F150
Z-9.75
X231.958 Y103.818
Z-11.75 F30
X240.364 Y58.686 F150
Z-9.75
X241.28 Y53.771
Z-11.75 F30
X245.483 Y31.204 F150
X245.496 Y31.113
X245.5 Y31.021
Y9.221
G2 X244.5 Y8.221 I-1 J0
G1 X212.2
G2 X211.2 Y9.221 I0 J1
G1 Y18.021
G3 X210 Y19.221 I-1.2 J0
G1 X206.5
G3 X205.3 Y18.021 I0 J-1.2
G1 Y9.021
G2 X204.3 Y8.021 I-1 J0
G1 X164.501
X137.102 Y7.967
Z-9.75
X132.102 Y7.957
Z-11.75 F30
X104.702 Y7.902 F150
G2 X103.7 Y8.902 I-0.002 J1
G1 Y17.821
G3 X102.5 Y19.021 I-1.2 J0
G1 X99
G3 X97.8 Y17.821 I0 J-1.2
G1 Y9.086
G2 X96.802 Y8.086 I-1 J0
G1 X64.502 Y8.021
G2 X63.5 Y9.021 I-0.002 J1
G1 Y53.938
G3 X58.325 Y62.276 I-12.83 J-2.189
G1 X36.052 Y78.474
Z-9.75
X32.009 Y81.415
Z-11.75 F30
X9.736 Y97.614 F150
G2 X8.5 Y100.04 I1.765 J2.426
G1 Y122.021
G2 X8.955 Y123.61 I3 J0
G0 Z15
M9
M5
M30
