(x_holes)
(Machine)
(  vendor: Autodesk)
(  model: Generic 3-axis)
(  description: This machine has XY axis on the Table and Z axis on the Head)
(T1  D=2 CR=0 - ZMIN=-11.75 - flat end mill)
G90 G94
G17
G21

(x_holes)
T1
S12000 M3
G54
M8
G0 X141.25 Y118.021
Z15
Z5
G1 Z2.5 F30
Z-0.979
G3 X140.75 Y118.021 I-0.25 J0 F150
X141.25 Y118.021 I0.25 J0
G1 Z-1.958 F30
G3 X140.75 Y118.021 I-0.25 J0 F150
X141.25 Y118.021 I0.25 J0
G1 Z-2.938 F30
G3 X140.75 Y118.021 I-0.25 J0 F150
X141.25 Y118.021 I0.25 J0
G1 Z-3.917 F30
G3 X140.75 Y118.021 I-0.25 J0 F150
X141.25 Y118.021 I0.25 J0
G1 Z-4.896 F30
G3 X140.75 Y118.021 I-0.25 J0 F150
X141.25 Y118.021 I0.25 J0
G1 Z-5.875 F30
G3 X140.75 Y118.021 I-0.25 J0 F150
X141.25 Y118.021 I0.25 J0
G1 Z-6.854 F30
G3 X140.75 Y118.021 I-0.25 J0 F150
X141.25 Y118.021 I0.25 J0
G1 Z-7.833 F30
G3 X140.75 Y118.021 I-0.25 J0 F150
X141.25 Y118.021 I0.25 J0
G1 Z-8.813 F30
G3 X140.75 Y118.021 I-0.25 J0 F150
X141.25 Y118.021 I0.25 J0
G1 Z-9.792 F30
G3 X140.75 Y118.021 I-0.25 J0 F150
X141.25 Y118.021 I0.25 J0
G1 Z-10.771 F30
G3 X140.75 Y118.021 I-0.25 J0 F150
X141.25 Y118.021 I0.25 J0
G1 Z-11.75 F30
G3 X140.75 Y118.021 I-0.25 J0 F150
X141.25 Y118.021 I0.25 J0
G0 Z5
X157.25 Y112.521
G1 Z2.5 F30
Z-0.979
G3 X157.75 Y112.521 I0.25 J0 F150
X157.25 Y112.521 I-0.25 J0
G1 Z-1.958 F30
G3 X157.75 Y112.521 I0.25 J0 F150
X157.25 Y112.521 I-0.25 J0
G1 Z-2.938 F30
G3 X157.75 Y112.521 I0.25 J0 F150
X157.25 Y112.521 I-0.25 J0
G1 Z-3.917 F30
G3 X157.75 Y112.521 I0.25 J0 F150
X157.25 Y112.521 I-0.25 J0
G1 Z-4.896 F30
G3 X157.75 Y112.521 I0.25 J0 F150
X157.25 Y112.521 I-0.25 J0
G1 Z-5.875 F30
G3 X157.75 Y112.521 I0.25 J0 F150
X157.25 Y112.521 I-0.25 J0
G1 Z-6.854 F30
G3 X157.75 Y112.521 I0.25 J0 F150
X157.25 Y112.521 I-0.25 J0
G1 Z-7.833 F30
G3 X157.75 Y112.521 I0.25 J0 F150
X157.25 Y112.521 I-0.25 J0
G1 Z-8.813 F30
G3 X157.75 Y112.521 I0.25 J0 F150
X157.25 Y112.521 I-0.25 J0
G1 Z-9.792 F30
G3 X157.75 Y112.521 I0.25 J0 F150
X157.25 Y112.521 I-0.25 J0
G1 Z-10.771 F30
G3 X157.75 Y112.521 I0.25 J0 F150
X157.25 Y112.521 I-0.25 J0
G1 Z-11.75 F30
G3 X157.75 Y112.521 I0.25 J0 F150
X157.25 Y112.521 I-0.25 J0
G0 Z5
X164 Y106.669
G1 Z2.5 F30
Z-0.979
X150.983 F150
X150.942 Y106.662
X150.906 Y106.644
X150.877 Y106.615
X150.859 Y106.579
X150.852 Y106.538
Y106.504
X150.859 Y106.463
X150.877 Y106.427
X150.906 Y106.398
X150.942 Y106.38
X150.983 Y106.373
X164.017
X164.058 Y106.38
X164.094 Y106.398
X164.123 Y106.427
X164.141 Y106.463
X164.148 Y106.504
Y106.538
X164.141 Y106.579
X164.123 Y106.615
X164.094 Y106.644
X164.058 Y106.662
X164.017 Y106.669
X164
G2 X162.986 Y107.345 I0 J1.099
G3 X161.971 Y108.021 I-1.014 J-0.423
G1 X150.5
G3 X149.5 Y107.021 I0 J-1
G1 Y106.021
G3 X150.5 Y105.021 I1 J0
G1 X164.5
G3 X165.5 Y106.021 I0 J1
G1 Y107.021
G3 X164.5 Y108.021 I-1 J0
G1 X161.971
G3 X161.92 Y107.628 I0 J-0.2
G1 X164.051 Y107.062
G2 X164 Y106.669 I-0.051 J-0.193
G1 Z-1.958 F30
X150.983 F150
X150.942 Y106.662
X150.906 Y106.644
X150.877 Y106.615
X150.859 Y106.579
X150.852 Y106.538
Y106.504
X150.859 Y106.463
X150.877 Y106.427
X150.906 Y106.398
X150.942 Y106.38
X150.983 Y106.373
X164.017
X164.058 Y106.38
X164.094 Y106.398
X164.123 Y106.427
X164.141 Y106.463
X164.148 Y106.504
Y106.538
X164.141 Y106.579
X164.123 Y106.615
X164.094 Y106.644
X164.058 Y106.662
X164.017 Y106.669
X164
G2 X162.986 Y107.345 I0 J1.099
G3 X161.971 Y108.021 I-1.014 J-0.423
G1 X150.5
G3 X149.5 Y107.021 I0 J-1
G1 Y106.021
G3 X150.5 Y105.021 I1 J0
G1 X164.5
G3 X165.5 Y106.021 I0 J1
G1 Y107.021
G3 X164.5 Y108.021 I-1 J0
G1 X161.971
G3 X161.92 Y107.628 I0 J-0.2
G1 X164.051 Y107.062
G2 X164 Y106.669 I-0.051 J-0.193
G1 Z-2.938 F30
X150.983 F150
X150.942 Y106.662
X150.906 Y106.644
X150.877 Y106.615
X150.859 Y106.579
X150.852 Y106.538
Y106.504
X150.859 Y106.463
X150.877 Y106.427
X150.906 Y106.398
X150.942 Y106.38
X150.983 Y106.373
X164.017
X164.058 Y106.38
X164.094 Y106.398
X164.123 Y106.427
X164.141 Y106.463
X164.148 Y106.504
Y106.538
X164.141 Y106.579
X164.123 Y106.615
X164.094 Y106.644
X164.058 Y106.662
X164.017 Y106.669
X164
G2 X162.986 Y107.345 I0 J1.099
G3 X161.971 Y108.021 I-1.014 J-0.423
G1 X150.5
G3 X149.5 Y107.021 I0 J-1
G1 Y106.021
G3 X150.5 Y105.021 I1 J0
G1 X164.5
G3 X165.5 Y106.021 I0 J1
G1 Y107.021
G3 X164.5 Y108.021 I-1 J0
G1 X161.971
G3 X161.92 Y107.628 I0 J-0.2
G1 X164.051 Y107.062
G2 X164 Y106.669 I-0.051 J-0.193
G1 Z-3.917 F30
X150.983 F150
X150.942 Y106.662
X150.906 Y106.644
X150.877 Y106.615
X150.859 Y106.579
X150.852 Y106.538
Y106.504
X150.859 Y106.463
X150.877 Y106.427
X150.906 Y106.398
X150.942 Y106.38
X150.983 Y106.373
X164.017
X164.058 Y106.38
X164.094 Y106.398
X164.123 Y106.427
X164.141 Y106.463
X164.148 Y106.504
Y106.538
X164.141 Y106.579
X164.123 Y106.615
X164.094 Y106.644
X164.058 Y106.662
X164.017 Y106.669
X164
G2 X162.986 Y107.345 I0 J1.099
G3 X161.971 Y108.021 I-1.014 J-0.423
G1 X150.5
G3 X149.5 Y107.021 I0 J-1
G1 Y106.021
G3 X150.5 Y105.021 I1 J0
G1 X164.5
G3 X165.5 Y106.021 I0 J1
G1 Y107.021
G3 X164.5 Y108.021 I-1 J0
G1 X161.971
G3 X161.92 Y107.628 I0 J-0.2
G1 X164.051 Y107.062
G2 X164 Y106.669 I-0.051 J-0.193
G1 Z-4.896 F30
X150.983 F150
X150.942 Y106.662
X150.906 Y106.644
X150.877 Y106.615
X150.859 Y106.579
X150.852 Y106.538
Y106.504
X150.859 Y106.463
X150.877 Y106.427
X150.906 Y106.398
X150.942 Y106.38
X150.983 Y106.373
X164.017
X164.058 Y106.38
X164.094 Y106.398
X164.123 Y106.427
X164.141 Y106.463
X164.148 Y106.504
Y106.538
X164.141 Y106.579
X164.123 Y106.615
X164.094 Y106.644
X164.058 Y106.662
X164.017 Y106.669
X164
G2 X162.986 Y107.345 I0 J1.099
G3 X161.971 Y108.021 I-1.014 J-0.423
G1 X150.5
G3 X149.5 Y107.021 I0 J-1
G1 Y106.021
G3 X150.5 Y105.021 I1 J0
G1 X164.5
G3 X165.5 Y106.021 I0 J1
G1 Y107.021
G3 X164.5 Y108.021 I-1 J0
G1 X161.971
G3 X161.92 Y107.628 I0 J-0.2
G1 X164.051 Y107.062
G2 X164 Y106.669 I-0.051 J-0.193
G1 Z-5.875 F30
X150.983 F150
X150.942 Y106.662
X150.906 Y106.644
X150.877 Y106.615
X150.859 Y106.579
X150.852 Y106.538
Y106.504
X150.859 Y106.463
X150.877 Y106.427
X150.906 Y106.398
X150.942 Y106.38
X150.983 Y106.373
X164.017
X164.058 Y106.38
X164.094 Y106.398
X164.123 Y106.427
X164.141 Y106.463
X164.148 Y106.504
Y106.538
X164.141 Y106.579
X164.123 Y106.615
X164.094 Y106.644
X164.058 Y106.662
X164.017 Y106.669
X164
G2 X162.986 Y107.345 I0 J1.099
G3 X161.971 Y108.021 I-1.014 J-0.423
G1 X150.5
G3 X149.5 Y107.021 I0 J-1
G1 Y106.021
G3 X150.5 Y105.021 I1 J0
G1 X164.5
G3 X165.5 Y106.021 I0 J1
G1 Y107.021
G3 X164.5 Y108.021 I-1 J0
G1 X161.971
G3 X161.92 Y107.628 I0 J-0.2
G1 X164.051 Y107.062
G2 X164 Y106.669 I-0.051 J-0.193
G1 Z-6.854 F30
X150.983 F150
X150.942 Y106.662
X150.906 Y106.644
X150.877 Y106.615
X150.859 Y106.579
X150.852 Y106.538
Y106.504
X150.859 Y106.463
X150.877 Y106.427
X150.906 Y106.398
X150.942 Y106.38
X150.983 Y106.373
X164.017
X164.058 Y106.38
X164.094 Y106.398
X164.123 Y106.427
X164.141 Y106.463
X164.148 Y106.504
Y106.538
X164.141 Y106.579
X164.123 Y106.615
X164.094 Y106.644
X164.058 Y106.662
X164.017 Y106.669
X164
G2 X162.986 Y107.345 I0 J1.099
G3 X161.971 Y108.021 I-1.014 J-0.423
G1 X150.5
G3 X149.5 Y107.021 I0 J-1
G1 Y106.021
G3 X150.5 Y105.021 I1 J0
G1 X164.5
G3 X165.5 Y106.021 I0 J1
G1 Y107.021
G3 X164.5 Y108.021 I-1 J0
G1 X161.971
G3 X161.92 Y107.628 I0 J-0.2
G1 X164.051 Y107.062
G2 X164 Y106.669 I-0.051 J-0.193
G1 Z-7.833 F30
X150.983 F150
X150.942 Y106.662
X150.906 Y106.644
X150.877 Y106.615
X150.859 Y106.579
X150.852 Y106.538
Y106.504
X150.859 Y106.463
X150.877 Y106.427
X150.906 Y106.398
X150.942 Y106.38
X150.983 Y106.373
X164.017
X164.058 Y106.38
X164.094 Y106.398
X164.123 Y106.427
X164.141 Y106.463
X164.148 Y106.504
Y106.538
X164.141 Y106.579
X164.123 Y106.615
X164.094 Y106.644
X164.058 Y106.662
X164.017 Y106.669
X164
G2 X162.986 Y107.345 I0 J1.099
G3 X161.971 Y108.021 I-1.014 J-0.423
G1 X150.5
G3 X149.5 Y107.021 I0 J-1
G1 Y106.021
G3 X150.5 Y105.021 I1 J0
G1 X164.5
G3 X165.5 Y106.021 I0 J1
G1 Y107.021
G3 X164.5 Y108.021 I-1 J0
G1 X161.971
G3 X161.92 Y107.628 I0 J-0.2
G1 X164.051 Y107.062
G2 X164 Y106.669 I-0.051 J-0.193
G1 Z-8.813 F30
X150.983 F150
X150.942 Y106.662
X150.906 Y106.644
X150.877 Y106.615
X150.859 Y106.579
X150.852 Y106.538
Y106.504
X150.859 Y106.463
X150.877 Y106.427
X150.906 Y106.398
X150.942 Y106.38
X150.983 Y106.373
X164.017
X164.058 Y106.38
X164.094 Y106.398
X164.123 Y106.427
X164.141 Y106.463
X164.148 Y106.504
Y106.538
X164.141 Y106.579
X164.123 Y106.615
X164.094 Y106.644
X164.058 Y106.662
X164.017 Y106.669
X164
G2 X162.986 Y107.345 I0 J1.099
G3 X161.971 Y108.021 I-1.014 J-0.423
G1 X150.5
G3 X149.5 Y107.021 I0 J-1
G1 Y106.021
G3 X150.5 Y105.021 I1 J0
G1 X164.5
G3 X165.5 Y106.021 I0 J1
G1 Y107.021
G3 X164.5 Y108.021 I-1 J0
G1 X161.971
G3 X161.92 Y107.628 I0 J-0.2
G1 X164.051 Y107.062
G2 X164 Y106.669 I-0.051 J-0.193
G1 Z-9.792 F30
X150.983 F150
X150.942 Y106.662
X150.906 Y106.644
X150.877 Y106.615
X150.859 Y106.579
X150.852 Y106.538
Y106.504
X150.859 Y106.463
X150.877 Y106.427
X150.906 Y106.398
X150.942 Y106.38
X150.983 Y106.373
X164.017
X164.058 Y106.38
X164.094 Y106.398
X164.123 Y106.427
X164.141 Y106.463
X164.148 Y106.504
Y106.538
X164.141 Y106.579
X164.123 Y106.615
X164.094 Y106.644
X164.058 Y106.662
X164.017 Y106.669
X164
G2 X162.986 Y107.345 I0 J1.099
G3 X161.971 Y108.021 I-1.014 J-0.423
G1 X150.5
G3 X149.5 Y107.021 I0 J-1
G1 Y106.021
G3 X150.5 Y105.021 I1 J0
G1 X164.5
G3 X165.5 Y106.021 I0 J1
G1 Y107.021
G3 X164.5 Y108.021 I-1 J0
G1 X161.971
G3 X161.92 Y107.628 I0 J-0.2
G1 X164.051 Y107.062
G2 X164 Y106.669 I-0.051 J-0.193
G1 Z-10.771 F30
X150.983 F150
X150.942 Y106.662
X150.906 Y106.644
X150.877 Y106.615
X150.859 Y106.579
X150.852 Y106.538
Y106.504
X150.859 Y106.463
X150.877 Y106.427
X150.906 Y106.398
X150.942 Y106.38
X150.983 Y106.373
X164.017
X164.058 Y106.38
X164.094 Y106.398
X164.123 Y106.427
X164.141 Y106.463
X164.148 Y106.504
Y106.538
X164.141 Y106.579
X164.123 Y106.615
X164.094 Y106.644
X164.058 Y106.662
X164.017 Y106.669
X164
G2 X162.986 Y107.345 I0 J1.099
G3 X161.971 Y108.021 I-1.014 J-0.423
G1 X150.5
G3 X149.5 Y107.021 I0 J-1
G1 Y106.021
G3 X150.5 Y105.021 I1 J0
G1 X164.5
G3 X165.5 Y106.021 I0 J1
G1 Y107.021
G3 X164.5 Y108.021 I-1 J0
G1 X161.971
G3 X161.92 Y107.628 I0 J-0.2
G1 X164.051 Y107.062
G2 X164 Y106.669 I-0.051 J-0.193
G1 Z-11.75 F30
X150.983 F150
X150.942 Y106.662
X150.906 Y106.644
X150.877 Y106.615
X150.859 Y106.579
X150.852 Y106.538
Y106.504
X150.859 Y106.463
X150.877 Y106.427
X150.906 Y106.398
X150.942 Y106.38
X150.983 Y106.373
X164.017
X164.058 Y106.38
X164.094 Y106.398
X164.123 Y106.427
X164.141 Y106.463
X164.148 Y106.504
Y106.538
X164.141 Y106.579
X164.123 Y106.615
X164.094 Y106.644
X164.058 Y106.662
X164.017 Y106.669
X164
G2 X162.986 Y107.345 I0 J1.099
G3 X161.971 Y108.021 I-1.014 J-0.423
G1 X150.5
G3 X149.5 Y107.021 I0 J-1
G1 Y106.021
G3 X150.5 Y105.021 I1 J0
G1 X164.5
G3 X165.5 Y106.021 I0 J1
G1 Y107.021
G3 X164.5 Y108.021 I-1 J0
G1 X161.971
G0 Z5
X157.25 Y100.521
G1 Z2.5 F30
Z-0.979
G3 X157.75 Y100.521 I0.25 J0 F150
X157.25 Y100.521 I-0.25 J0
G1 Z-1.958 F30
G3 X157.75 Y100.521 I0.25 J0 F150
X157.25 Y100.521 I-0.25 J0
G1 Z-2.938 F30
G3 X157.75 Y100.521 I0.25 J0 F150
X157.25 Y100.521 I-0.25 J0
G1 Z-3.917 F30
G3 X157.75 Y100.521 I0.25 J0 F150
X157.25 Y100.521 I-0.25 J0
G1 Z-4.896 F30
G3 X157.75 Y100.521 I0.25 J0 F150
X157.25 Y100.521 I-0.25 J0
G1 Z-5.875 F30
G3 X157.75 Y100.521 I0.25 J0 F150
X157.25 Y100.521 I-0.25 J0
G1 Z-6.854 F30
G3 X157.75 Y100.521 I0.25 J0 F150
X157.25 Y100.521 I-0.25 J0
G1 Z-7.833 F30
G3 X157.75 Y100.521 I0.25 J0 F150
X157.25 Y100.521 I-0.25 J0
G1 Z-8.813 F30
G3 X157.75 Y100.521 I0.25 J0 F150
X157.25 Y100.521 I-0.25 J0
G1 Z-9.792 F30
G3 X157.75 Y100.521 I0.25 J0 F150
X157.25 Y100.521 I-0.25 J0
G1 Z-10.771 F30
G3 X157.75 Y100.521 I0.25 J0 F150
X157.25 Y100.521 I-0.25 J0
G1 Z-11.75 F30
G3 X157.75 Y100.521 I0.25 J0 F150
X157.25 Y100.521 I-0.25 J0
G0 Z5
X141.25 Y95.021
G1 Z2.5 F30
Z-0.979
G3 X140.75 Y95.021 I-0.25 J0 F150
X141.25 Y95.021 I0.25 J0
G1 Z-1.958 F30
G3 X140.75 Y95.021 I-0.25 J0 F150
X141.25 Y95.021 I0.25 J0
G1 Z-2.938 F30
G3 X140.75 Y95.021 I-0.25 J0 F150
X141.25 Y95.021 I0.25 J0
G1 Z-3.917 F30
G3 X140.75 Y95.021 I-0.25 J0 F150
X141.25 Y95.021 I0.25 J0
G1 Z-4.896 F30
G3 X140.75 Y95.021 I-0.25 J0 F150
X141.25 Y95.021 I0.25 J0
G1 Z-5.875 F30
G3 X140.75 Y95.021 I-0.25 J0 F150
X141.25 Y95.021 I0.25 J0
G1 Z-6.854 F30
G3 X140.75 Y95.021 I-0.25 J0 F150
X141.25 Y95.021 I0.25 J0
G1 Z-7.833 F30
G3 X140.75 Y95.021 I-0.25 J0 F150
X141.25 Y95.021 I0.25 J0
G1 Z-8.813 F30
G3 X140.75 Y95.021 I-0.25 J0 F150
X141.25 Y95.021 I0.25 J0
G1 Z-9.792 F30
G3 X140.75 Y95.021 I-0.25 J0 F150
X141.25 Y95.021 I0.25 J0
G1 Z-10.771 F30
G3 X140.75 Y95.021 I-0.25 J0 F150
X141.25 Y95.021 I0.25 J0
G1 Z-11.75 F30
G3 X140.75 Y95.021 I-0.25 J0 F150
X141.25 Y95.021 I0.25 J0
G0 Z5
X122.02 Y101.951
G1 Z2.5 F30
Z-0.979
G3 X121.42 Y101.951 I-0.3 J0 F150
X123.97 Y101.951 I1.275 J0
X119.47 Y101.951 I-2.25 J0
X123.97 Y101.951 I2.25 J0
X123.747 Y102.15 I-0.2 J0
G1 X122.02 Y101.951
Z-1.958 F30
G3 X121.42 Y101.951 I-0.3 J0 F150
X123.97 Y101.951 I1.275 J0
X119.47 Y101.951 I-2.25 J0
X123.97 Y101.951 I2.25 J0
X123.747 Y102.15 I-0.2 J0
G1 X122.02 Y101.951
Z-2.938 F30
G3 X121.42 Y101.951 I-0.3 J0 F150
X123.97 Y101.951 I1.275 J0
X119.47 Y101.951 I-2.25 J0
X123.97 Y101.951 I2.25 J0
X123.747 Y102.15 I-0.2 J0
G1 X122.02 Y101.951
Z-3.917 F30
G3 X121.42 Y101.951 I-0.3 J0 F150
X123.97 Y101.951 I1.275 J0
X119.47 Y101.951 I-2.25 J0
X123.97 Y101.951 I2.25 J0
X123.747 Y102.15 I-0.2 J0
G1 X122.02 Y101.951
Z-4.896 F30
G3 X121.42 Y101.951 I-0.3 J0 F150
X123.97 Y101.951 I1.275 J0
X119.47 Y101.951 I-2.25 J0
X123.97 Y101.951 I2.25 J0
X123.747 Y102.15 I-0.2 J0
G1 X122.02 Y101.951
Z-5.875 F30
G3 X121.42 Y101.951 I-0.3 J0 F150
X123.97 Y101.951 I1.275 J0
X119.47 Y101.951 I-2.25 J0
X123.97 Y101.951 I2.25 J0
X123.747 Y102.15 I-0.2 J0
G1 X122.02 Y101.951
Z-6.854 F30
G3 X121.42 Y101.951 I-0.3 J0 F150
X123.97 Y101.951 I1.275 J0
X119.47 Y101.951 I-2.25 J0
X123.97 Y101.951 I2.25 J0
X123.747 Y102.15 I-0.2 J0
G1 X122.02 Y101.951
Z-7.833 F30
G3 X121.42 Y101.951 I-0.3 J0 F150
X123.97 Y101.951 I1.275 J0
X119.47 Y101.951 I-2.25 J0
X123.97 Y101.951 I2.25 J0
X123.747 Y102.15 I-0.2 J0
G1 X122.02 Y101.951
Z-8.813 F30
G3 X121.42 Y101.951 I-0.3 J0 F150
X123.97 Y101.951 I1.275 J0
X119.47 Y101.951 I-2.25 J0
X123.97 Y101.951 I2.25 J0
X123.747 Y102.15 I-0.2 J0
G1 X122.02 Y101.951
Z-9.792 F30
G3 X121.42 Y101.951 I-0.3 J0 F150
X123.97 Y101.951 I1.275 J0
X119.47 Y101.951 I-2.25 J0
X123.97 Y101.951 I2.25 J0
X123.747 Y102.15 I-0.2 J0
G1 X122.02 Y101.951
Z-10.771 F30
G3 X121.42 Y101.951 I-0.3 J0 F150
X123.97 Y101.951 I1.275 J0
X119.47 Y101.951 I-2.25 J0
X123.97 Y101.951 I2.25 J0
X123.747 Y102.15 I-0.2 J0
G1 X122.02 Y101.951
Z-11.75 F30
G3 X121.42 Y101.951 I-0.3 J0 F150
X123.97 Y101.951 I1.275 J0
X119.47 Y101.951 I-2.25 J0
X123.97 Y101.951 I2.25 J0
G0 Z5
X121.8 Y65.598
G1 Z2.5 F30
Z-0.979
G3 X122.15 Y65.598 I0.175 J0 F150
X119.85 Y65.598 I-1.15 J0
X124.1 Y65.598 I2.125 J0
X117.9 Y65.598 I-3.1 J0
X124.1 Y65.598 I3.1 J0
G1 Z1.521
X121.8
Z-1.958 F30
G3 X122.15 Y65.598 I0.175 J0 F150
X119.85 Y65.598 I-1.15 J0
X124.1 Y65.598 I2.125 J0
X117.9 Y65.598 I-3.1 J0
X124.1 Y65.598 I3.1 J0
G1 Z0.542
X121.8
Z-2.938 F30
G3 X122.15 Y65.598 I0.175 J0 F150
X119.85 Y65.598 I-1.15 J0
X124.1 Y65.598 I2.125 J0
X117.9 Y65.598 I-3.1 J0
X124.1 Y65.598 I3.1 J0
G1 Z-0.438
X121.8
Z-3.917 F30
G3 X122.15 Y65.598 I0.175 J0 F150
X119.85 Y65.598 I-1.15 J0
X124.1 Y65.598 I2.125 J0
X117.9 Y65.598 I-3.1 J0
X124.1 Y65.598 I3.1 J0
G1 Z-1.417
X121.8
Z-4.896 F30
G3 X122.15 Y65.598 I0.175 J0 F150
X119.85 Y65.598 I-1.15 J0
X124.1 Y65.598 I2.125 J0
X117.9 Y65.598 I-3.1 J0
X124.1 Y65.598 I3.1 J0
G1 Z-2.396
X121.8
Z-5.875 F30
G3 X122.15 Y65.598 I0.175 J0 F150
X119.85 Y65.598 I-1.15 J0
X124.1 Y65.598 I2.125 J0
X117.9 Y65.598 I-3.1 J0
X124.1 Y65.598 I3.1 J0
G1 Z-3.375
X121.8
Z-6.854 F30
G3 X122.15 Y65.598 I0.175 J0 F150
X119.85 Y65.598 I-1.15 J0
X124.1 Y65.598 I2.125 J0
X117.9 Y65.598 I-3.1 J0
X124.1 Y65.598 I3.1 J0
G1 Z-4.354
X121.8
Z-7.833 F30
G3 X122.15 Y65.598 I0.175 J0 F150
X119.85 Y65.598 I-1.15 J0
X124.1 Y65.598 I2.125 J0
X117.9 Y65.598 I-3.1 J0
X124.1 Y65.598 I3.1 J0
G1 Z-5.333
X121.8
Z-8.813 F30
G3 X122.15 Y65.598 I0.175 J0 F150
X119.85 Y65.598 I-1.15 J0
X124.1 Y65.598 I2.125 J0
X117.9 Y65.598 I-3.1 J0
X124.1 Y65.598 I3.1 J0
G1 Z-6.313
X121.8
Z-9.792 F30
G3 X122.15 Y65.598 I0.175 J0 F150
X119.85 Y65.598 I-1.15 J0
X124.1 Y65.598 I2.125 J0
X117.9 Y65.598 I-3.1 J0
X124.1 Y65.598 I3.1 J0
G1 Z-7.292
X121.8
Z-10.771 F30
G3 X122.15 Y65.598 I0.175 J0 F150
X119.85 Y65.598 I-1.15 J0
X124.1 Y65.598 I2.125 J0
X117.9 Y65.598 I-3.1 J0
X124.1 Y65.598 I3.1 J0
G1 Z-8.271
X121.8
Z-11.75 F30
G3 X122.15 Y65.598 I0.175 J0 F150
X119.85 Y65.598 I-1.15 J0
X124.1 Y65.598 I2.125 J0
X117.9 Y65.598 I-3.1 J0
X124.1 Y65.598 I3.1 J0
G0 Z5
X99 Y44.521
G1 Z2.5 F30
Z-0.979
G3 X99.95 Y44.521 I0.475 J0 F150
X97.05 Y44.521 I-1.45 J0
X99.95 Y44.521 I1.45 J0
X99.695 Y44.713 I-0.2 J0
G1 X99.055 Y44.529
X99 Y44.521
Z-1.958 F30
G3 X99.95 Y44.521 I0.475 J0 F150
X97.05 Y44.521 I-1.45 J0
X99.95 Y44.521 I1.45 J0
X99.695 Y44.713 I-0.2 J0
G1 X99.055 Y44.529
X99 Y44.521
Z-2.938 F30
G3 X99.95 Y44.521 I0.475 J0 F150
X97.05 Y44.521 I-1.45 J0
X99.95 Y44.521 I1.45 J0
X99.695 Y44.713 I-0.2 J0
G1 X99.055 Y44.529
X99 Y44.521
Z-3.917 F30
G3 X99.95 Y44.521 I0.475 J0 F150
X97.05 Y44.521 I-1.45 J0
X99.95 Y44.521 I1.45 J0
X99.695 Y44.713 I-0.2 J0
G1 X99.055 Y44.529
X99 Y44.521
Z-4.896 F30
G3 X99.95 Y44.521 I0.475 J0 F150
X97.05 Y44.521 I-1.45 J0
X99.95 Y44.521 I1.45 J0
X99.695 Y44.713 I-0.2 J0
G1 X99.055 Y44.529
X99 Y44.521
Z-5.875 F30
G3 X99.95 Y44.521 I0.475 J0 F150
X97.05 Y44.521 I-1.45 J0
X99.95 Y44.521 I1.45 J0
X99.695 Y44.713 I-0.2 J0
G1 X99.055 Y44.529
X99 Y44.521
Z-6.854 F30
G3 X99.95 Y44.521 I0.475 J0 F150
X97.05 Y44.521 I-1.45 J0
X99.95 Y44.521 I1.45 J0
X99.695 Y44.713 I-0.2 J0
G1 X99.055 Y44.529
X99 Y44.521
Z-7.833 F30
G3 X99.95 Y44.521 I0.475 J0 F150
X97.05 Y44.521 I-1.45 J0
X99.95 Y44.521 I1.45 J0
X99.695 Y44.713 I-0.2 J0
G1 X99.055 Y44.529
X99 Y44.521
Z-8.813 F30
G3 X99.95 Y44.521 I0.475 J0 F150
X97.05 Y44.521 I-1.45 J0
X99.95 Y44.521 I1.45 J0
X99.695 Y44.713 I-0.2 J0
G1 X99.055 Y44.529
X99 Y44.521
Z-9.792 F30
G3 X99.95 Y44.521 I0.475 J0 F150
X97.05 Y44.521 I-1.45 J0
X99.95 Y44.521 I1.45 J0
X99.695 Y44.713 I-0.2 J0
G1 X99.055 Y44.529
X99 Y44.521
Z-10.771 F30
G3 X99.95 Y44.521 I0.475 J0 F150
X97.05 Y44.521 I-1.45 J0
X99.95 Y44.521 I1.45 J0
X99.695 Y44.713 I-0.2 J0
G1 X99.055 Y44.529
X99 Y44.521
Z-11.75 F30
G3 X99.95 Y44.521 I0.475 J0 F150
X97.05 Y44.521 I-1.45 J0
X99.95 Y44.521 I1.45 J0
G0 Z5
X85.3 Y19.821
G1 Z2.5 F30
Z-0.979
G3 X85.65 Y19.821 I0.175 J0 F150
X83.35 Y19.821 I-1.15 J0
X87.6 Y19.821 I2.125 J0
X81.4 Y19.821 I-3.1 J0
X87.6 Y19.821 I3.1 J0
G1 Z1.521
X85.3
Z-1.958 F30
G3 X85.65 Y19.821 I0.175 J0 F150
X83.35 Y19.821 I-1.15 J0
X87.6 Y19.821 I2.125 J0
X81.4 Y19.821 I-3.1 J0
X87.6 Y19.821 I3.1 J0
G1 Z0.542
X85.3
Z-2.938 F30
G3 X85.65 Y19.821 I0.175 J0 F150
X83.35 Y19.821 I-1.15 J0
X87.6 Y19.821 I2.125 J0
X81.4 Y19.821 I-3.1 J0
X87.6 Y19.821 I3.1 J0
G1 Z-0.438
X85.3
Z-3.917 F30
G3 X85.65 Y19.821 I0.175 J0 F150
X83.35 Y19.821 I-1.15 J0
X87.6 Y19.821 I2.125 J0
X81.4 Y19.821 I-3.1 J0
X87.6 Y19.821 I3.1 J0
G1 Z-1.417
X85.3
Z-4.896 F30
G3 X85.65 Y19.821 I0.175 J0 F150
X83.35 Y19.821 I-1.15 J0
X87.6 Y19.821 I2.125 J0
X81.4 Y19.821 I-3.1 J0
X87.6 Y19.821 I3.1 J0
G1 Z-2.396
X85.3
Z-5.875 F30
G3 X85.65 Y19.821 I0.175 J0 F150
X83.35 Y19.821 I-1.15 J0
X87.6 Y19.821 I2.125 J0
X81.4 Y19.821 I-3.1 J0
X87.6 Y19.821 I3.1 J0
G1 Z-3.375
X85.3
Z-6.854 F30
G3 X85.65 Y19.821 I0.175 J0 F150
X83.35 Y19.821 I-1.15 J0
X87.6 Y19.821 I2.125 J0
X81.4 Y19.821 I-3.1 J0
X87.6 Y19.821 I3.1 J0
G1 Z-4.354
X85.3
Z-7.833 F30
G3 X85.65 Y19.821 I0.175 J0 F150
X83.35 Y19.821 I-1.15 J0
X87.6 Y19.821 I2.125 J0
X81.4 Y19.821 I-3.1 J0
X87.6 Y19.821 I3.1 J0
G1 Z-5.333
X85.3
Z-8.813 F30
G3 X85.65 Y19.821 I0.175 J0 F150
X83.35 Y19.821 I-1.15 J0
X87.6 Y19.821 I2.125 J0
X81.4 Y19.821 I-3.1 J0
X87.6 Y19.821 I3.1 J0
G1 Z-6.313
X85.3
Z-9.792 F30
G3 X85.65 Y19.821 I0.175 J0 F150
X83.35 Y19.821 I-1.15 J0
X87.6 Y19.821 I2.125 J0
X81.4 Y19.821 I-3.1 J0
X87.6 Y19.821 I3.1 J0
G1 Z-7.292
X85.3
Z-10.771 F30
G3 X85.65 Y19.821 I0.175 J0 F150
X83.35 Y19.821 I-1.15 J0
X87.6 Y19.821 I2.125 J0
X81.4 Y19.821 I-3.1 J0
X87.6 Y19.821 I3.1 J0
G1 Z-8.271
X85.3
Z-11.75 F30
G3 X85.65 Y19.821 I0.175 J0 F150
X83.35 Y19.821 I-1.15 J0
X87.6 Y19.821 I2.125 J0
X81.4 Y19.821 I-3.1 J0
X87.6 Y19.821 I3.1 J0
G0 Z5
X68.75
G1 Z2.5 F30
Z-0.979
G3 X68.25 Y19.821 I-0.25 J0 F150
X68.75 Y19.821 I0.25 J0
G1 Z-1.958 F30
G3 X68.25 Y19.821 I-0.25 J0 F150
X68.75 Y19.821 I0.25 J0
G1 Z-2.938 F30
G3 X68.25 Y19.821 I-0.25 J0 F150
X68.75 Y19.821 I0.25 J0
G1 Z-3.917 F30
G3 X68.25 Y19.821 I-0.25 J0 F150
X68.75 Y19.821 I0.25 J0
G1 Z-4.896 F30
G3 X68.25 Y19.821 I-0.25 J0 F150
X68.75 Y19.821 I0.25 J0
G1 Z-5.875 F30
G3 X68.25 Y19.821 I-0.25 J0 F150
X68.75 Y19.821 I0.25 J0
G1 Z-6.854 F30
G3 X68.25 Y19.821 I-0.25 J0 F150
X68.75 Y19.821 I0.25 J0
G1 Z-7.833 F30
G3 X68.25 Y19.821 I-0.25 J0 F150
X68.75 Y19.821 I0.25 J0
G1 Z-8.813 F30
G3 X68.25 Y19.821 I-0.25 J0 F150
X68.75 Y19.821 I0.25 J0
G1 Z-9.792 F30
G3 X68.25 Y19.821 I-0.25 J0 F150
X68.75 Y19.821 I0.25 J0
G1 Z-10.771 F30
G3 X68.25 Y19.821 I-0.25 J0 F150
X68.75 Y19.821 I0.25 J0
G1 Z-11.75 F30
G3 X68.25 Y19.821 I-0.25 J0 F150
X68.75 Y19.821 I0.25 J0
G0 Z5
X74.88 Y101.951
G1 Z2.5 F30
Z-0.979
G3 X74.28 Y101.951 I-0.3 J0 F150
X76.83 Y101.951 I1.275 J0
X72.33 Y101.951 I-2.25 J0
X76.83 Y101.951 I2.25 J0
X76.607 Y102.15 I-0.2 J0
G1 X74.88 Y101.951
Z-1.958 F30
G3 X74.28 Y101.951 I-0.3 J0 F150
X76.83 Y101.951 I1.275 J0
X72.33 Y101.951 I-2.25 J0
X76.83 Y101.951 I2.25 J0
X76.607 Y102.15 I-0.2 J0
G1 X74.88 Y101.951
Z-2.938 F30
G3 X74.28 Y101.951 I-0.3 J0 F150
X76.83 Y101.951 I1.275 J0
X72.33 Y101.951 I-2.25 J0
X76.83 Y101.951 I2.25 J0
X76.607 Y102.15 I-0.2 J0
G1 X74.88 Y101.951
Z-3.917 F30
G3 X74.28 Y101.951 I-0.3 J0 F150
X76.83 Y101.951 I1.275 J0
X72.33 Y101.951 I-2.25 J0
X76.83 Y101.951 I2.25 J0
X76.607 Y102.15 I-0.2 J0
G1 X74.88 Y101.951
Z-4.896 F30
G3 X74.28 Y101.951 I-0.3 J0 F150
X76.83 Y101.951 I1.275 J0
X72.33 Y101.951 I-2.25 J0
X76.83 Y101.951 I2.25 J0
X76.607 Y102.15 I-0.2 J0
G1 X74.88 Y101.951
Z-5.875 F30
G3 X74.28 Y101.951 I-0.3 J0 F150
X76.83 Y101.951 I1.275 J0
X72.33 Y101.951 I-2.25 J0
X76.83 Y101.951 I2.25 J0
X76.607 Y102.15 I-0.2 J0
G1 X74.88 Y101.951
Z-6.854 F30
G3 X74.28 Y101.951 I-0.3 J0 F150
X76.83 Y101.951 I1.275 J0
X72.33 Y101.951 I-2.25 J0
X76.83 Y101.951 I2.25 J0
X76.607 Y102.15 I-0.2 J0
G1 X74.88 Y101.951
Z-7.833 F30
G3 X74.28 Y101.951 I-0.3 J0 F150
X76.83 Y101.951 I1.275 J0
X72.33 Y101.951 I-2.25 J0
X76.83 Y101.951 I2.25 J0
X76.607 Y102.15 I-0.2 J0
G1 X74.88 Y101.951
Z-8.813 F30
G3 X74.28 Y101.951 I-0.3 J0 F150
X76.83 Y101.951 I1.275 J0
X72.33 Y101.951 I-2.25 J0
X76.83 Y101.951 I2.25 J0
X76.607 Y102.15 I-0.2 J0
G1 X74.88 Y101.951
Z-9.792 F30
G3 X74.28 Y101.951 I-0.3 J0 F150
X76.83 Y101.951 I1.275 J0
X72.33 Y101.951 I-2.25 J0
X76.83 Y101.951 I2.25 J0
X76.607 Y102.15 I-0.2 J0
G1 X74.88 Y101.951
Z-10.771 F30
G3 X74.28 Y101.951 I-0.3 J0 F150
X76.83 Y101.951 I1.275 J0
X72.33 Y101.951 I-2.25 J0
X76.83 Y101.951 I2.25 J0
X76.607 Y102.15 I-0.2 J0
G1 X74.88 Y101.951
Z-11.75 F30
G3 X74.28 Y101.951 I-0.3 J0 F150
X76.83 Y101.951 I1.275 J0
X72.33 Y101.951 I-2.25 J0
X76.83 Y101.951 I2.25 J0
G0 Z5
X38.85 Y98.021
G1 Z2.5 F30
Z-0.979
G3 X39.1 Y98.021 I0.125 J0 F150
X36.9 Y98.021 I-1.1 J0
X41.05 Y98.021 I2.075 J0
X34.95 Y98.021 I-3.05 J0
X43 Y98.021 I4.025 J0
X33 Y98.021 I-5 J0
X43 Y98.021 I5 J0
G1 Z1.521
X38.85
Z-1.958 F30
G3 X39.1 Y98.021 I0.125 J0 F150
X36.9 Y98.021 I-1.1 J0
X41.05 Y98.021 I2.075 J0
X34.95 Y98.021 I-3.05 J0
X43 Y98.021 I4.025 J0
X33 Y98.021 I-5 J0
X43 Y98.021 I5 J0
G1 Z0.542
X38.85
Z-2.938 F30
G3 X39.1 Y98.021 I0.125 J0 F150
X36.9 Y98.021 I-1.1 J0
X41.05 Y98.021 I2.075 J0
X34.95 Y98.021 I-3.05 J0
X43 Y98.021 I4.025 J0
X33 Y98.021 I-5 J0
X43 Y98.021 I5 J0
G1 Z-0.438
X38.85
Z-3.917 F30
G3 X39.1 Y98.021 I0.125 J0 F150
X36.9 Y98.021 I-1.1 J0
X41.05 Y98.021 I2.075 J0
X34.95 Y98.021 I-3.05 J0
X43 Y98.021 I4.025 J0
X33 Y98.021 I-5 J0
X43 Y98.021 I5 J0
G1 Z-1.417
X38.85
Z-4.896 F30
G3 X39.1 Y98.021 I0.125 J0 F150
X36.9 Y98.021 I-1.1 J0
X41.05 Y98.021 I2.075 J0
X34.95 Y98.021 I-3.05 J0
X43 Y98.021 I4.025 J0
X33 Y98.021 I-5 J0
X43 Y98.021 I5 J0
G1 Z-2.396
X38.85
Z-5.875 F30
G3 X39.1 Y98.021 I0.125 J0 F150
X36.9 Y98.021 I-1.1 J0
X41.05 Y98.021 I2.075 J0
X34.95 Y98.021 I-3.05 J0
X43 Y98.021 I4.025 J0
X33 Y98.021 I-5 J0
X43 Y98.021 I5 J0
G1 Z-3.375
X38.85
Z-6.854 F30
G3 X39.1 Y98.021 I0.125 J0 F150
X36.9 Y98.021 I-1.1 J0
X41.05 Y98.021 I2.075 J0
X34.95 Y98.021 I-3.05 J0
X43 Y98.021 I4.025 J0
X33 Y98.021 I-5 J0
X43 Y98.021 I5 J0
G1 Z-4.354
X38.85
Z-7.833 F30
G3 X39.1 Y98.021 I0.125 J0 F150
X36.9 Y98.021 I-1.1 J0
X41.05 Y98.021 I2.075 J0
X34.95 Y98.021 I-3.05 J0
X43 Y98.021 I4.025 J0
X33 Y98.021 I-5 J0
X43 Y98.021 I5 J0
G1 Z-5.333
X38.85
Z-8.813 F30
G3 X39.1 Y98.021 I0.125 J0 F150
X36.9 Y98.021 I-1.1 J0
X41.05 Y98.021 I2.075 J0
X34.95 Y98.021 I-3.05 J0
X43 Y98.021 I4.025 J0
X33 Y98.021 I-5 J0
X43 Y98.021 I5 J0
G1 Z-6.313
X38.85
Z-9.792 F30
G3 X39.1 Y98.021 I0.125 J0 F150
X36.9 Y98.021 I-1.1 J0
X41.05 Y98.021 I2.075 J0
X34.95 Y98.021 I-3.05 J0
X43 Y98.021 I4.025 J0
X33 Y98.021 I-5 J0
X43 Y98.021 I5 J0
G1 Z-7.292
X38.85
Z-10.771 F30
G3 X39.1 Y98.021 I0.125 J0 F150
X36.9 Y98.021 I-1.1 J0
X41.05 Y98.021 I2.075 J0
X34.95 Y98.021 I-3.05 J0
X43 Y98.021 I4.025 J0
X33 Y98.021 I-5 J0
X43 Y98.021 I5 J0
G1 Z-8.271
X38.85
Z-11.75 F30
G3 X39.1 Y98.021 I0.125 J0 F150
X36.9 Y98.021 I-1.1 J0
X41.05 Y98.021 I2.075 J0
X34.95 Y98.021 I-3.05 J0
X43 Y98.021 I4.025 J0
X33 Y98.021 I-5 J0
X43 Y98.021 I5 J0
G0 Z5
X38 Y117.271
G1 Z2.5 F30
Z-0.979
G3 X38 Y115.771 I0 J-0.75 F150
X38 Y117.271 I0 J0.75
G1 Z-1.958 F30
G3 X38 Y115.771 I0 J-0.75 F150
X38 Y117.271 I0 J0.75
G1 Z-2.938 F30
G3 X38 Y115.771 I0 J-0.75 F150
X38 Y117.271 I0 J0.75
G1 Z-3.917 F30
G3 X38 Y115.771 I0 J-0.75 F150
X38 Y117.271 I0 J0.75
G1 Z-4.896 F30
G3 X38 Y115.771 I0 J-0.75 F150
X38 Y117.271 I0 J0.75
G1 Z-5.875 F30
G3 X38 Y115.771 I0 J-0.75 F150
X38 Y117.271 I0 J0.75
G1 Z-6.854 F30
G3 X38 Y115.771 I0 J-0.75 F150
X38 Y117.271 I0 J0.75
G1 Z-7.833 F30
G3 X38 Y115.771 I0 J-0.75 F150
X38 Y117.271 I0 J0.75
G1 Z-8.813 F30
G3 X38 Y115.771 I0 J-0.75 F150
X38 Y117.271 I0 J0.75
G1 Z-9.792 F30
G3 X38 Y115.771 I0 J-0.75 F150
X38 Y117.271 I0 J0.75
G1 Z-10.771 F30
G3 X38 Y115.771 I0 J-0.75 F150
X38 Y117.271 I0 J0.75
G1 Z-11.75 F30
G3 X38 Y115.771 I0 J-0.75 F150
X38 Y117.271 I0 J0.75
G0 Z5
X74.88 Y149.091
G1 Z2.5 F30
Z-0.979
G3 X74.28 Y149.091 I-0.3 J0 F150
X76.83 Y149.091 I1.275 J0
X72.33 Y149.091 I-2.25 J0
X76.83 Y149.091 I2.25 J0
X76.607 Y149.29 I-0.2 J0
G1 X74.88 Y149.091
Z-1.958 F30
G3 X74.28 Y149.091 I-0.3 J0 F150
X76.83 Y149.091 I1.275 J0
X72.33 Y149.091 I-2.25 J0
X76.83 Y149.091 I2.25 J0
X76.607 Y149.29 I-0.2 J0
G1 X74.88 Y149.091
Z-2.938 F30
G3 X74.28 Y149.091 I-0.3 J0 F150
X76.83 Y149.091 I1.275 J0
X72.33 Y149.091 I-2.25 J0
X76.83 Y149.091 I2.25 J0
X76.607 Y149.29 I-0.2 J0
G1 X74.88 Y149.091
Z-3.917 F30
G3 X74.28 Y149.091 I-0.3 J0 F150
X76.83 Y149.091 I1.275 J0
X72.33 Y149.091 I-2.25 J0
X76.83 Y149.091 I2.25 J0
X76.607 Y149.29 I-0.2 J0
G1 X74.88 Y149.091
Z-4.896 F30
G3 X74.28 Y149.091 I-0.3 J0 F150
X76.83 Y149.091 I1.275 J0
X72.33 Y149.091 I-2.25 J0
X76.83 Y149.091 I2.25 J0
X76.607 Y149.29 I-0.2 J0
G1 X74.88 Y149.091
Z-5.875 F30
G3 X74.28 Y149.091 I-0.3 J0 F150
X76.83 Y149.091 I1.275 J0
X72.33 Y149.091 I-2.25 J0
X76.83 Y149.091 I2.25 J0
X76.607 Y149.29 I-0.2 J0
G1 X74.88 Y149.091
Z-6.854 F30
G3 X74.28 Y149.091 I-0.3 J0 F150
X76.83 Y149.091 I1.275 J0
X72.33 Y149.091 I-2.25 J0
X76.83 Y149.091 I2.25 J0
X76.607 Y149.29 I-0.2 J0
G1 X74.88 Y149.091
Z-7.833 F30
G3 X74.28 Y149.091 I-0.3 J0 F150
X76.83 Y149.091 I1.275 J0
X72.33 Y149.091 I-2.25 J0
X76.83 Y149.091 I2.25 J0
X76.607 Y149.29 I-0.2 J0
G1 X74.88 Y149.091
Z-8.813 F30
G3 X74.28 Y149.091 I-0.3 J0 F150
X76.83 Y149.091 I1.275 J0
X72.33 Y149.091 I-2.25 J0
X76.83 Y149.091 I2.25 J0
X76.607 Y149.29 I-0.2 J0
G1 X74.88 Y149.091
Z-9.792 F30
G3 X74.28 Y149.091 I-0.3 J0 F150
X76.83 Y149.091 I1.275 J0
X72.33 Y149.091 I-2.25 J0
X76.83 Y149.091 I2.25 J0
X76.607 Y149.29 I-0.2 J0
G1 X74.88 Y149.091
Z-10.771 F30
G3 X74.28 Y149.091 I-0.3 J0 F150
X76.83 Y149.091 I1.275 J0
X72.33 Y149.091 I-2.25 J0
X76.83 Y149.091 I2.25 J0
X76.607 Y149.29 I-0.2 J0
G1 X74.88 Y149.091
Z-11.75 F30
G3 X74.28 Y149.091 I-0.3 J0 F150
X76.83 Y149.091 I1.275 J0
X72.33 Y149.091 I-2.25 J0
X76.83 Y149.091 I2.25 J0
G0 Z5
X122.02
G1 Z2.5 F30
Z-0.979
G3 X121.42 Y149.091 I-0.3 J0 F150
X123.97 Y149.091 I1.275 J0
X119.47 Y149.091 I-2.25 J0
X123.97 Y149.091 I2.25 J0
X123.747 Y149.29 I-0.2 J0
G1 X122.02 Y149.091
Z-1.958 F30
G3 X121.42 Y149.091 I-0.3 J0 F150
X123.97 Y149.091 I1.275 J0
X119.47 Y149.091 I-2.25 J0
X123.97 Y149.091 I2.25 J0
X123.747 Y149.29 I-0.2 J0
G1 X122.02 Y149.091
Z-2.938 F30
G3 X121.42 Y149.091 I-0.3 J0 F150
X123.97 Y149.091 I1.275 J0
X119.47 Y149.091 I-2.25 J0
X123.97 Y149.091 I2.25 J0
X123.747 Y149.29 I-0.2 J0
G1 X122.02 Y149.091
Z-3.917 F30
G3 X121.42 Y149.091 I-0.3 J0 F150
X123.97 Y149.091 I1.275 J0
X119.47 Y149.091 I-2.25 J0
X123.97 Y149.091 I2.25 J0
X123.747 Y149.29 I-0.2 J0
G1 X122.02 Y149.091
Z-4.896 F30
G3 X121.42 Y149.091 I-0.3 J0 F150
X123.97 Y149.091 I1.275 J0
X119.47 Y149.091 I-2.25 J0
X123.97 Y149.091 I2.25 J0
X123.747 Y149.29 I-0.2 J0
G1 X122.02 Y149.091
Z-5.875 F30
G3 X121.42 Y149.091 I-0.3 J0 F150
X123.97 Y149.091 I1.275 J0
X119.47 Y149.091 I-2.25 J0
X123.97 Y149.091 I2.25 J0
X123.747 Y149.29 I-0.2 J0
G1 X122.02 Y149.091
Z-6.854 F30
G3 X121.42 Y149.091 I-0.3 J0 F150
X123.97 Y149.091 I1.275 J0
X119.47 Y149.091 I-2.25 J0
X123.97 Y149.091 I2.25 J0
X123.747 Y149.29 I-0.2 J0
G1 X122.02 Y149.091
Z-7.833 F30
G3 X121.42 Y149.091 I-0.3 J0 F150
X123.97 Y149.091 I1.275 J0
X119.47 Y149.091 I-2.25 J0
X123.97 Y149.091 I2.25 J0
X123.747 Y149.29 I-0.2 J0
G1 X122.02 Y149.091
Z-8.813 F30
G3 X121.42 Y149.091 I-0.3 J0 F150
X123.97 Y149.091 I1.275 J0
X119.47 Y149.091 I-2.25 J0
X123.97 Y149.091 I2.25 J0
X123.747 Y149.29 I-0.2 J0
G1 X122.02 Y149.091
Z-9.792 F30
G3 X121.42 Y149.091 I-0.3 J0 F150
X123.97 Y149.091 I1.275 J0
X119.47 Y149.091 I-2.25 J0
X123.97 Y149.091 I2.25 J0
X123.747 Y149.29 I-0.2 J0
G1 X122.02 Y149.091
Z-10.771 F30
G3 X121.42 Y149.091 I-0.3 J0 F150
X123.97 Y149.091 I1.275 J0
X119.47 Y149.091 I-2.25 J0
X123.97 Y149.091 I2.25 J0
X123.747 Y149.29 I-0.2 J0
G1 X122.02 Y149.091
Z-11.75 F30
G3 X121.42 Y149.091 I-0.3 J0 F150
X123.97 Y149.091 I1.275 J0
X119.47 Y149.091 I-2.25 J0
X123.97 Y149.091 I2.25 J0
G0 Z5
X174.25 Y118.021
G1 Z2.5 F30
Z-0.979
G3 X173.75 Y118.021 I-0.25 J0 F150
X174.25 Y118.021 I0.25 J0
G1 Z-1.958 F30
G3 X173.75 Y118.021 I-0.25 J0 F150
X174.25 Y118.021 I0.25 J0
G1 Z-2.938 F30
G3 X173.75 Y118.021 I-0.25 J0 F150
X174.25 Y118.021 I0.25 J0
G1 Z-3.917 F30
G3 X173.75 Y118.021 I-0.25 J0 F150
X174.25 Y118.021 I0.25 J0
G1 Z-4.896 F30
G3 X173.75 Y118.021 I-0.25 J0 F150
X174.25 Y118.021 I0.25 J0
G1 Z-5.875 F30
G3 X173.75 Y118.021 I-0.25 J0 F150
X174.25 Y118.021 I0.25 J0
G1 Z-6.854 F30
G3 X173.75 Y118.021 I-0.25 J0 F150
X174.25 Y118.021 I0.25 J0
G1 Z-7.833 F30
G3 X173.75 Y118.021 I-0.25 J0 F150
X174.25 Y118.021 I0.25 J0
G1 Z-8.813 F30
G3 X173.75 Y118.021 I-0.25 J0 F150
X174.25 Y118.021 I0.25 J0
G1 Z-9.792 F30
G3 X173.75 Y118.021 I-0.25 J0 F150
X174.25 Y118.021 I0.25 J0
G1 Z-10.771 F30
G3 X173.75 Y118.021 I-0.25 J0 F150
X174.25 Y118.021 I0.25 J0
G1 Z-11.75 F30
G3 X173.75 Y118.021 I-0.25 J0 F150
X174.25 Y118.021 I0.25 J0
G0 Z5
Y95.021
G1 Z2.5 F30
Z-0.979
G3 X173.75 Y95.021 I-0.25 J0 F150
X174.25 Y95.021 I0.25 J0
G1 Z-1.958 F30
G3 X173.75 Y95.021 I-0.25 J0 F150
X174.25 Y95.021 I0.25 J0
G1 Z-2.938 F30
G3 X173.75 Y95.021 I-0.25 J0 F150
X174.25 Y95.021 I0.25 J0
G1 Z-3.917 F30
G3 X173.75 Y95.021 I-0.25 J0 F150
X174.25 Y95.021 I0.25 J0
G1 Z-4.896 F30
G3 X173.75 Y95.021 I-0.25 J0 F150
X174.25 Y95.021 I0.25 J0
G1 Z-5.875 F30
G3 X173.75 Y95.021 I-0.25 J0 F150
X174.25 Y95.021 I0.25 J0
G1 Z-6.854 F30
G3 X173.75 Y95.021 I-0.25 J0 F150
X174.25 Y95.021 I0.25 J0
G1 Z-7.833 F30
G3 X173.75 Y95.021 I-0.25 J0 F150
X174.25 Y95.021 I0.25 J0
G1 Z-8.813 F30
G3 X173.75 Y95.021 I-0.25 J0 F150
X174.25 Y95.021 I0.25 J0
G1 Z-9.792 F30
G3 X173.75 Y95.021 I-0.25 J0 F150
X174.25 Y95.021 I0.25 J0
G1 Z-10.771 F30
G3 X173.75 Y95.021 I-0.25 J0 F150
X174.25 Y95.021 I0.25 J0
G1 Z-11.75 F30
G3 X173.75 Y95.021 I-0.25 J0 F150
X174.25 Y95.021 I0.25 J0
G0 Z5
X174.2 Y65.598
G1 Z2.5 F30
Z-0.979
G3 X175.75 Y65.598 I0.775 J0 F150
X172.25 Y65.598 I-1.75 J0
X175.75 Y65.598 I1.75 J0
X175.52 Y65.796 I-0.2 J0
G1 X174.2 Y65.598
Z-1.958 F30
G3 X175.75 Y65.598 I0.775 J0 F150
X172.25 Y65.598 I-1.75 J0
X175.75 Y65.598 I1.75 J0
X175.52 Y65.796 I-0.2 J0
G1 X174.2 Y65.598
Z-2.938 F30
G3 X175.75 Y65.598 I0.775 J0 F150
X172.25 Y65.598 I-1.75 J0
X175.75 Y65.598 I1.75 J0
X175.52 Y65.796 I-0.2 J0
G1 X174.2 Y65.598
Z-3.917 F30
G3 X175.75 Y65.598 I0.775 J0 F150
X172.25 Y65.598 I-1.75 J0
X175.75 Y65.598 I1.75 J0
X175.52 Y65.796 I-0.2 J0
G1 X174.2 Y65.598
Z-4.896 F30
G3 X175.75 Y65.598 I0.775 J0 F150
X172.25 Y65.598 I-1.75 J0
X175.75 Y65.598 I1.75 J0
X175.52 Y65.796 I-0.2 J0
G1 X174.2 Y65.598
Z-5.875 F30
G3 X175.75 Y65.598 I0.775 J0 F150
X172.25 Y65.598 I-1.75 J0
X175.75 Y65.598 I1.75 J0
X175.52 Y65.796 I-0.2 J0
G1 X174.2 Y65.598
Z-6.854 F30
G3 X175.75 Y65.598 I0.775 J0 F150
X172.25 Y65.598 I-1.75 J0
X175.75 Y65.598 I1.75 J0
X175.52 Y65.796 I-0.2 J0
G1 X174.2 Y65.598
Z-7.833 F30
G3 X175.75 Y65.598 I0.775 J0 F150
X172.25 Y65.598 I-1.75 J0
X175.75 Y65.598 I1.75 J0
X175.52 Y65.796 I-0.2 J0
G1 X174.2 Y65.598
Z-8.813 F30
G3 X175.75 Y65.598 I0.775 J0 F150
X172.25 Y65.598 I-1.75 J0
X175.75 Y65.598 I1.75 J0
X175.52 Y65.796 I-0.2 J0
G1 X174.2 Y65.598
Z-9.792 F30
G3 X175.75 Y65.598 I0.775 J0 F150
X172.25 Y65.598 I-1.75 J0
X175.75 Y65.598 I1.75 J0
X175.52 Y65.796 I-0.2 J0
G1 X174.2 Y65.598
Z-10.771 F30
G3 X175.75 Y65.598 I0.775 J0 F150
X172.25 Y65.598 I-1.75 J0
X175.75 Y65.598 I1.75 J0
X175.52 Y65.796 I-0.2 J0
G1 X174.2 Y65.598
Z-11.75 F30
G3 X175.75 Y65.598 I0.775 J0 F150
X172.25 Y65.598 I-1.75 J0
X175.75 Y65.598 I1.75 J0
G0 Z5
X194.8
G1 Z2.5 F30
Z-0.979
G3 X195.15 Y65.598 I0.175 J0 F150
X192.85 Y65.598 I-1.15 J0
X197.1 Y65.598 I2.125 J0
X190.9 Y65.598 I-3.1 J0
X197.1 Y65.598 I3.1 J0
G1 Z1.521
X194.8
Z-1.958 F30
G3 X195.15 Y65.598 I0.175 J0 F150
X192.85 Y65.598 I-1.15 J0
X197.1 Y65.598 I2.125 J0
X190.9 Y65.598 I-3.1 J0
X197.1 Y65.598 I3.1 J0
G1 Z0.542
X194.8
Z-2.938 F30
G3 X195.15 Y65.598 I0.175 J0 F150
X192.85 Y65.598 I-1.15 J0
X197.1 Y65.598 I2.125 J0
X190.9 Y65.598 I-3.1 J0
X197.1 Y65.598 I3.1 J0
G1 Z-0.438
X194.8
Z-3.917 F30
G3 X195.15 Y65.598 I0.175 J0 F150
X192.85 Y65.598 I-1.15 J0
X197.1 Y65.598 I2.125 J0
X190.9 Y65.598 I-3.1 J0
X197.1 Y65.598 I3.1 J0
G1 Z-1.417
X194.8
Z-4.896 F30
G3 X195.15 Y65.598 I0.175 J0 F150
X192.85 Y65.598 I-1.15 J0
X197.1 Y65.598 I2.125 J0
X190.9 Y65.598 I-3.1 J0
X197.1 Y65.598 I3.1 J0
G1 Z-2.396
X194.8
Z-5.875 F30
G3 X195.15 Y65.598 I0.175 J0 F150
X192.85 Y65.598 I-1.15 J0
X197.1 Y65.598 I2.125 J0
X190.9 Y65.598 I-3.1 J0
X197.1 Y65.598 I3.1 J0
G1 Z-3.375
X194.8
Z-6.854 F30
G3 X195.15 Y65.598 I0.175 J0 F150
X192.85 Y65.598 I-1.15 J0
X197.1 Y65.598 I2.125 J0
X190.9 Y65.598 I-3.1 J0
X197.1 Y65.598 I3.1 J0
G1 Z-4.354
X194.8
Z-7.833 F30
G3 X195.15 Y65.598 I0.175 J0 F150
X192.85 Y65.598 I-1.15 J0
X197.1 Y65.598 I2.125 J0
X190.9 Y65.598 I-3.1 J0
X197.1 Y65.598 I3.1 J0
G1 Z-5.333
X194.8
Z-8.813 F30
G3 X195.15 Y65.598 I0.175 J0 F150
X192.85 Y65.598 I-1.15 J0
X197.1 Y65.598 I2.125 J0
X190.9 Y65.598 I-3.1 J0
X197.1 Y65.598 I3.1 J0
G1 Z-6.313
X194.8
Z-9.792 F30
G3 X195.15 Y65.598 I0.175 J0 F150
X192.85 Y65.598 I-1.15 J0
X197.1 Y65.598 I2.125 J0
X190.9 Y65.598 I-3.1 J0
X197.1 Y65.598 I3.1 J0
G1 Z-7.292
X194.8
Z-10.771 F30
G3 X195.15 Y65.598 I0.175 J0 F150
X192.85 Y65.598 I-1.15 J0
X197.1 Y65.598 I2.125 J0
X190.9 Y65.598 I-3.1 J0
X197.1 Y65.598 I3.1 J0
G1 Z-8.271
X194.8
Z-11.75 F30
G3 X195.15 Y65.598 I0.175 J0 F150
X192.85 Y65.598 I-1.15 J0
X197.1 Y65.598 I2.125 J0
X190.9 Y65.598 I-3.1 J0
X197.1 Y65.598 I3.1 J0
G0 Z5
X225 Y44.521
G1 Z2.5 F30
Z-0.979
G3 X225.95 Y44.521 I0.475 J0 F150
X223.05 Y44.521 I-1.45 J0
X225.95 Y44.521 I1.45 J0
X225.695 Y44.713 I-0.2 J0
G1 X225.055 Y44.529
X225 Y44.521
Z-1.958 F30
G3 X225.95 Y44.521 I0.475 J0 F150
X223.05 Y44.521 I-1.45 J0
X225.95 Y44.521 I1.45 J0
X225.695 Y44.713 I-0.2 J0
G1 X225.055 Y44.529
X225 Y44.521
Z-2.938 F30
G3 X225.95 Y44.521 I0.475 J0 F150
X223.05 Y44.521 I-1.45 J0
X225.95 Y44.521 I1.45 J0
X225.695 Y44.713 I-0.2 J0
G1 X225.055 Y44.529
X225 Y44.521
Z-3.917 F30
G3 X225.95 Y44.521 I0.475 J0 F150
X223.05 Y44.521 I-1.45 J0
X225.95 Y44.521 I1.45 J0
X225.695 Y44.713 I-0.2 J0
G1 X225.055 Y44.529
X225 Y44.521
Z-4.896 F30
G3 X225.95 Y44.521 I0.475 J0 F150
X223.05 Y44.521 I-1.45 J0
X225.95 Y44.521 I1.45 J0
X225.695 Y44.713 I-0.2 J0
G1 X225.055 Y44.529
X225 Y44.521
Z-5.875 F30
G3 X225.95 Y44.521 I0.475 J0 F150
X223.05 Y44.521 I-1.45 J0
X225.95 Y44.521 I1.45 J0
X225.695 Y44.713 I-0.2 J0
G1 X225.055 Y44.529
X225 Y44.521
Z-6.854 F30
G3 X225.95 Y44.521 I0.475 J0 F150
X223.05 Y44.521 I-1.45 J0
X225.95 Y44.521 I1.45 J0
X225.695 Y44.713 I-0.2 J0
G1 X225.055 Y44.529
X225 Y44.521
Z-7.833 F30
G3 X225.95 Y44.521 I0.475 J0 F150
X223.05 Y44.521 I-1.45 J0
X225.95 Y44.521 I1.45 J0
X225.695 Y44.713 I-0.2 J0
G1 X225.055 Y44.529
X225 Y44.521
Z-8.813 F30
G3 X225.95 Y44.521 I0.475 J0 F150
X223.05 Y44.521 I-1.45 J0
X225.95 Y44.521 I1.45 J0
X225.695 Y44.713 I-0.2 J0
G1 X225.055 Y44.529
X225 Y44.521
Z-9.792 F30
G3 X225.95 Y44.521 I0.475 J0 F150
X223.05 Y44.521 I-1.45 J0
X225.95 Y44.521 I1.45 J0
X225.695 Y44.713 I-0.2 J0
G1 X225.055 Y44.529
X225 Y44.521
Z-10.771 F30
G3 X225.95 Y44.521 I0.475 J0 F150
X223.05 Y44.521 I-1.45 J0
X225.95 Y44.521 I1.45 J0
X225.695 Y44.713 I-0.2 J0
G1 X225.055 Y44.529
X225 Y44.521
Z-11.75 F30
G3 X225.95 Y44.521 I0.475 J0 F150
X223.05 Y44.521 I-1.45 J0
X225.95 Y44.521 I1.45 J0
G0 Z5
X225.3 Y20.021
G1 Z2.5 F30
Z-0.979
G3 X225.65 Y20.021 I0.175 J0 F150
X223.35 Y20.021 I-1.15 J0
X227.6 Y20.021 I2.125 J0
X221.4 Y20.021 I-3.1 J0
X227.6 Y20.021 I3.1 J0
G1 Z1.521
X225.3
Z-1.958 F30
G3 X225.65 Y20.021 I0.175 J0 F150
X223.35 Y20.021 I-1.15 J0
X227.6 Y20.021 I2.125 J0
X221.4 Y20.021 I-3.1 J0
X227.6 Y20.021 I3.1 J0
G1 Z0.542
X225.3
Z-2.938 F30
G3 X225.65 Y20.021 I0.175 J0 F150
X223.35 Y20.021 I-1.15 J0
X227.6 Y20.021 I2.125 J0
X221.4 Y20.021 I-3.1 J0
X227.6 Y20.021 I3.1 J0
G1 Z-0.438
X225.3
Z-3.917 F30
G3 X225.65 Y20.021 I0.175 J0 F150
X223.35 Y20.021 I-1.15 J0
X227.6 Y20.021 I2.125 J0
X221.4 Y20.021 I-3.1 J0
X227.6 Y20.021 I3.1 J0
G1 Z-1.417
X225.3
Z-4.896 F30
G3 X225.65 Y20.021 I0.175 J0 F150
X223.35 Y20.021 I-1.15 J0
X227.6 Y20.021 I2.125 J0
X221.4 Y20.021 I-3.1 J0
X227.6 Y20.021 I3.1 J0
G1 Z-2.396
X225.3
Z-5.875 F30
G3 X225.65 Y20.021 I0.175 J0 F150
X223.35 Y20.021 I-1.15 J0
X227.6 Y20.021 I2.125 J0
X221.4 Y20.021 I-3.1 J0
X227.6 Y20.021 I3.1 J0
G1 Z-3.375
X225.3
Z-6.854 F30
G3 X225.65 Y20.021 I0.175 J0 F150
X223.35 Y20.021 I-1.15 J0
X227.6 Y20.021 I2.125 J0
X221.4 Y20.021 I-3.1 J0
X227.6 Y20.021 I3.1 J0
G1 Z-4.354
X225.3
Z-7.833 F30
G3 X225.65 Y20.021 I0.175 J0 F150
X223.35 Y20.021 I-1.15 J0
X227.6 Y20.021 I2.125 J0
X221.4 Y20.021 I-3.1 J0
X227.6 Y20.021 I3.1 J0
G1 Z-5.333
X225.3
Z-8.813 F30
G3 X225.65 Y20.021 I0.175 J0 F150
X223.35 Y20.021 I-1.15 J0
X227.6 Y20.021 I2.125 J0
X221.4 Y20.021 I-3.1 J0
X227.6 Y20.021 I3.1 J0
G1 Z-6.313
X225.3
Z-9.792 F30
G3 X225.65 Y20.021 I0.175 J0 F150
X223.35 Y20.021 I-1.15 J0
X227.6 Y20.021 I2.125 J0
X221.4 Y20.021 I-3.1 J0
X227.6 Y20.021 I3.1 J0
G1 Z-7.292
X225.3
Z-10.771 F30
G3 X225.65 Y20.021 I0.175 J0 F150
X223.35 Y20.021 I-1.15 J0
X227.6 Y20.021 I2.125 J0
X221.4 Y20.021 I-3.1 J0
X227.6 Y20.021 I3.1 J0
G1 Z-8.271
X225.3
Z-11.75 F30
G3 X225.65 Y20.021 I0.175 J0 F150
X223.35 Y20.021 I-1.15 J0
X227.6 Y20.021 I2.125 J0
X221.4 Y20.021 I-3.1 J0
X227.6 Y20.021 I3.1 J0
G0 Z5
X240.75
G1 Z2.5 F30
Z-0.979
G3 X240.25 Y20.021 I-0.25 J0 F150
X240.75 Y20.021 I0.25 J0
G1 Z-1.958 F30
G3 X240.25 Y20.021 I-0.25 J0 F150
X240.75 Y20.021 I0.25 J0
G1 Z-2.938 F30
G3 X240.25 Y20.021 I-0.25 J0 F150
X240.75 Y20.021 I0.25 J0
G1 Z-3.917 F30
G3 X240.25 Y20.021 I-0.25 J0 F150
X240.75 Y20.021 I0.25 J0
G1 Z-4.896 F30
G3 X240.25 Y20.021 I-0.25 J0 F150
X240.75 Y20.021 I0.25 J0
G1 Z-5.875 F30
G3 X240.25 Y20.021 I-0.25 J0 F150
X240.75 Y20.021 I0.25 J0
G1 Z-6.854 F30
G3 X240.25 Y20.021 I-0.25 J0 F150
X240.75 Y20.021 I0.25 J0
G1 Z-7.833 F30
G3 X240.25 Y20.021 I-0.25 J0 F150
X240.75 Y20.021 I0.25 J0
G1 Z-8.813 F30
G3 X240.25 Y20.021 I-0.25 J0 F150
X240.75 Y20.021 I0.25 J0
G1 Z-9.792 F30
G3 X240.25 Y20.021 I-0.25 J0 F150
X240.75 Y20.021 I0.25 J0
G1 Z-10.771 F30
G3 X240.25 Y20.021 I-0.25 J0 F150
X240.75 Y20.021 I0.25 J0
G1 Z-11.75 F30
G3 X240.25 Y20.021 I-0.25 J0 F150
X240.75 Y20.021 I0.25 J0
G0 Z5
X204.15 Y106.021
G1 Z2.5 F30
Z-0.979
G3 X204.8 Y106.021 I0.325 J0 F150
X202.2 Y106.021 I-1.3 J0
X206.75 Y106.021 I2.275 J0
X200.25 Y106.021 I-3.25 J0
X206.75 Y106.021 I3.25 J0
G1 Z1.521
X204.15
Z-1.958 F30
G3 X204.8 Y106.021 I0.325 J0 F150
X202.2 Y106.021 I-1.3 J0
X206.75 Y106.021 I2.275 J0
X200.25 Y106.021 I-3.25 J0
X206.75 Y106.021 I3.25 J0
G1 Z0.542
X204.15
Z-2.938 F30
G3 X204.8 Y106.021 I0.325 J0 F150
X202.2 Y106.021 I-1.3 J0
X206.75 Y106.021 I2.275 J0
X200.25 Y106.021 I-3.25 J0
X206.75 Y106.021 I3.25 J0
G1 Z-0.438
X204.15
Z-3.917 F30
G3 X204.8 Y106.021 I0.325 J0 F150
X202.2 Y106.021 I-1.3 J0
X206.75 Y106.021 I2.275 J0
X200.25 Y106.021 I-3.25 J0
X206.75 Y106.021 I3.25 J0
G1 Z-1.417
X204.15
Z-4.896 F30
G3 X204.8 Y106.021 I0.325 J0 F150
X202.2 Y106.021 I-1.3 J0
X206.75 Y106.021 I2.275 J0
X200.25 Y106.021 I-3.25 J0
X206.75 Y106.021 I3.25 J0
G1 Z-2.396
X204.15
Z-5.875 F30
G3 X204.8 Y106.021 I0.325 J0 F150
X202.2 Y106.021 I-1.3 J0
X206.75 Y106.021 I2.275 J0
X200.25 Y106.021 I-3.25 J0
X206.75 Y106.021 I3.25 J0
G1 Z-3.375
X204.15
Z-6.854 F30
G3 X204.8 Y106.021 I0.325 J0 F150
X202.2 Y106.021 I-1.3 J0
X206.75 Y106.021 I2.275 J0
X200.25 Y106.021 I-3.25 J0
X206.75 Y106.021 I3.25 J0
G1 Z-4.354
X204.15
Z-7.833 F30
G3 X204.8 Y106.021 I0.325 J0 F150
X202.2 Y106.021 I-1.3 J0
X206.75 Y106.021 I2.275 J0
X200.25 Y106.021 I-3.25 J0
X206.75 Y106.021 I3.25 J0
G1 Z-5.333
X204.15
Z-8.813 F30
G3 X204.8 Y106.021 I0.325 J0 F150
X202.2 Y106.021 I-1.3 J0
X206.75 Y106.021 I2.275 J0
X200.25 Y106.021 I-3.25 J0
X206.75 Y106.021 I3.25 J0
G1 Z-6.313
X204.15
Z-9.792 F30
G3 X204.8 Y106.021 I0.325 J0 F150
X202.2 Y106.021 I-1.3 J0
X206.75 Y106.021 I2.275 J0
X200.25 Y106.021 I-3.25 J0
X206.75 Y106.021 I3.25 J0
G1 Z-7.292
X204.15
Z-10.771 F30
G3 X204.8 Y106.021 I0.325 J0 F150
X202.2 Y106.021 I-1.3 J0
X206.75 Y106.021 I2.275 J0
X200.25 Y106.021 I-3.25 J0
X206.75 Y106.021 I3.25 J0
G1 Z-8.271
X204.15
Z-11.75 F30
G3 X204.8 Y106.021 I0.325 J0 F150
X202.2 Y106.021 I-1.3 J0
X206.75 Y106.021 I2.275 J0
X200.25 Y106.021 I-3.25 J0
X206.75 Y106.021 I3.25 J0
G0 Z5
X194.8 Y227.598
G1 Z2.5 F30
Z-0.979
G3 X195.15 Y227.598 I0.175 J0 F150
X192.85 Y227.598 I-1.15 J0
X197.1 Y227.598 I2.125 J0
X190.9 Y227.598 I-3.1 J0
X197.1 Y227.598 I3.1 J0
G1 Z1.521
X194.8
Z-1.958 F30
G3 X195.15 Y227.598 I0.175 J0 F150
X192.85 Y227.598 I-1.15 J0
X197.1 Y227.598 I2.125 J0
X190.9 Y227.598 I-3.1 J0
X197.1 Y227.598 I3.1 J0
G1 Z0.542
X194.8
Z-2.938 F30
G3 X195.15 Y227.598 I0.175 J0 F150
X192.85 Y227.598 I-1.15 J0
X197.1 Y227.598 I2.125 J0
X190.9 Y227.598 I-3.1 J0
X197.1 Y227.598 I3.1 J0
G1 Z-0.438
X194.8
Z-3.917 F30
G3 X195.15 Y227.598 I0.175 J0 F150
X192.85 Y227.598 I-1.15 J0
X197.1 Y227.598 I2.125 J0
X190.9 Y227.598 I-3.1 J0
X197.1 Y227.598 I3.1 J0
G1 Z-1.417
X194.8
Z-4.896 F30
G3 X195.15 Y227.598 I0.175 J0 F150
X192.85 Y227.598 I-1.15 J0
X197.1 Y227.598 I2.125 J0
X190.9 Y227.598 I-3.1 J0
X197.1 Y227.598 I3.1 J0
G1 Z-2.396
X194.8
Z-5.875 F30
G3 X195.15 Y227.598 I0.175 J0 F150
X192.85 Y227.598 I-1.15 J0
X197.1 Y227.598 I2.125 J0
X190.9 Y227.598 I-3.1 J0
X197.1 Y227.598 I3.1 J0
G1 Z-3.375
X194.8
Z-6.854 F30
G3 X195.15 Y227.598 I0.175 J0 F150
X192.85 Y227.598 I-1.15 J0
X197.1 Y227.598 I2.125 J0
X190.9 Y227.598 I-3.1 J0
X197.1 Y227.598 I3.1 J0
G1 Z-4.354
X194.8
Z-7.833 F30
G3 X195.15 Y227.598 I0.175 J0 F150
X192.85 Y227.598 I-1.15 J0
X197.1 Y227.598 I2.125 J0
X190.9 Y227.598 I-3.1 J0
X197.1 Y227.598 I3.1 J0
G1 Z-5.333
X194.8
Z-8.813 F30
G3 X195.15 Y227.598 I0.175 J0 F150
X192.85 Y227.598 I-1.15 J0
X197.1 Y227.598 I2.125 J0
X190.9 Y227.598 I-3.1 J0
X197.1 Y227.598 I3.1 J0
G1 Z-6.313
X194.8
Z-9.792 F30
G3 X195.15 Y227.598 I0.175 J0 F150
X192.85 Y227.598 I-1.15 J0
X197.1 Y227.598 I2.125 J0
X190.9 Y227.598 I-3.1 J0
X197.1 Y227.598 I3.1 J0
G1 Z-7.292
X194.8
Z-10.771 F30
G3 X195.15 Y227.598 I0.175 J0 F150
X192.85 Y227.598 I-1.15 J0
X197.1 Y227.598 I2.125 J0
X190.9 Y227.598 I-3.1 J0
X197.1 Y227.598 I3.1 J0
G1 Z-8.271
X194.8
Z-11.75 F30
G3 X195.15 Y227.598 I0.175 J0 F150
X192.85 Y227.598 I-1.15 J0
X197.1 Y227.598 I2.125 J0
X190.9 Y227.598 I-3.1 J0
X197.1 Y227.598 I3.1 J0
G0 Z5
X174.2
G1 Z2.5 F30
Z-0.979
G3 X175.75 Y227.598 I0.775 J0 F150
X172.25 Y227.598 I-1.75 J0
X175.75 Y227.598 I1.75 J0
X175.52 Y227.796 I-0.2 J0
G1 X174.2 Y227.598
Z-1.958 F30
G3 X175.75 Y227.598 I0.775 J0 F150
X172.25 Y227.598 I-1.75 J0
X175.75 Y227.598 I1.75 J0
X175.52 Y227.796 I-0.2 J0
G1 X174.2 Y227.598
Z-2.938 F30
G3 X175.75 Y227.598 I0.775 J0 F150
X172.25 Y227.598 I-1.75 J0
X175.75 Y227.598 I1.75 J0
X175.52 Y227.796 I-0.2 J0
G1 X174.2 Y227.598
Z-3.917 F30
G3 X175.75 Y227.598 I0.775 J0 F150
X172.25 Y227.598 I-1.75 J0
X175.75 Y227.598 I1.75 J0
X175.52 Y227.796 I-0.2 J0
G1 X174.2 Y227.598
Z-4.896 F30
G3 X175.75 Y227.598 I0.775 J0 F150
X172.25 Y227.598 I-1.75 J0
X175.75 Y227.598 I1.75 J0
X175.52 Y227.796 I-0.2 J0
G1 X174.2 Y227.598
Z-5.875 F30
G3 X175.75 Y227.598 I0.775 J0 F150
X172.25 Y227.598 I-1.75 J0
X175.75 Y227.598 I1.75 J0
X175.52 Y227.796 I-0.2 J0
G1 X174.2 Y227.598
Z-6.854 F30
G3 X175.75 Y227.598 I0.775 J0 F150
X172.25 Y227.598 I-1.75 J0
X175.75 Y227.598 I1.75 J0
X175.52 Y227.796 I-0.2 J0
G1 X174.2 Y227.598
Z-7.833 F30
G3 X175.75 Y227.598 I0.775 J0 F150
X172.25 Y227.598 I-1.75 J0
X175.75 Y227.598 I1.75 J0
X175.52 Y227.796 I-0.2 J0
G1 X174.2 Y227.598
Z-8.813 F30
G3 X175.75 Y227.598 I0.775 J0 F150
X172.25 Y227.598 I-1.75 J0
X175.75 Y227.598 I1.75 J0
X175.52 Y227.796 I-0.2 J0
G1 X174.2 Y227.598
Z-9.792 F30
G3 X175.75 Y227.598 I0.775 J0 F150
X172.25 Y227.598 I-1.75 J0
X175.75 Y227.598 I1.75 J0
X175.52 Y227.796 I-0.2 J0
G1 X174.2 Y227.598
Z-10.771 F30
G3 X175.75 Y227.598 I0.775 J0 F150
X172.25 Y227.598 I-1.75 J0
X175.75 Y227.598 I1.75 J0
X175.52 Y227.796 I-0.2 J0
G1 X174.2 Y227.598
Z-11.75 F30
G3 X175.75 Y227.598 I0.775 J0 F150
X172.25 Y227.598 I-1.75 J0
X175.75 Y227.598 I1.75 J0
G0 Z5
X121.8
G1 Z2.5 F30
Z-0.979
G3 X122.15 Y227.598 I0.175 J0 F150
X119.85 Y227.598 I-1.15 J0
X124.1 Y227.598 I2.125 J0
X117.9 Y227.598 I-3.1 J0
X124.1 Y227.598 I3.1 J0
G1 Z1.521
X121.8
Z-1.958 F30
G3 X122.15 Y227.598 I0.175 J0 F150
X119.85 Y227.598 I-1.15 J0
X124.1 Y227.598 I2.125 J0
X117.9 Y227.598 I-3.1 J0
X124.1 Y227.598 I3.1 J0
G1 Z0.542
X121.8
Z-2.938 F30
G3 X122.15 Y227.598 I0.175 J0 F150
X119.85 Y227.598 I-1.15 J0
X124.1 Y227.598 I2.125 J0
X117.9 Y227.598 I-3.1 J0
X124.1 Y227.598 I3.1 J0
G1 Z-0.438
X121.8
Z-3.917 F30
G3 X122.15 Y227.598 I0.175 J0 F150
X119.85 Y227.598 I-1.15 J0
X124.1 Y227.598 I2.125 J0
X117.9 Y227.598 I-3.1 J0
X124.1 Y227.598 I3.1 J0
G1 Z-1.417
X121.8
Z-4.896 F30
G3 X122.15 Y227.598 I0.175 J0 F150
X119.85 Y227.598 I-1.15 J0
X124.1 Y227.598 I2.125 J0
X117.9 Y227.598 I-3.1 J0
X124.1 Y227.598 I3.1 J0
G1 Z-2.396
X121.8
Z-5.875 F30
G3 X122.15 Y227.598 I0.175 J0 F150
X119.85 Y227.598 I-1.15 J0
X124.1 Y227.598 I2.125 J0
X117.9 Y227.598 I-3.1 J0
X124.1 Y227.598 I3.1 J0
G1 Z-3.375
X121.8
Z-6.854 F30
G3 X122.15 Y227.598 I0.175 J0 F150
X119.85 Y227.598 I-1.15 J0
X124.1 Y227.598 I2.125 J0
X117.9 Y227.598 I-3.1 J0
X124.1 Y227.598 I3.1 J0
G1 Z-4.354
X121.8
Z-7.833 F30
G3 X122.15 Y227.598 I0.175 J0 F150
X119.85 Y227.598 I-1.15 J0
X124.1 Y227.598 I2.125 J0
X117.9 Y227.598 I-3.1 J0
X124.1 Y227.598 I3.1 J0
G1 Z-5.333
X121.8
Z-8.813 F30
G3 X122.15 Y227.598 I0.175 J0 F150
X119.85 Y227.598 I-1.15 J0
X124.1 Y227.598 I2.125 J0
X117.9 Y227.598 I-3.1 J0
X124.1 Y227.598 I3.1 J0
G1 Z-6.313
X121.8
Z-9.792 F30
G3 X122.15 Y227.598 I0.175 J0 F150
X119.85 Y227.598 I-1.15 J0
X124.1 Y227.598 I2.125 J0
X117.9 Y227.598 I-3.1 J0
X124.1 Y227.598 I3.1 J0
G1 Z-7.292
X121.8
Z-10.771 F30
G3 X122.15 Y227.598 I0.175 J0 F150
X119.85 Y227.598 I-1.15 J0
X124.1 Y227.598 I2.125 J0
X117.9 Y227.598 I-3.1 J0
X124.1 Y227.598 I3.1 J0
G1 Z-8.271
X121.8
Z-11.75 F30
G3 X122.15 Y227.598 I0.175 J0 F150
X119.85 Y227.598 I-1.15 J0
X124.1 Y227.598 I2.125 J0
X117.9 Y227.598 I-3.1 J0
X124.1 Y227.598 I3.1 J0
G0 Z15
M9
M5
M30
