(y_back_cuts)
(Machine)
(  vendor: Autodesk)
(  model: Generic 3-axis)
(  description: This machine has XY axis on the Table and Z axis on the Head)
(T1  D=2 CR=0 - ZMIN=-11.75 - flat end mill)
G90 G94
G17
G21

(y_back_cuts)
T1
S12000 M3
G54
M8
G0 X84.783 Y151.274
Z15
Z5
G1 Z2.5 F30
G3 X94.45 Y167.38 Z-0.979 I-8.583 J16.106 F150
X57.95 Y167.38 I-18.25 J0
X94.45 Y167.38 I18.25 J0
X92.104 Y176.332 Z-1.958 I-18.25 J0
X60.296 Y158.428 I-15.904 J-8.952
X92.104 Y176.332 I15.904 J8.952
X85.668 Y182.982 Z-2.938 I-15.904 J-8.952
X66.732 Y151.778 I-9.468 J-15.602
X85.668 Y182.982 I9.468 J15.602
X76.797 Y185.62 Z-3.917 I-9.468 J-15.602
X75.603 Y149.14 I-0.597 J-18.24
X76.797 Y185.62 I0.597 J18.24
X76.2 Y185.63 Z-3.979 I-0.597 J-18.24
X67.773 Y183.568 Z-4.896 I0 J-18.25
X84.627 Y151.192 I8.427 J-16.188
X67.773 Y183.568 I-8.427 J16.188
X60.916 Y177.353 Z-5.875 I8.427 J-16.188
X91.484 Y157.407 I15.284 J-9.973
X60.916 Y177.353 I-15.284 J9.973
X57.989 Y168.574 Z-6.854 I15.284 J-9.973
X94.411 Y166.186 I18.211 J-1.194
X57.989 Y168.574 I-18.211 J1.194
X59.745 Y159.487 Z-7.833 I18.211 J-1.194
X92.655 Y175.273 I16.455 J7.893
X59.745 Y159.487 I-16.455 J-7.893
X65.732 Y152.43 Z-8.813 I16.455 J7.893
X86.668 Y182.33 I10.468 J14.95
X65.732 Y152.43 I-10.468 J-14.95
X74.411 Y149.218 Z-9.792 I10.468 J14.95
X77.989 Y185.542 I1.789 J18.162
X74.411 Y149.218 I-1.789 J-18.162
X83.55 Y150.676 Z-10.771 I1.789 J18.162
X94.291 Y164.978 I-7.35 J16.704
G1 Z-10.25
G3 X94.264 Y169.978 I-18.091 J2.402
G1 Z-10.771 F30
G3 X78.88 Y185.432 I-18.064 J-2.598 F150
G1 Z-10.25
G3 X73.881 Y185.482 I-2.68 J-18.052
G1 Z-10.771 F30
G3 X58.122 Y169.88 I2.319 J-18.102 F150
G1 Z-10.25
G3 X58.122 Y164.88 I18.078 J-2.5
G1 Z-10.771 F30
G3 X73.98 Y149.266 I18.078 J2.5 F150
G1 Z-10.25
G3 X78.979 Y149.343 I2.22 J18.114
G1 Z-10.771 F30
G3 X83.55 Y150.676 I-2.779 J18.037 F150
X90.799 Y156.429 Z-11.75 I-7.35 J16.704
X94.291 Y164.978 I-14.599 J10.951
G1 Z-10.25
G3 X94.264 Y169.978 I-18.091 J2.402
G1 Z-11.75 F30
G3 X78.88 Y185.432 I-18.064 J-2.598 F150
G1 Z-10.25
G3 X73.881 Y185.482 I-2.68 J-18.052
G1 Z-11.75 F30
G3 X58.122 Y169.88 I2.319 J-18.102 F150
G1 Z-10.25
G3 X58.122 Y164.88 I18.078 J-2.5
G1 Z-11.75 F30
G3 X73.98 Y149.266 I18.078 J2.5 F150
G1 Z-10.25
G3 X78.979 Y149.343 I2.22 J18.114
G1 Z-11.75 F30
G3 X90.799 Y156.429 I-2.779 J18.037 F150
X90.759 Y156.709 I-0.16 J0.12
G1 X90.599 Y156.829
X90.558 Y156.86 Z-11.743
X90.519 Y156.889 Z-11.723
X90.486 Y156.914 Z-11.691
X90.461 Y156.933 Z-11.65
X90.445 Y156.945 Z-11.602
X90.439 Y156.949 Z-11.55
G0 Z5
X139.7 Y211.269
G1 Z2.5 F30
Y219.5 Z1.049 F150
X128.2 Z-0.979
X114.7
Y196.5
X139.7
Y219.5
X128.2
X120.367 Z-1.958
X114.7
Y196.5
X139.7
Y219.5
X128.2
X120.367
X114.7 Z-2.667
Y217.333 Z-2.938
Y196.5
X139.7
Y219.5
X120.367
X114.7
Y217.333
Y209.5 Z-3.917
Y196.5
X139.7
Y219.5
X114.7
Y209.5
Y201.667 Z-4.896
Y196.5
X139.7
Y219.5
X114.7
Y209.5
Y201.667
Y196.5 Z-5.542
X117.367 Z-5.875
X139.7
Y219.5
X114.7
Y201.667
Y196.5
X117.367
X125.2 Z-6.854
X139.7
Y219.5
X114.7
Y196.5
X125.2
X133.033 Z-7.833
X139.7
Y219.5
X114.7
Y196.5
X125.2
X133.033
X139.7 Z-8.667
Y197.667 Z-8.813
Y219.5
X114.7
Y196.5
X133.033
X139.7
Y197.667
Y205.5 Z-9.792
Y219.5
X114.7
Y196.5
X139.7
Y205.5
Y209.167 Z-10.25
Y210.573
Z-10.426 F30
Y213.333 Z-10.771 F150
Y219.5
X129.644
Z-10.25
X124.644
Z-10.771 F30
X114.7 F150
Y210.88
Z-10.25
Y205.88
Z-10.771 F30
Y196.5 F150
X123.439
Z-10.25
X128.439
Z-10.771 F30
X139.7 F150
Y205.573
Z-10.25
Y210.573
Z-10.771 F30
Y213.333 F150
Y219.5 Z-11.542
X138.033 Z-11.75
X129.644
Z-10.25
X124.644
Z-11.75 F30
X114.7 F150
Y210.88
Z-10.25
Y205.88
Z-11.75 F30
Y196.5 F150
X123.439
Z-10.25
X128.439
Z-11.75 F30
X139.7 F150
Y205.573
Z-10.25
Y210.573
Z-11.75 F30
Y219.5 F150
X138.033
G3 X137.833 Y219.3 I0 J-0.2
G1 Y219.1
G19 G2 Y218.9 Z-11.55 J0 K0.2
G0 Z5
X37.7 Y211.269
G1 Z2.5 F30
Y219.5 Z1.049 F150
X26.2 Z-0.979
X12.7
Y196.5
X37.7
Y219.5
X26.2
X18.367 Z-1.958
X12.7
Y196.5
X37.7
Y219.5
X26.2
X18.367
X12.7 Z-2.667
Y217.333 Z-2.938
Y196.5
X37.7
Y219.5
X18.367
X12.7
Y217.333
Y209.5 Z-3.917
Y196.5
X37.7
Y219.5
X12.7
Y209.5
Y201.667 Z-4.896
Y196.5
X37.7
Y219.5
X12.7
Y209.5
Y201.667
Y196.5 Z-5.542
X15.367 Z-5.875
X37.7
Y219.5
X12.7
Y201.667
Y196.5
X15.367
X23.2 Z-6.854
X37.7
Y219.5
X12.7
Y196.5
X23.2
X31.033 Z-7.833
X37.7
Y219.5
X12.7
Y196.5
X23.2
X31.033
X37.7 Z-8.667
Y197.667 Z-8.813
Y219.5
X12.7
Y196.5
X31.033
X37.7
Y197.667
Y205.5 Z-9.792
Y219.5
X12.7
Y196.5
X37.7
Y205.5
Y209.167 Z-10.25
Y209.993
Z-10.353 F30
Y213.333 Z-10.771 F150
Y219.5
X27.754
Z-10.25
X22.754
Z-10.771 F30
X12.7 F150
Y208.796
Z-10.25
Y203.796
Z-10.771 F30
Y196.5 F150
X22.453
Z-10.25
X27.453
Z-10.771 F30
X37.7 F150
Y204.993
Z-10.25
Y209.993
Z-10.771 F30
Y213.333 F150
Y219.5 Z-11.542
X36.033 Z-11.75
X27.754
Z-10.25
X22.754
Z-11.75 F30
X12.7 F150
Y208.796
Z-10.25
Y203.796
Z-11.75 F30
Y196.5 F150
X22.453
Z-10.25
X27.453
Z-11.75 F30
X37.7 F150
Y204.993
Z-10.25
Y209.993
Z-11.75 F30
Y219.5 F150
X36.033
G17 G3 X35.833 Y219.3 I0 J-0.2
G1 Y219.1
G19 G2 Y218.9 Z-11.55 J0 K0.2
G0 Z5
X20.931 Y57.5
G1 Z2.5 F30
X12.7 Z1.049 F150
Y46 Z-0.979
Y34.5
X37.7
Y57.5
X12.7
Y46
Y38.167 Z-1.958
Y34.5
X37.7
Y57.5
X12.7
Y46
Y38.167
Y34.5 Z-2.417
X16.867 Z-2.938
X37.7
Y57.5
X12.7
Y38.167
Y34.5
X16.867
X24.7 Z-3.917
X37.7
Y57.5
X12.7
Y34.5
X24.7
X32.533 Z-4.896
X37.7
Y57.5
X12.7
Y34.5
X24.7
X32.533
X37.7 Z-5.542
Y37.167 Z-5.875
Y57.5
X12.7
Y34.5
X32.533
X37.7
Y37.167
Y45 Z-6.854
Y57.5
X12.7
Y34.5
X37.7
Y45
Y52.833 Z-7.833
Y57.5
X12.7
Y34.5
X37.7
Y45
Y52.833
Y57.5 Z-8.417
X34.533 Z-8.813
X12.7
Y34.5
X37.7
Y52.833
Y57.5
X34.533
X26.7 Z-9.792
X12.7
Y34.5
X37.7
Y57.5
X26.7
X23.033 Z-10.25
X22.151
Z-10.36 F30
X18.867 Z-10.771 F150
X12.7
Y48.2
Z-10.25
Y43.2
Z-10.771 F30
Y34.5 F150
X23.659
Z-10.25
X28.659
Z-10.771 F30
X37.7 F150
Y43.796
Z-10.25
Y48.796
Z-10.771 F30
Y57.5 F150
X27.151
Z-10.25
X22.151
Z-10.771 F30
X18.867 F150
X12.7 Z-11.542
Y55.833 Z-11.75
Y48.2
Z-10.25
Y43.2
Z-11.75 F30
Y34.5 F150
X23.659
Z-10.25
X28.659
Z-11.75 F30
X37.7 F150
Y43.796
Z-10.25
Y48.796
Z-11.75 F30
Y57.5 F150
X27.151
Z-10.25
X22.151
Z-11.75 F30
X12.7 F150
Y55.833
G17 G3 X12.9 Y55.633 I0.2 J0
G1 X13.1
G18 G2 X13.3 Z-11.55 I0 K0.2
G0 Z5
X131.469 Y34.5
G1 Z2.5 F30
X139.7 Z1.049 F150
Y46 Z-0.979
Y57.5
X114.7
Y34.5
X139.7
Y46
Y53.833 Z-1.958
Y57.5
X114.7
Y34.5
X139.7
Y46
Y53.833
Y57.5 Z-2.417
X135.533 Z-2.938
X114.7
Y34.5
X139.7
Y53.833
Y57.5
X135.533
X127.7 Z-3.917
X114.7
Y34.5
X139.7
Y57.5
X127.7
X119.867 Z-4.896
X114.7
Y34.5
X139.7
Y57.5
X127.7
X119.867
X114.7 Z-5.542
Y54.833 Z-5.875
Y34.5
X139.7
Y57.5
X119.867
X114.7
Y54.833
Y47 Z-6.854
Y34.5
X139.7
Y57.5
X114.7
Y47
Y39.167 Z-7.833
Y34.5
X139.7
Y57.5
X114.7
Y47
Y39.167
Y34.5 Z-8.417
X117.867 Z-8.813
X139.7
Y57.5
X114.7
Y39.167
Y34.5
X117.867
X125.7 Z-9.792
X139.7
Y57.5
X114.7
Y34.5
X125.7
X133.533 Z-10.771
X139.7
Y43.775
Z-10.25
Y48.775
Z-10.771 F30
Y57.5 F150
X129.644
Z-10.25
X124.644
Z-10.771 F30
X114.7 F150
Y48.781
Z-10.25
Y43.781
Z-10.771 F30
Y34.5 F150
X124.343
Z-10.25
X129.343
Z-10.771 F30
X133.533 F150
X139.7 Z-11.542
Y36.167 Z-11.75
Y43.775
Z-10.25
Y48.775
Z-11.75 F30
Y57.5 F150
X129.644
Z-10.25
X124.644
Z-11.75 F30
X114.7 F150
Y48.781
Z-10.25
Y43.781
Z-11.75 F30
Y34.5 F150
X124.343
Z-10.25
X129.343
Z-11.75 F30
X139.7 F150
Y36.167
G17 G3 X139.5 Y36.367 I-0.2 J0
G1 X139.3
G18 G3 X139.1 Z-11.55 I0 K0.2
G0 Z15
G17
M9
M5
M30
