(y_back_holes)
(Machine)
(  vendor: Autodesk)
(  model: Generic 3-axis)
(  description: This machine has XY axis on the Table and Z axis on the Head)
(T1  D=2 CR=0 - ZMIN=-11.75 - flat end mill)
G90 G94
G17
G21

(y_back_holes)
T1
S12000 M3
G54
M8
G0 X53.18 Y143.81
Z15
Z5
G1 Z2.5 F30
Z-0.979
G3 X52.08 Y143.81 I-0.55 J0 F150
X54.38 Y143.81 I1.15 J0
X50.88 Y143.81 I-1.75 J0
X54.38 Y143.81 I1.75 J0
X54.139 Y144.006 I-0.2 J0
G1 X53.18 Y143.81
Z-1.958 F30
G3 X52.08 Y143.81 I-0.55 J0 F150
X54.38 Y143.81 I1.15 J0
X50.88 Y143.81 I-1.75 J0
X54.38 Y143.81 I1.75 J0
X54.139 Y144.006 I-0.2 J0
G1 X53.18 Y143.81
Z-2.938 F30
G3 X52.08 Y143.81 I-0.55 J0 F150
X54.38 Y143.81 I1.15 J0
X50.88 Y143.81 I-1.75 J0
X54.38 Y143.81 I1.75 J0
X54.139 Y144.006 I-0.2 J0
G1 X53.18 Y143.81
Z-3.917 F30
G3 X52.08 Y143.81 I-0.55 J0 F150
X54.38 Y143.81 I1.15 J0
X50.88 Y143.81 I-1.75 J0
X54.38 Y143.81 I1.75 J0
X54.139 Y144.006 I-0.2 J0
G1 X53.18 Y143.81
Z-4.896 F30
G3 X52.08 Y143.81 I-0.55 J0 F150
X54.38 Y143.81 I1.15 J0
X50.88 Y143.81 I-1.75 J0
X54.38 Y143.81 I1.75 J0
X54.139 Y144.006 I-0.2 J0
G1 X53.18 Y143.81
Z-5.875 F30
G3 X52.08 Y143.81 I-0.55 J0 F150
X54.38 Y143.81 I1.15 J0
X50.88 Y143.81 I-1.75 J0
X54.38 Y143.81 I1.75 J0
X54.139 Y144.006 I-0.2 J0
G1 X53.18 Y143.81
Z-6.854 F30
G3 X52.08 Y143.81 I-0.55 J0 F150
X54.38 Y143.81 I1.15 J0
X50.88 Y143.81 I-1.75 J0
X54.38 Y143.81 I1.75 J0
X54.139 Y144.006 I-0.2 J0
G1 X53.18 Y143.81
Z-7.833 F30
G3 X52.08 Y143.81 I-0.55 J0 F150
X54.38 Y143.81 I1.15 J0
X50.88 Y143.81 I-1.75 J0
X54.38 Y143.81 I1.75 J0
X54.139 Y144.006 I-0.2 J0
G1 X53.18 Y143.81
Z-8.813 F30
G3 X52.08 Y143.81 I-0.55 J0 F150
X54.38 Y143.81 I1.15 J0
X50.88 Y143.81 I-1.75 J0
X54.38 Y143.81 I1.75 J0
X54.139 Y144.006 I-0.2 J0
G1 X53.18 Y143.81
Z-9.792 F30
G3 X52.08 Y143.81 I-0.55 J0 F150
X54.38 Y143.81 I1.15 J0
X50.88 Y143.81 I-1.75 J0
X54.38 Y143.81 I1.75 J0
X54.139 Y144.006 I-0.2 J0
G1 X53.18 Y143.81
Z-10.771 F30
G3 X52.08 Y143.81 I-0.55 J0 F150
X54.38 Y143.81 I1.15 J0
X50.88 Y143.81 I-1.75 J0
X54.38 Y143.81 I1.75 J0
X54.139 Y144.006 I-0.2 J0
G1 X53.18 Y143.81
Z-11.75 F30
G3 X52.08 Y143.81 I-0.55 J0 F150
X54.38 Y143.81 I1.15 J0
X50.88 Y143.81 I-1.75 J0
X54.38 Y143.81 I1.75 J0
G0 Z5
X100.32
G1 Z2.5 F30
Z-0.979
G3 X99.22 Y143.81 I-0.55 J0 F150
X101.52 Y143.81 I1.15 J0
X98.02 Y143.81 I-1.75 J0
X101.52 Y143.81 I1.75 J0
X101.279 Y144.006 I-0.2 J0
G1 X100.32 Y143.81
Z-1.958 F30
G3 X99.22 Y143.81 I-0.55 J0 F150
X101.52 Y143.81 I1.15 J0
X98.02 Y143.81 I-1.75 J0
X101.52 Y143.81 I1.75 J0
X101.279 Y144.006 I-0.2 J0
G1 X100.32 Y143.81
Z-2.938 F30
G3 X99.22 Y143.81 I-0.55 J0 F150
X101.52 Y143.81 I1.15 J0
X98.02 Y143.81 I-1.75 J0
X101.52 Y143.81 I1.75 J0
X101.279 Y144.006 I-0.2 J0
G1 X100.32 Y143.81
Z-3.917 F30
G3 X99.22 Y143.81 I-0.55 J0 F150
X101.52 Y143.81 I1.15 J0
X98.02 Y143.81 I-1.75 J0
X101.52 Y143.81 I1.75 J0
X101.279 Y144.006 I-0.2 J0
G1 X100.32 Y143.81
Z-4.896 F30
G3 X99.22 Y143.81 I-0.55 J0 F150
X101.52 Y143.81 I1.15 J0
X98.02 Y143.81 I-1.75 J0
X101.52 Y143.81 I1.75 J0
X101.279 Y144.006 I-0.2 J0
G1 X100.32 Y143.81
Z-5.875 F30
G3 X99.22 Y143.81 I-0.55 J0 F150
X101.52 Y143.81 I1.15 J0
X98.02 Y143.81 I-1.75 J0
X101.52 Y143.81 I1.75 J0
X101.279 Y144.006 I-0.2 J0
G1 X100.32 Y143.81
Z-6.854 F30
G3 X99.22 Y143.81 I-0.55 J0 F150
X101.52 Y143.81 I1.15 J0
X98.02 Y143.81 I-1.75 J0
X101.52 Y143.81 I1.75 J0
X101.279 Y144.006 I-0.2 J0
G1 X100.32 Y143.81
Z-7.833 F30
G3 X99.22 Y143.81 I-0.55 J0 F150
X101.52 Y143.81 I1.15 J0
X98.02 Y143.81 I-1.75 J0
X101.52 Y143.81 I1.75 J0
X101.279 Y144.006 I-0.2 J0
G1 X100.32 Y143.81
Z-8.813 F30
G3 X99.22 Y143.81 I-0.55 J0 F150
X101.52 Y143.81 I1.15 J0
X98.02 Y143.81 I-1.75 J0
X101.52 Y143.81 I1.75 J0
X101.279 Y144.006 I-0.2 J0
G1 X100.32 Y143.81
Z-9.792 F30
G3 X99.22 Y143.81 I-0.55 J0 F150
X101.52 Y143.81 I1.15 J0
X98.02 Y143.81 I-1.75 J0
X101.52 Y143.81 I1.75 J0
X101.279 Y144.006 I-0.2 J0
G1 X100.32 Y143.81
Z-10.771 F30
G3 X99.22 Y143.81 I-0.55 J0 F150
X101.52 Y143.81 I1.15 J0
X98.02 Y143.81 I-1.75 J0
X101.52 Y143.81 I1.75 J0
X101.279 Y144.006 I-0.2 J0
G1 X100.32 Y143.81
Z-11.75 F30
G3 X99.22 Y143.81 I-0.55 J0 F150
X101.52 Y143.81 I1.15 J0
X98.02 Y143.81 I-1.75 J0
X101.52 Y143.81 I1.75 J0
G0 Z5
X100.32 Y190.95
G1 Z2.5 F30
Z-0.979
G3 X99.22 Y190.95 I-0.55 J0 F150
X101.52 Y190.95 I1.15 J0
X98.02 Y190.95 I-1.75 J0
X101.52 Y190.95 I1.75 J0
X101.279 Y191.146 I-0.2 J0
G1 X100.32 Y190.95
Z-1.958 F30
G3 X99.22 Y190.95 I-0.55 J0 F150
X101.52 Y190.95 I1.15 J0
X98.02 Y190.95 I-1.75 J0
X101.52 Y190.95 I1.75 J0
X101.279 Y191.146 I-0.2 J0
G1 X100.32 Y190.95
Z-2.938 F30
G3 X99.22 Y190.95 I-0.55 J0 F150
X101.52 Y190.95 I1.15 J0
X98.02 Y190.95 I-1.75 J0
X101.52 Y190.95 I1.75 J0
X101.279 Y191.146 I-0.2 J0
G1 X100.32 Y190.95
Z-3.917 F30
G3 X99.22 Y190.95 I-0.55 J0 F150
X101.52 Y190.95 I1.15 J0
X98.02 Y190.95 I-1.75 J0
X101.52 Y190.95 I1.75 J0
X101.279 Y191.146 I-0.2 J0
G1 X100.32 Y190.95
Z-4.896 F30
G3 X99.22 Y190.95 I-0.55 J0 F150
X101.52 Y190.95 I1.15 J0
X98.02 Y190.95 I-1.75 J0
X101.52 Y190.95 I1.75 J0
X101.279 Y191.146 I-0.2 J0
G1 X100.32 Y190.95
Z-5.875 F30
G3 X99.22 Y190.95 I-0.55 J0 F150
X101.52 Y190.95 I1.15 J0
X98.02 Y190.95 I-1.75 J0
X101.52 Y190.95 I1.75 J0
X101.279 Y191.146 I-0.2 J0
G1 X100.32 Y190.95
Z-6.854 F30
G3 X99.22 Y190.95 I-0.55 J0 F150
X101.52 Y190.95 I1.15 J0
X98.02 Y190.95 I-1.75 J0
X101.52 Y190.95 I1.75 J0
X101.279 Y191.146 I-0.2 J0
G1 X100.32 Y190.95
Z-7.833 F30
G3 X99.22 Y190.95 I-0.55 J0 F150
X101.52 Y190.95 I1.15 J0
X98.02 Y190.95 I-1.75 J0
X101.52 Y190.95 I1.75 J0
X101.279 Y191.146 I-0.2 J0
G1 X100.32 Y190.95
Z-8.813 F30
G3 X99.22 Y190.95 I-0.55 J0 F150
X101.52 Y190.95 I1.15 J0
X98.02 Y190.95 I-1.75 J0
X101.52 Y190.95 I1.75 J0
X101.279 Y191.146 I-0.2 J0
G1 X100.32 Y190.95
Z-9.792 F30
G3 X99.22 Y190.95 I-0.55 J0 F150
X101.52 Y190.95 I1.15 J0
X98.02 Y190.95 I-1.75 J0
X101.52 Y190.95 I1.75 J0
X101.279 Y191.146 I-0.2 J0
G1 X100.32 Y190.95
Z-10.771 F30
G3 X99.22 Y190.95 I-0.55 J0 F150
X101.52 Y190.95 I1.15 J0
X98.02 Y190.95 I-1.75 J0
X101.52 Y190.95 I1.75 J0
X101.279 Y191.146 I-0.2 J0
G1 X100.32 Y190.95
Z-11.75 F30
G3 X99.22 Y190.95 I-0.55 J0 F150
X101.52 Y190.95 I1.15 J0
X98.02 Y190.95 I-1.75 J0
X101.52 Y190.95 I1.75 J0
G0 Z5
X127.8 Y186.85
G1 Z2.5 F30
Z-0.979
G3 X126.6 Y186.85 I-0.6 J0 F150
X129 Y186.85 I1.2 J0
X125.4 Y186.85 I-1.8 J0
X130.2 Y186.85 I2.4 J0
X124.2 Y186.85 I-3 J0
X130.2 Y186.85 I3 J0
G1 Z1.521
X127.8
Z-1.958 F30
G3 X126.6 Y186.85 I-0.6 J0 F150
X129 Y186.85 I1.2 J0
X125.4 Y186.85 I-1.8 J0
X130.2 Y186.85 I2.4 J0
X124.2 Y186.85 I-3 J0
X130.2 Y186.85 I3 J0
G1 Z0.542
X127.8
Z-2.938 F30
G3 X126.6 Y186.85 I-0.6 J0 F150
X129 Y186.85 I1.2 J0
X125.4 Y186.85 I-1.8 J0
X130.2 Y186.85 I2.4 J0
X124.2 Y186.85 I-3 J0
X130.2 Y186.85 I3 J0
G1 Z-0.438
X127.8
Z-3.917 F30
G3 X126.6 Y186.85 I-0.6 J0 F150
X129 Y186.85 I1.2 J0
X125.4 Y186.85 I-1.8 J0
X130.2 Y186.85 I2.4 J0
X124.2 Y186.85 I-3 J0
X130.2 Y186.85 I3 J0
G1 Z-1.417
X127.8
Z-4.896 F30
G3 X126.6 Y186.85 I-0.6 J0 F150
X129 Y186.85 I1.2 J0
X125.4 Y186.85 I-1.8 J0
X130.2 Y186.85 I2.4 J0
X124.2 Y186.85 I-3 J0
X130.2 Y186.85 I3 J0
G1 Z-2.396
X127.8
Z-5.875 F30
G3 X126.6 Y186.85 I-0.6 J0 F150
X129 Y186.85 I1.2 J0
X125.4 Y186.85 I-1.8 J0
X130.2 Y186.85 I2.4 J0
X124.2 Y186.85 I-3 J0
X130.2 Y186.85 I3 J0
G1 Z-3.375
X127.8
Z-6.854 F30
G3 X126.6 Y186.85 I-0.6 J0 F150
X129 Y186.85 I1.2 J0
X125.4 Y186.85 I-1.8 J0
X130.2 Y186.85 I2.4 J0
X124.2 Y186.85 I-3 J0
X130.2 Y186.85 I3 J0
G1 Z-4.354
X127.8
Z-7.833 F30
G3 X126.6 Y186.85 I-0.6 J0 F150
X129 Y186.85 I1.2 J0
X125.4 Y186.85 I-1.8 J0
X130.2 Y186.85 I2.4 J0
X124.2 Y186.85 I-3 J0
X130.2 Y186.85 I3 J0
G1 Z-5.333
X127.8
Z-8.813 F30
G3 X126.6 Y186.85 I-0.6 J0 F150
X129 Y186.85 I1.2 J0
X125.4 Y186.85 I-1.8 J0
X130.2 Y186.85 I2.4 J0
X124.2 Y186.85 I-3 J0
X130.2 Y186.85 I3 J0
G1 Z-6.313
X127.8
Z-9.792 F30
G3 X126.6 Y186.85 I-0.6 J0 F150
X129 Y186.85 I1.2 J0
X125.4 Y186.85 I-1.8 J0
X130.2 Y186.85 I2.4 J0
X124.2 Y186.85 I-3 J0
X130.2 Y186.85 I3 J0
G1 Z-7.292
X127.8
Z-10.771 F30
G3 X126.6 Y186.85 I-0.6 J0 F150
X129 Y186.85 I1.2 J0
X125.4 Y186.85 I-1.8 J0
X130.2 Y186.85 I2.4 J0
X124.2 Y186.85 I-3 J0
X130.2 Y186.85 I3 J0
G1 Z-8.271
X127.8
Z-11.75 F30
G3 X126.6 Y186.85 I-0.6 J0 F150
X129 Y186.85 I1.2 J0
X125.4 Y186.85 I-1.8 J0
X130.2 Y186.85 I2.4 J0
X124.2 Y186.85 I-3 J0
X130.2 Y186.85 I3 J0
G0 Z5
X127.8 Y229.15
G1 Z2.5 F30
Z-0.979
G3 X126.6 Y229.15 I-0.6 J0 F150
X129 Y229.15 I1.2 J0
X125.4 Y229.15 I-1.8 J0
X130.2 Y229.15 I2.4 J0
X124.2 Y229.15 I-3 J0
X130.2 Y229.15 I3 J0
G1 Z1.521
X127.8
Z-1.958 F30
G3 X126.6 Y229.15 I-0.6 J0 F150
X129 Y229.15 I1.2 J0
X125.4 Y229.15 I-1.8 J0
X130.2 Y229.15 I2.4 J0
X124.2 Y229.15 I-3 J0
X130.2 Y229.15 I3 J0
G1 Z0.542
X127.8
Z-2.938 F30
G3 X126.6 Y229.15 I-0.6 J0 F150
X129 Y229.15 I1.2 J0
X125.4 Y229.15 I-1.8 J0
X130.2 Y229.15 I2.4 J0
X124.2 Y229.15 I-3 J0
X130.2 Y229.15 I3 J0
G1 Z-0.438
X127.8
Z-3.917 F30
G3 X126.6 Y229.15 I-0.6 J0 F150
X129 Y229.15 I1.2 J0
X125.4 Y229.15 I-1.8 J0
X130.2 Y229.15 I2.4 J0
X124.2 Y229.15 I-3 J0
X130.2 Y229.15 I3 J0
G1 Z-1.417
X127.8
Z-4.896 F30
G3 X126.6 Y229.15 I-0.6 J0 F150
X129 Y229.15 I1.2 J0
X125.4 Y229.15 I-1.8 J0
X130.2 Y229.15 I2.4 J0
X124.2 Y229.15 I-3 J0
X130.2 Y229.15 I3 J0
G1 Z-2.396
X127.8
Z-5.875 F30
G3 X126.6 Y229.15 I-0.6 J0 F150
X129 Y229.15 I1.2 J0
X125.4 Y229.15 I-1.8 J0
X130.2 Y229.15 I2.4 J0
X124.2 Y229.15 I-3 J0
X130.2 Y229.15 I3 J0
G1 Z-3.375
X127.8
Z-6.854 F30
G3 X126.6 Y229.15 I-0.6 J0 F150
X129 Y229.15 I1.2 J0
X125.4 Y229.15 I-1.8 J0
X130.2 Y229.15 I2.4 J0
X124.2 Y229.15 I-3 J0
X130.2 Y229.15 I3 J0
G1 Z-4.354
X127.8
Z-7.833 F30
G3 X126.6 Y229.15 I-0.6 J0 F150
X129 Y229.15 I1.2 J0
X125.4 Y229.15 I-1.8 J0
X130.2 Y229.15 I2.4 J0
X124.2 Y229.15 I-3 J0
X130.2 Y229.15 I3 J0
G1 Z-5.333
X127.8
Z-8.813 F30
G3 X126.6 Y229.15 I-0.6 J0 F150
X129 Y229.15 I1.2 J0
X125.4 Y229.15 I-1.8 J0
X130.2 Y229.15 I2.4 J0
X124.2 Y229.15 I-3 J0
X130.2 Y229.15 I3 J0
G1 Z-6.313
X127.8
Z-9.792 F30
G3 X126.6 Y229.15 I-0.6 J0 F150
X129 Y229.15 I1.2 J0
X125.4 Y229.15 I-1.8 J0
X130.2 Y229.15 I2.4 J0
X124.2 Y229.15 I-3 J0
X130.2 Y229.15 I3 J0
G1 Z-7.292
X127.8
Z-10.771 F30
G3 X126.6 Y229.15 I-0.6 J0 F150
X129 Y229.15 I1.2 J0
X125.4 Y229.15 I-1.8 J0
X130.2 Y229.15 I2.4 J0
X124.2 Y229.15 I-3 J0
X130.2 Y229.15 I3 J0
G1 Z-8.271
X127.8
Z-11.75 F30
G3 X126.6 Y229.15 I-0.6 J0 F150
X129 Y229.15 I1.2 J0
X125.4 Y229.15 I-1.8 J0
X130.2 Y229.15 I2.4 J0
X124.2 Y229.15 I-3 J0
X130.2 Y229.15 I3 J0
G0 Z5
X53.18 Y190.95
G1 Z2.5 F30
Z-0.979
G3 X52.08 Y190.95 I-0.55 J0 F150
X54.38 Y190.95 I1.15 J0
X50.88 Y190.95 I-1.75 J0
X54.38 Y190.95 I1.75 J0
X54.139 Y191.146 I-0.2 J0
G1 X53.18 Y190.95
Z-1.958 F30
G3 X52.08 Y190.95 I-0.55 J0 F150
X54.38 Y190.95 I1.15 J0
X50.88 Y190.95 I-1.75 J0
X54.38 Y190.95 I1.75 J0
X54.139 Y191.146 I-0.2 J0
G1 X53.18 Y190.95
Z-2.938 F30
G3 X52.08 Y190.95 I-0.55 J0 F150
X54.38 Y190.95 I1.15 J0
X50.88 Y190.95 I-1.75 J0
X54.38 Y190.95 I1.75 J0
X54.139 Y191.146 I-0.2 J0
G1 X53.18 Y190.95
Z-3.917 F30
G3 X52.08 Y190.95 I-0.55 J0 F150
X54.38 Y190.95 I1.15 J0
X50.88 Y190.95 I-1.75 J0
X54.38 Y190.95 I1.75 J0
X54.139 Y191.146 I-0.2 J0
G1 X53.18 Y190.95
Z-4.896 F30
G3 X52.08 Y190.95 I-0.55 J0 F150
X54.38 Y190.95 I1.15 J0
X50.88 Y190.95 I-1.75 J0
X54.38 Y190.95 I1.75 J0
X54.139 Y191.146 I-0.2 J0
G1 X53.18 Y190.95
Z-5.875 F30
G3 X52.08 Y190.95 I-0.55 J0 F150
X54.38 Y190.95 I1.15 J0
X50.88 Y190.95 I-1.75 J0
X54.38 Y190.95 I1.75 J0
X54.139 Y191.146 I-0.2 J0
G1 X53.18 Y190.95
Z-6.854 F30
G3 X52.08 Y190.95 I-0.55 J0 F150
X54.38 Y190.95 I1.15 J0
X50.88 Y190.95 I-1.75 J0
X54.38 Y190.95 I1.75 J0
X54.139 Y191.146 I-0.2 J0
G1 X53.18 Y190.95
Z-7.833 F30
G3 X52.08 Y190.95 I-0.55 J0 F150
X54.38 Y190.95 I1.15 J0
X50.88 Y190.95 I-1.75 J0
X54.38 Y190.95 I1.75 J0
X54.139 Y191.146 I-0.2 J0
G1 X53.18 Y190.95
Z-8.813 F30
G3 X52.08 Y190.95 I-0.55 J0 F150
X54.38 Y190.95 I1.15 J0
X50.88 Y190.95 I-1.75 J0
X54.38 Y190.95 I1.75 J0
X54.139 Y191.146 I-0.2 J0
G1 X53.18 Y190.95
Z-9.792 F30
G3 X52.08 Y190.95 I-0.55 J0 F150
X54.38 Y190.95 I1.15 J0
X50.88 Y190.95 I-1.75 J0
X54.38 Y190.95 I1.75 J0
X54.139 Y191.146 I-0.2 J0
G1 X53.18 Y190.95
Z-10.771 F30
G3 X52.08 Y190.95 I-0.55 J0 F150
X54.38 Y190.95 I1.15 J0
X50.88 Y190.95 I-1.75 J0
X54.38 Y190.95 I1.75 J0
X54.139 Y191.146 I-0.2 J0
G1 X53.18 Y190.95
Z-11.75 F30
G3 X52.08 Y190.95 I-0.55 J0 F150
X54.38 Y190.95 I1.15 J0
X50.88 Y190.95 I-1.75 J0
X54.38 Y190.95 I1.75 J0
G0 Z5
X25.8 Y186.85
G1 Z2.5 F30
Z-0.979
G3 X24.6 Y186.85 I-0.6 J0 F150
X27 Y186.85 I1.2 J0
X23.4 Y186.85 I-1.8 J0
X28.2 Y186.85 I2.4 J0
X22.2 Y186.85 I-3 J0
X28.2 Y186.85 I3 J0
G1 Z1.521
X25.8
Z-1.958 F30
G3 X24.6 Y186.85 I-0.6 J0 F150
X27 Y186.85 I1.2 J0
X23.4 Y186.85 I-1.8 J0
X28.2 Y186.85 I2.4 J0
X22.2 Y186.85 I-3 J0
X28.2 Y186.85 I3 J0
G1 Z0.542
X25.8
Z-2.938 F30
G3 X24.6 Y186.85 I-0.6 J0 F150
X27 Y186.85 I1.2 J0
X23.4 Y186.85 I-1.8 J0
X28.2 Y186.85 I2.4 J0
X22.2 Y186.85 I-3 J0
X28.2 Y186.85 I3 J0
G1 Z-0.438
X25.8
Z-3.917 F30
G3 X24.6 Y186.85 I-0.6 J0 F150
X27 Y186.85 I1.2 J0
X23.4 Y186.85 I-1.8 J0
X28.2 Y186.85 I2.4 J0
X22.2 Y186.85 I-3 J0
X28.2 Y186.85 I3 J0
G1 Z-1.417
X25.8
Z-4.896 F30
G3 X24.6 Y186.85 I-0.6 J0 F150
X27 Y186.85 I1.2 J0
X23.4 Y186.85 I-1.8 J0
X28.2 Y186.85 I2.4 J0
X22.2 Y186.85 I-3 J0
X28.2 Y186.85 I3 J0
G1 Z-2.396
X25.8
Z-5.875 F30
G3 X24.6 Y186.85 I-0.6 J0 F150
X27 Y186.85 I1.2 J0
X23.4 Y186.85 I-1.8 J0
X28.2 Y186.85 I2.4 J0
X22.2 Y186.85 I-3 J0
X28.2 Y186.85 I3 J0
G1 Z-3.375
X25.8
Z-6.854 F30
G3 X24.6 Y186.85 I-0.6 J0 F150
X27 Y186.85 I1.2 J0
X23.4 Y186.85 I-1.8 J0
X28.2 Y186.85 I2.4 J0
X22.2 Y186.85 I-3 J0
X28.2 Y186.85 I3 J0
G1 Z-4.354
X25.8
Z-7.833 F30
G3 X24.6 Y186.85 I-0.6 J0 F150
X27 Y186.85 I1.2 J0
X23.4 Y186.85 I-1.8 J0
X28.2 Y186.85 I2.4 J0
X22.2 Y186.85 I-3 J0
X28.2 Y186.85 I3 J0
G1 Z-5.333
X25.8
Z-8.813 F30
G3 X24.6 Y186.85 I-0.6 J0 F150
X27 Y186.85 I1.2 J0
X23.4 Y186.85 I-1.8 J0
X28.2 Y186.85 I2.4 J0
X22.2 Y186.85 I-3 J0
X28.2 Y186.85 I3 J0
G1 Z-6.313
X25.8
Z-9.792 F30
G3 X24.6 Y186.85 I-0.6 J0 F150
X27 Y186.85 I1.2 J0
X23.4 Y186.85 I-1.8 J0
X28.2 Y186.85 I2.4 J0
X22.2 Y186.85 I-3 J0
X28.2 Y186.85 I3 J0
G1 Z-7.292
X25.8
Z-10.771 F30
G3 X24.6 Y186.85 I-0.6 J0 F150
X27 Y186.85 I1.2 J0
X23.4 Y186.85 I-1.8 J0
X28.2 Y186.85 I2.4 J0
X22.2 Y186.85 I-3 J0
X28.2 Y186.85 I3 J0
G1 Z-8.271
X25.8
Z-11.75 F30
G3 X24.6 Y186.85 I-0.6 J0 F150
X27 Y186.85 I1.2 J0
X23.4 Y186.85 I-1.8 J0
X28.2 Y186.85 I2.4 J0
X22.2 Y186.85 I-3 J0
X28.2 Y186.85 I3 J0
G0 Z5
X25.8 Y229.15
G1 Z2.5 F30
Z-0.979
G3 X24.6 Y229.15 I-0.6 J0 F150
X27 Y229.15 I1.2 J0
X23.4 Y229.15 I-1.8 J0
X28.2 Y229.15 I2.4 J0
X22.2 Y229.15 I-3 J0
X28.2 Y229.15 I3 J0
G1 Z1.521
X25.8
Z-1.958 F30
G3 X24.6 Y229.15 I-0.6 J0 F150
X27 Y229.15 I1.2 J0
X23.4 Y229.15 I-1.8 J0
X28.2 Y229.15 I2.4 J0
X22.2 Y229.15 I-3 J0
X28.2 Y229.15 I3 J0
G1 Z0.542
X25.8
Z-2.938 F30
G3 X24.6 Y229.15 I-0.6 J0 F150
X27 Y229.15 I1.2 J0
X23.4 Y229.15 I-1.8 J0
X28.2 Y229.15 I2.4 J0
X22.2 Y229.15 I-3 J0
X28.2 Y229.15 I3 J0
G1 Z-0.438
X25.8
Z-3.917 F30
G3 X24.6 Y229.15 I-0.6 J0 F150
X27 Y229.15 I1.2 J0
X23.4 Y229.15 I-1.8 J0
X28.2 Y229.15 I2.4 J0
X22.2 Y229.15 I-3 J0
X28.2 Y229.15 I3 J0
G1 Z-1.417
X25.8
Z-4.896 F30
G3 X24.6 Y229.15 I-0.6 J0 F150
X27 Y229.15 I1.2 J0
X23.4 Y229.15 I-1.8 J0
X28.2 Y229.15 I2.4 J0
X22.2 Y229.15 I-3 J0
X28.2 Y229.15 I3 J0
G1 Z-2.396
X25.8
Z-5.875 F30
G3 X24.6 Y229.15 I-0.6 J0 F150
X27 Y229.15 I1.2 J0
X23.4 Y229.15 I-1.8 J0
X28.2 Y229.15 I2.4 J0
X22.2 Y229.15 I-3 J0
X28.2 Y229.15 I3 J0
G1 Z-3.375
X25.8
Z-6.854 F30
G3 X24.6 Y229.15 I-0.6 J0 F150
X27 Y229.15 I1.2 J0
X23.4 Y229.15 I-1.8 J0
X28.2 Y229.15 I2.4 J0
X22.2 Y229.15 I-3 J0
X28.2 Y229.15 I3 J0
G1 Z-4.354
X25.8
Z-7.833 F30
G3 X24.6 Y229.15 I-0.6 J0 F150
X27 Y229.15 I1.2 J0
X23.4 Y229.15 I-1.8 J0
X28.2 Y229.15 I2.4 J0
X22.2 Y229.15 I-3 J0
X28.2 Y229.15 I3 J0
G1 Z-5.333
X25.8
Z-8.813 F30
G3 X24.6 Y229.15 I-0.6 J0 F150
X27 Y229.15 I1.2 J0
X23.4 Y229.15 I-1.8 J0
X28.2 Y229.15 I2.4 J0
X22.2 Y229.15 I-3 J0
X28.2 Y229.15 I3 J0
G1 Z-6.313
X25.8
Z-9.792 F30
G3 X24.6 Y229.15 I-0.6 J0 F150
X27 Y229.15 I1.2 J0
X23.4 Y229.15 I-1.8 J0
X28.2 Y229.15 I2.4 J0
X22.2 Y229.15 I-3 J0
X28.2 Y229.15 I3 J0
G1 Z-7.292
X25.8
Z-10.771 F30
G3 X24.6 Y229.15 I-0.6 J0 F150
X27 Y229.15 I1.2 J0
X23.4 Y229.15 I-1.8 J0
X28.2 Y229.15 I2.4 J0
X22.2 Y229.15 I-3 J0
X28.2 Y229.15 I3 J0
G1 Z-8.271
X25.8
Z-11.75 F30
G3 X24.6 Y229.15 I-0.6 J0 F150
X27 Y229.15 I1.2 J0
X23.4 Y229.15 I-1.8 J0
X28.2 Y229.15 I2.4 J0
X22.2 Y229.15 I-3 J0
X28.2 Y229.15 I3 J0
G0 Z5
X25.8 Y67.15
G1 Z2.5 F30
Z-0.979
G3 X24.6 Y67.15 I-0.6 J0 F150
X27 Y67.15 I1.2 J0
X23.4 Y67.15 I-1.8 J0
X28.2 Y67.15 I2.4 J0
X22.2 Y67.15 I-3 J0
X28.2 Y67.15 I3 J0
G1 Z1.521
X25.8
Z-1.958 F30
G3 X24.6 Y67.15 I-0.6 J0 F150
X27 Y67.15 I1.2 J0
X23.4 Y67.15 I-1.8 J0
X28.2 Y67.15 I2.4 J0
X22.2 Y67.15 I-3 J0
X28.2 Y67.15 I3 J0
G1 Z0.542
X25.8
Z-2.938 F30
G3 X24.6 Y67.15 I-0.6 J0 F150
X27 Y67.15 I1.2 J0
X23.4 Y67.15 I-1.8 J0
X28.2 Y67.15 I2.4 J0
X22.2 Y67.15 I-3 J0
X28.2 Y67.15 I3 J0
G1 Z-0.438
X25.8
Z-3.917 F30
G3 X24.6 Y67.15 I-0.6 J0 F150
X27 Y67.15 I1.2 J0
X23.4 Y67.15 I-1.8 J0
X28.2 Y67.15 I2.4 J0
X22.2 Y67.15 I-3 J0
X28.2 Y67.15 I3 J0
G1 Z-1.417
X25.8
Z-4.896 F30
G3 X24.6 Y67.15 I-0.6 J0 F150
X27 Y67.15 I1.2 J0
X23.4 Y67.15 I-1.8 J0
X28.2 Y67.15 I2.4 J0
X22.2 Y67.15 I-3 J0
X28.2 Y67.15 I3 J0
G1 Z-2.396
X25.8
Z-5.875 F30
G3 X24.6 Y67.15 I-0.6 J0 F150
X27 Y67.15 I1.2 J0
X23.4 Y67.15 I-1.8 J0
X28.2 Y67.15 I2.4 J0
X22.2 Y67.15 I-3 J0
X28.2 Y67.15 I3 J0
G1 Z-3.375
X25.8
Z-6.854 F30
G3 X24.6 Y67.15 I-0.6 J0 F150
X27 Y67.15 I1.2 J0
X23.4 Y67.15 I-1.8 J0
X28.2 Y67.15 I2.4 J0
X22.2 Y67.15 I-3 J0
X28.2 Y67.15 I3 J0
G1 Z-4.354
X25.8
Z-7.833 F30
G3 X24.6 Y67.15 I-0.6 J0 F150
X27 Y67.15 I1.2 J0
X23.4 Y67.15 I-1.8 J0
X28.2 Y67.15 I2.4 J0
X22.2 Y67.15 I-3 J0
X28.2 Y67.15 I3 J0
G1 Z-5.333
X25.8
Z-8.813 F30
G3 X24.6 Y67.15 I-0.6 J0 F150
X27 Y67.15 I1.2 J0
X23.4 Y67.15 I-1.8 J0
X28.2 Y67.15 I2.4 J0
X22.2 Y67.15 I-3 J0
X28.2 Y67.15 I3 J0
G1 Z-6.313
X25.8
Z-9.792 F30
G3 X24.6 Y67.15 I-0.6 J0 F150
X27 Y67.15 I1.2 J0
X23.4 Y67.15 I-1.8 J0
X28.2 Y67.15 I2.4 J0
X22.2 Y67.15 I-3 J0
X28.2 Y67.15 I3 J0
G1 Z-7.292
X25.8
Z-10.771 F30
G3 X24.6 Y67.15 I-0.6 J0 F150
X27 Y67.15 I1.2 J0
X23.4 Y67.15 I-1.8 J0
X28.2 Y67.15 I2.4 J0
X22.2 Y67.15 I-3 J0
X28.2 Y67.15 I3 J0
G1 Z-8.271
X25.8
Z-11.75 F30
G3 X24.6 Y67.15 I-0.6 J0 F150
X27 Y67.15 I1.2 J0
X23.4 Y67.15 I-1.8 J0
X28.2 Y67.15 I2.4 J0
X22.2 Y67.15 I-3 J0
X28.2 Y67.15 I3 J0
G0 Z5
X25.8 Y24.85
G1 Z2.5 F30
Z-0.979
G3 X24.6 Y24.85 I-0.6 J0 F150
X27 Y24.85 I1.2 J0
X23.4 Y24.85 I-1.8 J0
X28.2 Y24.85 I2.4 J0
X22.2 Y24.85 I-3 J0
X28.2 Y24.85 I3 J0
G1 Z1.521
X25.8
Z-1.958 F30
G3 X24.6 Y24.85 I-0.6 J0 F150
X27 Y24.85 I1.2 J0
X23.4 Y24.85 I-1.8 J0
X28.2 Y24.85 I2.4 J0
X22.2 Y24.85 I-3 J0
X28.2 Y24.85 I3 J0
G1 Z0.542
X25.8
Z-2.938 F30
G3 X24.6 Y24.85 I-0.6 J0 F150
X27 Y24.85 I1.2 J0
X23.4 Y24.85 I-1.8 J0
X28.2 Y24.85 I2.4 J0
X22.2 Y24.85 I-3 J0
X28.2 Y24.85 I3 J0
G1 Z-0.438
X25.8
Z-3.917 F30
G3 X24.6 Y24.85 I-0.6 J0 F150
X27 Y24.85 I1.2 J0
X23.4 Y24.85 I-1.8 J0
X28.2 Y24.85 I2.4 J0
X22.2 Y24.85 I-3 J0
X28.2 Y24.85 I3 J0
G1 Z-1.417
X25.8
Z-4.896 F30
G3 X24.6 Y24.85 I-0.6 J0 F150
X27 Y24.85 I1.2 J0
X23.4 Y24.85 I-1.8 J0
X28.2 Y24.85 I2.4 J0
X22.2 Y24.85 I-3 J0
X28.2 Y24.85 I3 J0
G1 Z-2.396
X25.8
Z-5.875 F30
G3 X24.6 Y24.85 I-0.6 J0 F150
X27 Y24.85 I1.2 J0
X23.4 Y24.85 I-1.8 J0
X28.2 Y24.85 I2.4 J0
X22.2 Y24.85 I-3 J0
X28.2 Y24.85 I3 J0
G1 Z-3.375
X25.8
Z-6.854 F30
G3 X24.6 Y24.85 I-0.6 J0 F150
X27 Y24.85 I1.2 J0
X23.4 Y24.85 I-1.8 J0
X28.2 Y24.85 I2.4 J0
X22.2 Y24.85 I-3 J0
X28.2 Y24.85 I3 J0
G1 Z-4.354
X25.8
Z-7.833 F30
G3 X24.6 Y24.85 I-0.6 J0 F150
X27 Y24.85 I1.2 J0
X23.4 Y24.85 I-1.8 J0
X28.2 Y24.85 I2.4 J0
X22.2 Y24.85 I-3 J0
X28.2 Y24.85 I3 J0
G1 Z-5.333
X25.8
Z-8.813 F30
G3 X24.6 Y24.85 I-0.6 J0 F150
X27 Y24.85 I1.2 J0
X23.4 Y24.85 I-1.8 J0
X28.2 Y24.85 I2.4 J0
X22.2 Y24.85 I-3 J0
X28.2 Y24.85 I3 J0
G1 Z-6.313
X25.8
Z-9.792 F30
G3 X24.6 Y24.85 I-0.6 J0 F150
X27 Y24.85 I1.2 J0
X23.4 Y24.85 I-1.8 J0
X28.2 Y24.85 I2.4 J0
X22.2 Y24.85 I-3 J0
X28.2 Y24.85 I3 J0
G1 Z-7.292
X25.8
Z-10.771 F30
G3 X24.6 Y24.85 I-0.6 J0 F150
X27 Y24.85 I1.2 J0
X23.4 Y24.85 I-1.8 J0
X28.2 Y24.85 I2.4 J0
X22.2 Y24.85 I-3 J0
X28.2 Y24.85 I3 J0
G1 Z-8.271
X25.8
Z-11.75 F30
G3 X24.6 Y24.85 I-0.6 J0 F150
X27 Y24.85 I1.2 J0
X23.4 Y24.85 I-1.8 J0
X28.2 Y24.85 I2.4 J0
X22.2 Y24.85 I-3 J0
X28.2 Y24.85 I3 J0
G0 Z5
X127.8
G1 Z2.5 F30
Z-0.979
G3 X126.6 Y24.85 I-0.6 J0 F150
X129 Y24.85 I1.2 J0
X125.4 Y24.85 I-1.8 J0
X130.2 Y24.85 I2.4 J0
X124.2 Y24.85 I-3 J0
X130.2 Y24.85 I3 J0
G1 Z1.521
X127.8
Z-1.958 F30
G3 X126.6 Y24.85 I-0.6 J0 F150
X129 Y24.85 I1.2 J0
X125.4 Y24.85 I-1.8 J0
X130.2 Y24.85 I2.4 J0
X124.2 Y24.85 I-3 J0
X130.2 Y24.85 I3 J0
G1 Z0.542
X127.8
Z-2.938 F30
G3 X126.6 Y24.85 I-0.6 J0 F150
X129 Y24.85 I1.2 J0
X125.4 Y24.85 I-1.8 J0
X130.2 Y24.85 I2.4 J0
X124.2 Y24.85 I-3 J0
X130.2 Y24.85 I3 J0
G1 Z-0.438
X127.8
Z-3.917 F30
G3 X126.6 Y24.85 I-0.6 J0 F150
X129 Y24.85 I1.2 J0
X125.4 Y24.85 I-1.8 J0
X130.2 Y24.85 I2.4 J0
X124.2 Y24.85 I-3 J0
X130.2 Y24.85 I3 J0
G1 Z-1.417
X127.8
Z-4.896 F30
G3 X126.6 Y24.85 I-0.6 J0 F150
X129 Y24.85 I1.2 J0
X125.4 Y24.85 I-1.8 J0
X130.2 Y24.85 I2.4 J0
X124.2 Y24.85 I-3 J0
X130.2 Y24.85 I3 J0
G1 Z-2.396
X127.8
Z-5.875 F30
G3 X126.6 Y24.85 I-0.6 J0 F150
X129 Y24.85 I1.2 J0
X125.4 Y24.85 I-1.8 J0
X130.2 Y24.85 I2.4 J0
X124.2 Y24.85 I-3 J0
X130.2 Y24.85 I3 J0
G1 Z-3.375
X127.8
Z-6.854 F30
G3 X126.6 Y24.85 I-0.6 J0 F150
X129 Y24.85 I1.2 J0
X125.4 Y24.85 I-1.8 J0
X130.2 Y24.85 I2.4 J0
X124.2 Y24.85 I-3 J0
X130.2 Y24.85 I3 J0
G1 Z-4.354
X127.8
Z-7.833 F30
G3 X126.6 Y24.85 I-0.6 J0 F150
X129 Y24.85 I1.2 J0
X125.4 Y24.85 I-1.8 J0
X130.2 Y24.85 I2.4 J0
X124.2 Y24.85 I-3 J0
X130.2 Y24.85 I3 J0
G1 Z-5.333
X127.8
Z-8.813 F30
G3 X126.6 Y24.85 I-0.6 J0 F150
X129 Y24.85 I1.2 J0
X125.4 Y24.85 I-1.8 J0
X130.2 Y24.85 I2.4 J0
X124.2 Y24.85 I-3 J0
X130.2 Y24.85 I3 J0
G1 Z-6.313
X127.8
Z-9.792 F30
G3 X126.6 Y24.85 I-0.6 J0 F150
X129 Y24.85 I1.2 J0
X125.4 Y24.85 I-1.8 J0
X130.2 Y24.85 I2.4 J0
X124.2 Y24.85 I-3 J0
X130.2 Y24.85 I3 J0
G1 Z-7.292
X127.8
Z-10.771 F30
G3 X126.6 Y24.85 I-0.6 J0 F150
X129 Y24.85 I1.2 J0
X125.4 Y24.85 I-1.8 J0
X130.2 Y24.85 I2.4 J0
X124.2 Y24.85 I-3 J0
X130.2 Y24.85 I3 J0
G1 Z-8.271
X127.8
Z-11.75 F30
G3 X126.6 Y24.85 I-0.6 J0 F150
X129 Y24.85 I1.2 J0
X125.4 Y24.85 I-1.8 J0
X130.2 Y24.85 I2.4 J0
X124.2 Y24.85 I-3 J0
X130.2 Y24.85 I3 J0
G0 Z5
X127.8 Y67.15
G1 Z2.5 F30
Z-0.979
G3 X126.6 Y67.15 I-0.6 J0 F150
X129 Y67.15 I1.2 J0
X125.4 Y67.15 I-1.8 J0
X130.2 Y67.15 I2.4 J0
X124.2 Y67.15 I-3 J0
X130.2 Y67.15 I3 J0
G1 Z1.521
X127.8
Z-1.958 F30
G3 X126.6 Y67.15 I-0.6 J0 F150
X129 Y67.15 I1.2 J0
X125.4 Y67.15 I-1.8 J0
X130.2 Y67.15 I2.4 J0
X124.2 Y67.15 I-3 J0
X130.2 Y67.15 I3 J0
G1 Z0.542
X127.8
Z-2.938 F30
G3 X126.6 Y67.15 I-0.6 J0 F150
X129 Y67.15 I1.2 J0
X125.4 Y67.15 I-1.8 J0
X130.2 Y67.15 I2.4 J0
X124.2 Y67.15 I-3 J0
X130.2 Y67.15 I3 J0
G1 Z-0.438
X127.8
Z-3.917 F30
G3 X126.6 Y67.15 I-0.6 J0 F150
X129 Y67.15 I1.2 J0
X125.4 Y67.15 I-1.8 J0
X130.2 Y67.15 I2.4 J0
X124.2 Y67.15 I-3 J0
X130.2 Y67.15 I3 J0
G1 Z-1.417
X127.8
Z-4.896 F30
G3 X126.6 Y67.15 I-0.6 J0 F150
X129 Y67.15 I1.2 J0
X125.4 Y67.15 I-1.8 J0
X130.2 Y67.15 I2.4 J0
X124.2 Y67.15 I-3 J0
X130.2 Y67.15 I3 J0
G1 Z-2.396
X127.8
Z-5.875 F30
G3 X126.6 Y67.15 I-0.6 J0 F150
X129 Y67.15 I1.2 J0
X125.4 Y67.15 I-1.8 J0
X130.2 Y67.15 I2.4 J0
X124.2 Y67.15 I-3 J0
X130.2 Y67.15 I3 J0
G1 Z-3.375
X127.8
Z-6.854 F30
G3 X126.6 Y67.15 I-0.6 J0 F150
X129 Y67.15 I1.2 J0
X125.4 Y67.15 I-1.8 J0
X130.2 Y67.15 I2.4 J0
X124.2 Y67.15 I-3 J0
X130.2 Y67.15 I3 J0
G1 Z-4.354
X127.8
Z-7.833 F30
G3 X126.6 Y67.15 I-0.6 J0 F150
X129 Y67.15 I1.2 J0
X125.4 Y67.15 I-1.8 J0
X130.2 Y67.15 I2.4 J0
X124.2 Y67.15 I-3 J0
X130.2 Y67.15 I3 J0
G1 Z-5.333
X127.8
Z-8.813 F30
G3 X126.6 Y67.15 I-0.6 J0 F150
X129 Y67.15 I1.2 J0
X125.4 Y67.15 I-1.8 J0
X130.2 Y67.15 I2.4 J0
X124.2 Y67.15 I-3 J0
X130.2 Y67.15 I3 J0
G1 Z-6.313
X127.8
Z-9.792 F30
G3 X126.6 Y67.15 I-0.6 J0 F150
X129 Y67.15 I1.2 J0
X125.4 Y67.15 I-1.8 J0
X130.2 Y67.15 I2.4 J0
X124.2 Y67.15 I-3 J0
X130.2 Y67.15 I3 J0
G1 Z-7.292
X127.8
Z-10.771 F30
G3 X126.6 Y67.15 I-0.6 J0 F150
X129 Y67.15 I1.2 J0
X125.4 Y67.15 I-1.8 J0
X130.2 Y67.15 I2.4 J0
X124.2 Y67.15 I-3 J0
X130.2 Y67.15 I3 J0
G1 Z-8.271
X127.8
Z-11.75 F30
G3 X126.6 Y67.15 I-0.6 J0 F150
X129 Y67.15 I1.2 J0
X125.4 Y67.15 I-1.8 J0
X130.2 Y67.15 I2.4 J0
X124.2 Y67.15 I-3 J0
X130.2 Y67.15 I3 J0
G0 Z15
M9
M5
M30
