(y_front_pockets)
(Machine)
(  vendor: Autodesk)
(  model: Generic 3-axis)
(  description: This machine has XY axis on the Table and Z axis on the Head)
(T1  D=2 CR=0 - ZMIN=-6.5 - flat end mill)
G90 G94
G17
G21

(y_front_pockets)
T1
S12000 M3
G54
M8
G0 X46.601 Y96.634
Z15
Z5
G1 Z2.5 F30
Z-0.929
G3 X45.801 Y96.634 I-0.4 J0 F150
X47.801 Y96.634 I1 J0
X44.601 Y96.634 I-1.6 J0
X47.801 Y96.634 I1.6 J0
X47.56 Y96.83 I-0.2 J0
G1 X46.601 Y96.634
Z-1.857 F30
G3 X45.801 Y96.634 I-0.4 J0 F150
X47.801 Y96.634 I1 J0
X44.601 Y96.634 I-1.6 J0
X47.801 Y96.634 I1.6 J0
X47.56 Y96.83 I-0.2 J0
G1 X46.601 Y96.634
Z-2.786 F30
G3 X45.801 Y96.634 I-0.4 J0 F150
X47.801 Y96.634 I1 J0
X44.601 Y96.634 I-1.6 J0
X47.801 Y96.634 I1.6 J0
X47.56 Y96.83 I-0.2 J0
G1 X46.601 Y96.634
Z-3.714 F30
G3 X45.801 Y96.634 I-0.4 J0 F150
X47.801 Y96.634 I1 J0
X44.601 Y96.634 I-1.6 J0
X47.801 Y96.634 I1.6 J0
X47.56 Y96.83 I-0.2 J0
G1 X46.601 Y96.634
Z-4.643 F30
G3 X45.801 Y96.634 I-0.4 J0 F150
X47.801 Y96.634 I1 J0
X44.601 Y96.634 I-1.6 J0
X47.801 Y96.634 I1.6 J0
X47.56 Y96.83 I-0.2 J0
G1 X46.601 Y96.634
Z-5.571 F30
G3 X45.801 Y96.634 I-0.4 J0 F150
X47.801 Y96.634 I1 J0
X44.601 Y96.634 I-1.6 J0
X47.801 Y96.634 I1.6 J0
X47.56 Y96.83 I-0.2 J0
G1 X46.601 Y96.634
Z-6.5 F30
G3 X45.801 Y96.634 I-0.4 J0 F150
X47.801 Y96.634 I1 J0
X44.601 Y96.634 I-1.6 J0
X47.801 Y96.634 I1.6 J0
G0 Z5
X106.601
G1 Z2.5 F30
Z-0.929
G3 X105.801 Y96.634 I-0.4 J0 F150
X107.801 Y96.634 I1 J0
X104.601 Y96.634 I-1.6 J0
X107.801 Y96.634 I1.6 J0
X107.56 Y96.83 I-0.2 J0
G1 X106.601 Y96.634
Z-1.857 F30
G3 X105.801 Y96.634 I-0.4 J0 F150
X107.801 Y96.634 I1 J0
X104.601 Y96.634 I-1.6 J0
X107.801 Y96.634 I1.6 J0
X107.56 Y96.83 I-0.2 J0
G1 X106.601 Y96.634
Z-2.786 F30
G3 X105.801 Y96.634 I-0.4 J0 F150
X107.801 Y96.634 I1 J0
X104.601 Y96.634 I-1.6 J0
X107.801 Y96.634 I1.6 J0
X107.56 Y96.83 I-0.2 J0
G1 X106.601 Y96.634
Z-3.714 F30
G3 X105.801 Y96.634 I-0.4 J0 F150
X107.801 Y96.634 I1 J0
X104.601 Y96.634 I-1.6 J0
X107.801 Y96.634 I1.6 J0
X107.56 Y96.83 I-0.2 J0
G1 X106.601 Y96.634
Z-4.643 F30
G3 X105.801 Y96.634 I-0.4 J0 F150
X107.801 Y96.634 I1 J0
X104.601 Y96.634 I-1.6 J0
X107.801 Y96.634 I1.6 J0
X107.56 Y96.83 I-0.2 J0
G1 X106.601 Y96.634
Z-5.571 F30
G3 X105.801 Y96.634 I-0.4 J0 F150
X107.801 Y96.634 I1 J0
X104.601 Y96.634 I-1.6 J0
X107.801 Y96.634 I1.6 J0
X107.56 Y96.83 I-0.2 J0
G1 X106.601 Y96.634
Z-6.5 F30
G3 X105.801 Y96.634 I-0.4 J0 F150
X107.801 Y96.634 I1 J0
X104.601 Y96.634 I-1.6 J0
X107.801 Y96.634 I1.6 J0
G0 Z15
M9
M5
M30
