(y_front_holes)
(Machine)
(  vendor: Autodesk)
(  model: Generic 3-axis)
(  description: This machine has XY axis on the Table and Z axis on the Head)
(T1  D=2 CR=0 - ZMIN=-11.75 - flat end mill)
G90 G94
G17
G21

(y_front_holes)
T1
S12000 M3
G54
M8
G0 X56.25 Y147.5
Z15
Z5
G1 Z2.5 F30
Z-0.979
X56.243 Y147.525 F150
X56.225 Y147.543
X56.2 Y147.55
X56.175 Y147.543
X56.157 Y147.525
X56.15 Y147.5
G3 X57.45 Y147.5 I0.65 J0
X54.95 Y147.5 I-1.25 J0
X57.45 Y147.5 I1.25 J0
X57.209 Y147.696 I-0.2 J0
G1 X56.25 Y147.5
Z-1.958 F30
X56.243 Y147.525 F150
X56.225 Y147.543
X56.2 Y147.55
X56.175 Y147.543
X56.157 Y147.525
X56.15 Y147.5
G3 X57.45 Y147.5 I0.65 J0
X54.95 Y147.5 I-1.25 J0
X57.45 Y147.5 I1.25 J0
X57.209 Y147.696 I-0.2 J0
G1 X56.25 Y147.5
Z-2.938 F30
X56.243 Y147.525 F150
X56.225 Y147.543
X56.2 Y147.55
X56.175 Y147.543
X56.157 Y147.525
X56.15 Y147.5
G3 X57.45 Y147.5 I0.65 J0
X54.95 Y147.5 I-1.25 J0
X57.45 Y147.5 I1.25 J0
X57.209 Y147.696 I-0.2 J0
G1 X56.25 Y147.5
Z-3.917 F30
X56.243 Y147.525 F150
X56.225 Y147.543
X56.2 Y147.55
X56.175 Y147.543
X56.157 Y147.525
X56.15 Y147.5
G3 X57.45 Y147.5 I0.65 J0
X54.95 Y147.5 I-1.25 J0
X57.45 Y147.5 I1.25 J0
X57.209 Y147.696 I-0.2 J0
G1 X56.25 Y147.5
Z-4.896 F30
X56.243 Y147.525 F150
X56.225 Y147.543
X56.2 Y147.55
X56.175 Y147.543
X56.157 Y147.525
X56.15 Y147.5
G3 X57.45 Y147.5 I0.65 J0
X54.95 Y147.5 I-1.25 J0
X57.45 Y147.5 I1.25 J0
X57.209 Y147.696 I-0.2 J0
G1 X56.25 Y147.5
Z-5.875 F30
X56.243 Y147.525 F150
X56.225 Y147.543
X56.2 Y147.55
X56.175 Y147.543
X56.157 Y147.525
X56.15 Y147.5
G3 X57.45 Y147.5 I0.65 J0
X54.95 Y147.5 I-1.25 J0
X57.45 Y147.5 I1.25 J0
X57.209 Y147.696 I-0.2 J0
G1 X56.25 Y147.5
Z-6.854 F30
X56.243 Y147.525 F150
X56.225 Y147.543
X56.2 Y147.55
X56.175 Y147.543
X56.157 Y147.525
X56.15 Y147.5
G3 X57.45 Y147.5 I0.65 J0
X54.95 Y147.5 I-1.25 J0
X57.45 Y147.5 I1.25 J0
X57.209 Y147.696 I-0.2 J0
G1 X56.25 Y147.5
Z-7.833 F30
X56.243 Y147.525 F150
X56.225 Y147.543
X56.2 Y147.55
X56.175 Y147.543
X56.157 Y147.525
X56.15 Y147.5
G3 X57.45 Y147.5 I0.65 J0
X54.95 Y147.5 I-1.25 J0
X57.45 Y147.5 I1.25 J0
X57.209 Y147.696 I-0.2 J0
G1 X56.25 Y147.5
Z-8.813 F30
X56.243 Y147.525 F150
X56.225 Y147.543
X56.2 Y147.55
X56.175 Y147.543
X56.157 Y147.525
X56.15 Y147.5
G3 X57.45 Y147.5 I0.65 J0
X54.95 Y147.5 I-1.25 J0
X57.45 Y147.5 I1.25 J0
X57.209 Y147.696 I-0.2 J0
G1 X56.25 Y147.5
Z-9.792 F30
X56.243 Y147.525 F150
X56.225 Y147.543
X56.2 Y147.55
X56.175 Y147.543
X56.157 Y147.525
X56.15 Y147.5
G3 X57.45 Y147.5 I0.65 J0
X54.95 Y147.5 I-1.25 J0
X57.45 Y147.5 I1.25 J0
X57.209 Y147.696 I-0.2 J0
G1 X56.25 Y147.5
Z-10.771 F30
X56.243 Y147.525 F150
X56.225 Y147.543
X56.2 Y147.55
X56.175 Y147.543
X56.157 Y147.525
X56.15 Y147.5
G3 X57.45 Y147.5 I0.65 J0
X54.95 Y147.5 I-1.25 J0
X57.45 Y147.5 I1.25 J0
X57.209 Y147.696 I-0.2 J0
G1 X56.25 Y147.5
Z-11.75 F30
X56.243 Y147.525 F150
X56.225 Y147.543
X56.2 Y147.55
X56.175 Y147.543
X56.157 Y147.525
X56.15 Y147.5
G3 X57.45 Y147.5 I0.65 J0
X54.95 Y147.5 I-1.25 J0
X57.45 Y147.5 I1.25 J0
G0 Z5
X96.25
G1 Z2.5 F30
Z-0.979
X96.243 Y147.525 F150
X96.225 Y147.543
X96.2 Y147.55
X96.175 Y147.543
X96.157 Y147.525
X96.15 Y147.5
G3 X97.45 Y147.5 I0.65 J0
X94.95 Y147.5 I-1.25 J0
X97.45 Y147.5 I1.25 J0
X97.209 Y147.696 I-0.2 J0
G1 X96.25 Y147.5
Z-1.958 F30
X96.243 Y147.525 F150
X96.225 Y147.543
X96.2 Y147.55
X96.175 Y147.543
X96.157 Y147.525
X96.15 Y147.5
G3 X97.45 Y147.5 I0.65 J0
X94.95 Y147.5 I-1.25 J0
X97.45 Y147.5 I1.25 J0
X97.209 Y147.696 I-0.2 J0
G1 X96.25 Y147.5
Z-2.938 F30
X96.243 Y147.525 F150
X96.225 Y147.543
X96.2 Y147.55
X96.175 Y147.543
X96.157 Y147.525
X96.15 Y147.5
G3 X97.45 Y147.5 I0.65 J0
X94.95 Y147.5 I-1.25 J0
X97.45 Y147.5 I1.25 J0
X97.209 Y147.696 I-0.2 J0
G1 X96.25 Y147.5
Z-3.917 F30
X96.243 Y147.525 F150
X96.225 Y147.543
X96.2 Y147.55
X96.175 Y147.543
X96.157 Y147.525
X96.15 Y147.5
G3 X97.45 Y147.5 I0.65 J0
X94.95 Y147.5 I-1.25 J0
X97.45 Y147.5 I1.25 J0
X97.209 Y147.696 I-0.2 J0
G1 X96.25 Y147.5
Z-4.896 F30
X96.243 Y147.525 F150
X96.225 Y147.543
X96.2 Y147.55
X96.175 Y147.543
X96.157 Y147.525
X96.15 Y147.5
G3 X97.45 Y147.5 I0.65 J0
X94.95 Y147.5 I-1.25 J0
X97.45 Y147.5 I1.25 J0
X97.209 Y147.696 I-0.2 J0
G1 X96.25 Y147.5
Z-5.875 F30
X96.243 Y147.525 F150
X96.225 Y147.543
X96.2 Y147.55
X96.175 Y147.543
X96.157 Y147.525
X96.15 Y147.5
G3 X97.45 Y147.5 I0.65 J0
X94.95 Y147.5 I-1.25 J0
X97.45 Y147.5 I1.25 J0
X97.209 Y147.696 I-0.2 J0
G1 X96.25 Y147.5
Z-6.854 F30
X96.243 Y147.525 F150
X96.225 Y147.543
X96.2 Y147.55
X96.175 Y147.543
X96.157 Y147.525
X96.15 Y147.5
G3 X97.45 Y147.5 I0.65 J0
X94.95 Y147.5 I-1.25 J0
X97.45 Y147.5 I1.25 J0
X97.209 Y147.696 I-0.2 J0
G1 X96.25 Y147.5
Z-7.833 F30
X96.243 Y147.525 F150
X96.225 Y147.543
X96.2 Y147.55
X96.175 Y147.543
X96.157 Y147.525
X96.15 Y147.5
G3 X97.45 Y147.5 I0.65 J0
X94.95 Y147.5 I-1.25 J0
X97.45 Y147.5 I1.25 J0
X97.209 Y147.696 I-0.2 J0
G1 X96.25 Y147.5
Z-8.813 F30
X96.243 Y147.525 F150
X96.225 Y147.543
X96.2 Y147.55
X96.175 Y147.543
X96.157 Y147.525
X96.15 Y147.5
G3 X97.45 Y147.5 I0.65 J0
X94.95 Y147.5 I-1.25 J0
X97.45 Y147.5 I1.25 J0
X97.209 Y147.696 I-0.2 J0
G1 X96.25 Y147.5
Z-9.792 F30
X96.243 Y147.525 F150
X96.225 Y147.543
X96.2 Y147.55
X96.175 Y147.543
X96.157 Y147.525
X96.15 Y147.5
G3 X97.45 Y147.5 I0.65 J0
X94.95 Y147.5 I-1.25 J0
X97.45 Y147.5 I1.25 J0
X97.209 Y147.696 I-0.2 J0
G1 X96.25 Y147.5
Z-10.771 F30
X96.243 Y147.525 F150
X96.225 Y147.543
X96.2 Y147.55
X96.175 Y147.543
X96.157 Y147.525
X96.15 Y147.5
G3 X97.45 Y147.5 I0.65 J0
X94.95 Y147.5 I-1.25 J0
X97.45 Y147.5 I1.25 J0
X97.209 Y147.696 I-0.2 J0
G1 X96.25 Y147.5
Z-11.75 F30
X96.243 Y147.525 F150
X96.225 Y147.543
X96.2 Y147.55
X96.175 Y147.543
X96.157 Y147.525
X96.15 Y147.5
G3 X97.45 Y147.5 I0.65 J0
X94.95 Y147.5 I-1.25 J0
X97.45 Y147.5 I1.25 J0
G0 Z5
X127.8 Y186.85
G1 Z2.5 F30
Z-0.979
G3 X126.6 Y186.85 I-0.6 J0 F150
X129 Y186.85 I1.2 J0
X125.4 Y186.85 I-1.8 J0
X130.2 Y186.85 I2.4 J0
X124.2 Y186.85 I-3 J0
X130.2 Y186.85 I3 J0
G1 Z1.521
X127.8
Z-1.958 F30
G3 X126.6 Y186.85 I-0.6 J0 F150
X129 Y186.85 I1.2 J0
X125.4 Y186.85 I-1.8 J0
X130.2 Y186.85 I2.4 J0
X124.2 Y186.85 I-3 J0
X130.2 Y186.85 I3 J0
G1 Z0.542
X127.8
Z-2.938 F30
G3 X126.6 Y186.85 I-0.6 J0 F150
X129 Y186.85 I1.2 J0
X125.4 Y186.85 I-1.8 J0
X130.2 Y186.85 I2.4 J0
X124.2 Y186.85 I-3 J0
X130.2 Y186.85 I3 J0
G1 Z-0.438
X127.8
Z-3.917 F30
G3 X126.6 Y186.85 I-0.6 J0 F150
X129 Y186.85 I1.2 J0
X125.4 Y186.85 I-1.8 J0
X130.2 Y186.85 I2.4 J0
X124.2 Y186.85 I-3 J0
X130.2 Y186.85 I3 J0
G1 Z-1.417
X127.8
Z-4.896 F30
G3 X126.6 Y186.85 I-0.6 J0 F150
X129 Y186.85 I1.2 J0
X125.4 Y186.85 I-1.8 J0
X130.2 Y186.85 I2.4 J0
X124.2 Y186.85 I-3 J0
X130.2 Y186.85 I3 J0
G1 Z-2.396
X127.8
Z-5.875 F30
G3 X126.6 Y186.85 I-0.6 J0 F150
X129 Y186.85 I1.2 J0
X125.4 Y186.85 I-1.8 J0
X130.2 Y186.85 I2.4 J0
X124.2 Y186.85 I-3 J0
X130.2 Y186.85 I3 J0
G1 Z-3.375
X127.8
Z-6.854 F30
G3 X126.6 Y186.85 I-0.6 J0 F150
X129 Y186.85 I1.2 J0
X125.4 Y186.85 I-1.8 J0
X130.2 Y186.85 I2.4 J0
X124.2 Y186.85 I-3 J0
X130.2 Y186.85 I3 J0
G1 Z-4.354
X127.8
Z-7.833 F30
G3 X126.6 Y186.85 I-0.6 J0 F150
X129 Y186.85 I1.2 J0
X125.4 Y186.85 I-1.8 J0
X130.2 Y186.85 I2.4 J0
X124.2 Y186.85 I-3 J0
X130.2 Y186.85 I3 J0
G1 Z-5.333
X127.8
Z-8.813 F30
G3 X126.6 Y186.85 I-0.6 J0 F150
X129 Y186.85 I1.2 J0
X125.4 Y186.85 I-1.8 J0
X130.2 Y186.85 I2.4 J0
X124.2 Y186.85 I-3 J0
X130.2 Y186.85 I3 J0
G1 Z-6.313
X127.8
Z-9.792 F30
G3 X126.6 Y186.85 I-0.6 J0 F150
X129 Y186.85 I1.2 J0
X125.4 Y186.85 I-1.8 J0
X130.2 Y186.85 I2.4 J0
X124.2 Y186.85 I-3 J0
X130.2 Y186.85 I3 J0
G1 Z-7.292
X127.8
Z-10.771 F30
G3 X126.6 Y186.85 I-0.6 J0 F150
X129 Y186.85 I1.2 J0
X125.4 Y186.85 I-1.8 J0
X130.2 Y186.85 I2.4 J0
X124.2 Y186.85 I-3 J0
X130.2 Y186.85 I3 J0
G1 Z-8.271
X127.8
Z-11.75 F30
G3 X126.6 Y186.85 I-0.6 J0 F150
X129 Y186.85 I1.2 J0
X125.4 Y186.85 I-1.8 J0
X130.2 Y186.85 I2.4 J0
X124.2 Y186.85 I-3 J0
X130.2 Y186.85 I3 J0
G0 Z5
X127.8 Y229.15
G1 Z2.5 F30
Z-0.979
G3 X126.6 Y229.15 I-0.6 J0 F150
X129 Y229.15 I1.2 J0
X125.4 Y229.15 I-1.8 J0
X130.2 Y229.15 I2.4 J0
X124.2 Y229.15 I-3 J0
X130.2 Y229.15 I3 J0
G1 Z1.521
X127.8
Z-1.958 F30
G3 X126.6 Y229.15 I-0.6 J0 F150
X129 Y229.15 I1.2 J0
X125.4 Y229.15 I-1.8 J0
X130.2 Y229.15 I2.4 J0
X124.2 Y229.15 I-3 J0
X130.2 Y229.15 I3 J0
G1 Z0.542
X127.8
Z-2.938 F30
G3 X126.6 Y229.15 I-0.6 J0 F150
X129 Y229.15 I1.2 J0
X125.4 Y229.15 I-1.8 J0
X130.2 Y229.15 I2.4 J0
X124.2 Y229.15 I-3 J0
X130.2 Y229.15 I3 J0
G1 Z-0.438
X127.8
Z-3.917 F30
G3 X126.6 Y229.15 I-0.6 J0 F150
X129 Y229.15 I1.2 J0
X125.4 Y229.15 I-1.8 J0
X130.2 Y229.15 I2.4 J0
X124.2 Y229.15 I-3 J0
X130.2 Y229.15 I3 J0
G1 Z-1.417
X127.8
Z-4.896 F30
G3 X126.6 Y229.15 I-0.6 J0 F150
X129 Y229.15 I1.2 J0
X125.4 Y229.15 I-1.8 J0
X130.2 Y229.15 I2.4 J0
X124.2 Y229.15 I-3 J0
X130.2 Y229.15 I3 J0
G1 Z-2.396
X127.8
Z-5.875 F30
G3 X126.6 Y229.15 I-0.6 J0 F150
X129 Y229.15 I1.2 J0
X125.4 Y229.15 I-1.8 J0
X130.2 Y229.15 I2.4 J0
X124.2 Y229.15 I-3 J0
X130.2 Y229.15 I3 J0
G1 Z-3.375
X127.8
Z-6.854 F30
G3 X126.6 Y229.15 I-0.6 J0 F150
X129 Y229.15 I1.2 J0
X125.4 Y229.15 I-1.8 J0
X130.2 Y229.15 I2.4 J0
X124.2 Y229.15 I-3 J0
X130.2 Y229.15 I3 J0
G1 Z-4.354
X127.8
Z-7.833 F30
G3 X126.6 Y229.15 I-0.6 J0 F150
X129 Y229.15 I1.2 J0
X125.4 Y229.15 I-1.8 J0
X130.2 Y229.15 I2.4 J0
X124.2 Y229.15 I-3 J0
X130.2 Y229.15 I3 J0
G1 Z-5.333
X127.8
Z-8.813 F30
G3 X126.6 Y229.15 I-0.6 J0 F150
X129 Y229.15 I1.2 J0
X125.4 Y229.15 I-1.8 J0
X130.2 Y229.15 I2.4 J0
X124.2 Y229.15 I-3 J0
X130.2 Y229.15 I3 J0
G1 Z-6.313
X127.8
Z-9.792 F30
G3 X126.6 Y229.15 I-0.6 J0 F150
X129 Y229.15 I1.2 J0
X125.4 Y229.15 I-1.8 J0
X130.2 Y229.15 I2.4 J0
X124.2 Y229.15 I-3 J0
X130.2 Y229.15 I3 J0
G1 Z-7.292
X127.8
Z-10.771 F30
G3 X126.6 Y229.15 I-0.6 J0 F150
X129 Y229.15 I1.2 J0
X125.4 Y229.15 I-1.8 J0
X130.2 Y229.15 I2.4 J0
X124.2 Y229.15 I-3 J0
X130.2 Y229.15 I3 J0
G1 Z-8.271
X127.8
Z-11.75 F30
G3 X126.6 Y229.15 I-0.6 J0 F150
X129 Y229.15 I1.2 J0
X125.4 Y229.15 I-1.8 J0
X130.2 Y229.15 I2.4 J0
X124.2 Y229.15 I-3 J0
X130.2 Y229.15 I3 J0
G0 Z5
X25.8
G1 Z2.5 F30
Z-0.979
G3 X24.6 Y229.15 I-0.6 J0 F150
X27 Y229.15 I1.2 J0
X23.4 Y229.15 I-1.8 J0
X28.2 Y229.15 I2.4 J0
X22.2 Y229.15 I-3 J0
X28.2 Y229.15 I3 J0
G1 Z1.521
X25.8
Z-1.958 F30
G3 X24.6 Y229.15 I-0.6 J0 F150
X27 Y229.15 I1.2 J0
X23.4 Y229.15 I-1.8 J0
X28.2 Y229.15 I2.4 J0
X22.2 Y229.15 I-3 J0
X28.2 Y229.15 I3 J0
G1 Z0.542
X25.8
Z-2.938 F30
G3 X24.6 Y229.15 I-0.6 J0 F150
X27 Y229.15 I1.2 J0
X23.4 Y229.15 I-1.8 J0
X28.2 Y229.15 I2.4 J0
X22.2 Y229.15 I-3 J0
X28.2 Y229.15 I3 J0
G1 Z-0.438
X25.8
Z-3.917 F30
G3 X24.6 Y229.15 I-0.6 J0 F150
X27 Y229.15 I1.2 J0
X23.4 Y229.15 I-1.8 J0
X28.2 Y229.15 I2.4 J0
X22.2 Y229.15 I-3 J0
X28.2 Y229.15 I3 J0
G1 Z-1.417
X25.8
Z-4.896 F30
G3 X24.6 Y229.15 I-0.6 J0 F150
X27 Y229.15 I1.2 J0
X23.4 Y229.15 I-1.8 J0
X28.2 Y229.15 I2.4 J0
X22.2 Y229.15 I-3 J0
X28.2 Y229.15 I3 J0
G1 Z-2.396
X25.8
Z-5.875 F30
G3 X24.6 Y229.15 I-0.6 J0 F150
X27 Y229.15 I1.2 J0
X23.4 Y229.15 I-1.8 J0
X28.2 Y229.15 I2.4 J0
X22.2 Y229.15 I-3 J0
X28.2 Y229.15 I3 J0
G1 Z-3.375
X25.8
Z-6.854 F30
G3 X24.6 Y229.15 I-0.6 J0 F150
X27 Y229.15 I1.2 J0
X23.4 Y229.15 I-1.8 J0
X28.2 Y229.15 I2.4 J0
X22.2 Y229.15 I-3 J0
X28.2 Y229.15 I3 J0
G1 Z-4.354
X25.8
Z-7.833 F30
G3 X24.6 Y229.15 I-0.6 J0 F150
X27 Y229.15 I1.2 J0
X23.4 Y229.15 I-1.8 J0
X28.2 Y229.15 I2.4 J0
X22.2 Y229.15 I-3 J0
X28.2 Y229.15 I3 J0
G1 Z-5.333
X25.8
Z-8.813 F30
G3 X24.6 Y229.15 I-0.6 J0 F150
X27 Y229.15 I1.2 J0
X23.4 Y229.15 I-1.8 J0
X28.2 Y229.15 I2.4 J0
X22.2 Y229.15 I-3 J0
X28.2 Y229.15 I3 J0
G1 Z-6.313
X25.8
Z-9.792 F30
G3 X24.6 Y229.15 I-0.6 J0 F150
X27 Y229.15 I1.2 J0
X23.4 Y229.15 I-1.8 J0
X28.2 Y229.15 I2.4 J0
X22.2 Y229.15 I-3 J0
X28.2 Y229.15 I3 J0
G1 Z-7.292
X25.8
Z-10.771 F30
G3 X24.6 Y229.15 I-0.6 J0 F150
X27 Y229.15 I1.2 J0
X23.4 Y229.15 I-1.8 J0
X28.2 Y229.15 I2.4 J0
X22.2 Y229.15 I-3 J0
X28.2 Y229.15 I3 J0
G1 Z-8.271
X25.8
Z-11.75 F30
G3 X24.6 Y229.15 I-0.6 J0 F150
X27 Y229.15 I1.2 J0
X23.4 Y229.15 I-1.8 J0
X28.2 Y229.15 I2.4 J0
X22.2 Y229.15 I-3 J0
X28.2 Y229.15 I3 J0
G0 Z5
X25.8 Y186.85
G1 Z2.5 F30
Z-0.979
G3 X24.6 Y186.85 I-0.6 J0 F150
X27 Y186.85 I1.2 J0
X23.4 Y186.85 I-1.8 J0
X28.2 Y186.85 I2.4 J0
X22.2 Y186.85 I-3 J0
X28.2 Y186.85 I3 J0
G1 Z1.521
X25.8
Z-1.958 F30
G3 X24.6 Y186.85 I-0.6 J0 F150
X27 Y186.85 I1.2 J0
X23.4 Y186.85 I-1.8 J0
X28.2 Y186.85 I2.4 J0
X22.2 Y186.85 I-3 J0
X28.2 Y186.85 I3 J0
G1 Z0.542
X25.8
Z-2.938 F30
G3 X24.6 Y186.85 I-0.6 J0 F150
X27 Y186.85 I1.2 J0
X23.4 Y186.85 I-1.8 J0
X28.2 Y186.85 I2.4 J0
X22.2 Y186.85 I-3 J0
X28.2 Y186.85 I3 J0
G1 Z-0.438
X25.8
Z-3.917 F30
G3 X24.6 Y186.85 I-0.6 J0 F150
X27 Y186.85 I1.2 J0
X23.4 Y186.85 I-1.8 J0
X28.2 Y186.85 I2.4 J0
X22.2 Y186.85 I-3 J0
X28.2 Y186.85 I3 J0
G1 Z-1.417
X25.8
Z-4.896 F30
G3 X24.6 Y186.85 I-0.6 J0 F150
X27 Y186.85 I1.2 J0
X23.4 Y186.85 I-1.8 J0
X28.2 Y186.85 I2.4 J0
X22.2 Y186.85 I-3 J0
X28.2 Y186.85 I3 J0
G1 Z-2.396
X25.8
Z-5.875 F30
G3 X24.6 Y186.85 I-0.6 J0 F150
X27 Y186.85 I1.2 J0
X23.4 Y186.85 I-1.8 J0
X28.2 Y186.85 I2.4 J0
X22.2 Y186.85 I-3 J0
X28.2 Y186.85 I3 J0
G1 Z-3.375
X25.8
Z-6.854 F30
G3 X24.6 Y186.85 I-0.6 J0 F150
X27 Y186.85 I1.2 J0
X23.4 Y186.85 I-1.8 J0
X28.2 Y186.85 I2.4 J0
X22.2 Y186.85 I-3 J0
X28.2 Y186.85 I3 J0
G1 Z-4.354
X25.8
Z-7.833 F30
G3 X24.6 Y186.85 I-0.6 J0 F150
X27 Y186.85 I1.2 J0
X23.4 Y186.85 I-1.8 J0
X28.2 Y186.85 I2.4 J0
X22.2 Y186.85 I-3 J0
X28.2 Y186.85 I3 J0
G1 Z-5.333
X25.8
Z-8.813 F30
G3 X24.6 Y186.85 I-0.6 J0 F150
X27 Y186.85 I1.2 J0
X23.4 Y186.85 I-1.8 J0
X28.2 Y186.85 I2.4 J0
X22.2 Y186.85 I-3 J0
X28.2 Y186.85 I3 J0
G1 Z-6.313
X25.8
Z-9.792 F30
G3 X24.6 Y186.85 I-0.6 J0 F150
X27 Y186.85 I1.2 J0
X23.4 Y186.85 I-1.8 J0
X28.2 Y186.85 I2.4 J0
X22.2 Y186.85 I-3 J0
X28.2 Y186.85 I3 J0
G1 Z-7.292
X25.8
Z-10.771 F30
G3 X24.6 Y186.85 I-0.6 J0 F150
X27 Y186.85 I1.2 J0
X23.4 Y186.85 I-1.8 J0
X28.2 Y186.85 I2.4 J0
X22.2 Y186.85 I-3 J0
X28.2 Y186.85 I3 J0
G1 Z-8.271
X25.8
Z-11.75 F30
G3 X24.6 Y186.85 I-0.6 J0 F150
X27 Y186.85 I1.2 J0
X23.4 Y186.85 I-1.8 J0
X28.2 Y186.85 I2.4 J0
X22.2 Y186.85 I-3 J0
X28.2 Y186.85 I3 J0
G0 Z5
X76.25 Y87.5
G1 Z2.5 F30
Z-0.979
X76.243 Y87.525 F150
X76.225 Y87.543
X76.2 Y87.55
X76.175 Y87.543
X76.157 Y87.525
X76.15 Y87.5
G3 X77.45 Y87.5 I0.65 J0
X74.95 Y87.5 I-1.25 J0
X77.45 Y87.5 I1.25 J0
X77.209 Y87.696 I-0.2 J0
G1 X76.25 Y87.5
Z-1.958 F30
X76.243 Y87.525 F150
X76.225 Y87.543
X76.2 Y87.55
X76.175 Y87.543
X76.157 Y87.525
X76.15 Y87.5
G3 X77.45 Y87.5 I0.65 J0
X74.95 Y87.5 I-1.25 J0
X77.45 Y87.5 I1.25 J0
X77.209 Y87.696 I-0.2 J0
G1 X76.25 Y87.5
Z-2.938 F30
X76.243 Y87.525 F150
X76.225 Y87.543
X76.2 Y87.55
X76.175 Y87.543
X76.157 Y87.525
X76.15 Y87.5
G3 X77.45 Y87.5 I0.65 J0
X74.95 Y87.5 I-1.25 J0
X77.45 Y87.5 I1.25 J0
X77.209 Y87.696 I-0.2 J0
G1 X76.25 Y87.5
Z-3.917 F30
X76.243 Y87.525 F150
X76.225 Y87.543
X76.2 Y87.55
X76.175 Y87.543
X76.157 Y87.525
X76.15 Y87.5
G3 X77.45 Y87.5 I0.65 J0
X74.95 Y87.5 I-1.25 J0
X77.45 Y87.5 I1.25 J0
X77.209 Y87.696 I-0.2 J0
G1 X76.25 Y87.5
Z-4.896 F30
X76.243 Y87.525 F150
X76.225 Y87.543
X76.2 Y87.55
X76.175 Y87.543
X76.157 Y87.525
X76.15 Y87.5
G3 X77.45 Y87.5 I0.65 J0
X74.95 Y87.5 I-1.25 J0
X77.45 Y87.5 I1.25 J0
X77.209 Y87.696 I-0.2 J0
G1 X76.25 Y87.5
Z-5.875 F30
X76.243 Y87.525 F150
X76.225 Y87.543
X76.2 Y87.55
X76.175 Y87.543
X76.157 Y87.525
X76.15 Y87.5
G3 X77.45 Y87.5 I0.65 J0
X74.95 Y87.5 I-1.25 J0
X77.45 Y87.5 I1.25 J0
X77.209 Y87.696 I-0.2 J0
G1 X76.25 Y87.5
Z-6.854 F30
X76.243 Y87.525 F150
X76.225 Y87.543
X76.2 Y87.55
X76.175 Y87.543
X76.157 Y87.525
X76.15 Y87.5
G3 X77.45 Y87.5 I0.65 J0
X74.95 Y87.5 I-1.25 J0
X77.45 Y87.5 I1.25 J0
X77.209 Y87.696 I-0.2 J0
G1 X76.25 Y87.5
Z-7.833 F30
X76.243 Y87.525 F150
X76.225 Y87.543
X76.2 Y87.55
X76.175 Y87.543
X76.157 Y87.525
X76.15 Y87.5
G3 X77.45 Y87.5 I0.65 J0
X74.95 Y87.5 I-1.25 J0
X77.45 Y87.5 I1.25 J0
X77.209 Y87.696 I-0.2 J0
G1 X76.25 Y87.5
Z-8.813 F30
X76.243 Y87.525 F150
X76.225 Y87.543
X76.2 Y87.55
X76.175 Y87.543
X76.157 Y87.525
X76.15 Y87.5
G3 X77.45 Y87.5 I0.65 J0
X74.95 Y87.5 I-1.25 J0
X77.45 Y87.5 I1.25 J0
X77.209 Y87.696 I-0.2 J0
G1 X76.25 Y87.5
Z-9.792 F30
X76.243 Y87.525 F150
X76.225 Y87.543
X76.2 Y87.55
X76.175 Y87.543
X76.157 Y87.525
X76.15 Y87.5
G3 X77.45 Y87.5 I0.65 J0
X74.95 Y87.5 I-1.25 J0
X77.45 Y87.5 I1.25 J0
X77.209 Y87.696 I-0.2 J0
G1 X76.25 Y87.5
Z-10.771 F30
X76.243 Y87.525 F150
X76.225 Y87.543
X76.2 Y87.55
X76.175 Y87.543
X76.157 Y87.525
X76.15 Y87.5
G3 X77.45 Y87.5 I0.65 J0
X74.95 Y87.5 I-1.25 J0
X77.45 Y87.5 I1.25 J0
X77.209 Y87.696 I-0.2 J0
G1 X76.25 Y87.5
Z-11.75 F30
X76.243 Y87.525 F150
X76.225 Y87.543
X76.2 Y87.55
X76.175 Y87.543
X76.157 Y87.525
X76.15 Y87.5
G3 X77.45 Y87.5 I0.65 J0
X74.95 Y87.5 I-1.25 J0
X77.45 Y87.5 I1.25 J0
G0 Z5
X127.8 Y67.15
G1 Z2.5 F30
Z-0.979
G3 X126.6 Y67.15 I-0.6 J0 F150
X129 Y67.15 I1.2 J0
X125.4 Y67.15 I-1.8 J0
X130.2 Y67.15 I2.4 J0
X124.2 Y67.15 I-3 J0
X130.2 Y67.15 I3 J0
G1 Z1.521
X127.8
Z-1.958 F30
G3 X126.6 Y67.15 I-0.6 J0 F150
X129 Y67.15 I1.2 J0
X125.4 Y67.15 I-1.8 J0
X130.2 Y67.15 I2.4 J0
X124.2 Y67.15 I-3 J0
X130.2 Y67.15 I3 J0
G1 Z0.542
X127.8
Z-2.938 F30
G3 X126.6 Y67.15 I-0.6 J0 F150
X129 Y67.15 I1.2 J0
X125.4 Y67.15 I-1.8 J0
X130.2 Y67.15 I2.4 J0
X124.2 Y67.15 I-3 J0
X130.2 Y67.15 I3 J0
G1 Z-0.438
X127.8
Z-3.917 F30
G3 X126.6 Y67.15 I-0.6 J0 F150
X129 Y67.15 I1.2 J0
X125.4 Y67.15 I-1.8 J0
X130.2 Y67.15 I2.4 J0
X124.2 Y67.15 I-3 J0
X130.2 Y67.15 I3 J0
G1 Z-1.417
X127.8
Z-4.896 F30
G3 X126.6 Y67.15 I-0.6 J0 F150
X129 Y67.15 I1.2 J0
X125.4 Y67.15 I-1.8 J0
X130.2 Y67.15 I2.4 J0
X124.2 Y67.15 I-3 J0
X130.2 Y67.15 I3 J0
G1 Z-2.396
X127.8
Z-5.875 F30
G3 X126.6 Y67.15 I-0.6 J0 F150
X129 Y67.15 I1.2 J0
X125.4 Y67.15 I-1.8 J0
X130.2 Y67.15 I2.4 J0
X124.2 Y67.15 I-3 J0
X130.2 Y67.15 I3 J0
G1 Z-3.375
X127.8
Z-6.854 F30
G3 X126.6 Y67.15 I-0.6 J0 F150
X129 Y67.15 I1.2 J0
X125.4 Y67.15 I-1.8 J0
X130.2 Y67.15 I2.4 J0
X124.2 Y67.15 I-3 J0
X130.2 Y67.15 I3 J0
G1 Z-4.354
X127.8
Z-7.833 F30
G3 X126.6 Y67.15 I-0.6 J0 F150
X129 Y67.15 I1.2 J0
X125.4 Y67.15 I-1.8 J0
X130.2 Y67.15 I2.4 J0
X124.2 Y67.15 I-3 J0
X130.2 Y67.15 I3 J0
G1 Z-5.333
X127.8
Z-8.813 F30
G3 X126.6 Y67.15 I-0.6 J0 F150
X129 Y67.15 I1.2 J0
X125.4 Y67.15 I-1.8 J0
X130.2 Y67.15 I2.4 J0
X124.2 Y67.15 I-3 J0
X130.2 Y67.15 I3 J0
G1 Z-6.313
X127.8
Z-9.792 F30
G3 X126.6 Y67.15 I-0.6 J0 F150
X129 Y67.15 I1.2 J0
X125.4 Y67.15 I-1.8 J0
X130.2 Y67.15 I2.4 J0
X124.2 Y67.15 I-3 J0
X130.2 Y67.15 I3 J0
G1 Z-7.292
X127.8
Z-10.771 F30
G3 X126.6 Y67.15 I-0.6 J0 F150
X129 Y67.15 I1.2 J0
X125.4 Y67.15 I-1.8 J0
X130.2 Y67.15 I2.4 J0
X124.2 Y67.15 I-3 J0
X130.2 Y67.15 I3 J0
G1 Z-8.271
X127.8
Z-11.75 F30
G3 X126.6 Y67.15 I-0.6 J0 F150
X129 Y67.15 I1.2 J0
X125.4 Y67.15 I-1.8 J0
X130.2 Y67.15 I2.4 J0
X124.2 Y67.15 I-3 J0
X130.2 Y67.15 I3 J0
G0 Z5
X127.8 Y24.85
G1 Z2.5 F30
Z-0.979
G3 X126.6 Y24.85 I-0.6 J0 F150
X129 Y24.85 I1.2 J0
X125.4 Y24.85 I-1.8 J0
X130.2 Y24.85 I2.4 J0
X124.2 Y24.85 I-3 J0
X130.2 Y24.85 I3 J0
G1 Z1.521
X127.8
Z-1.958 F30
G3 X126.6 Y24.85 I-0.6 J0 F150
X129 Y24.85 I1.2 J0
X125.4 Y24.85 I-1.8 J0
X130.2 Y24.85 I2.4 J0
X124.2 Y24.85 I-3 J0
X130.2 Y24.85 I3 J0
G1 Z0.542
X127.8
Z-2.938 F30
G3 X126.6 Y24.85 I-0.6 J0 F150
X129 Y24.85 I1.2 J0
X125.4 Y24.85 I-1.8 J0
X130.2 Y24.85 I2.4 J0
X124.2 Y24.85 I-3 J0
X130.2 Y24.85 I3 J0
G1 Z-0.438
X127.8
Z-3.917 F30
G3 X126.6 Y24.85 I-0.6 J0 F150
X129 Y24.85 I1.2 J0
X125.4 Y24.85 I-1.8 J0
X130.2 Y24.85 I2.4 J0
X124.2 Y24.85 I-3 J0
X130.2 Y24.85 I3 J0
G1 Z-1.417
X127.8
Z-4.896 F30
G3 X126.6 Y24.85 I-0.6 J0 F150
X129 Y24.85 I1.2 J0
X125.4 Y24.85 I-1.8 J0
X130.2 Y24.85 I2.4 J0
X124.2 Y24.85 I-3 J0
X130.2 Y24.85 I3 J0
G1 Z-2.396
X127.8
Z-5.875 F30
G3 X126.6 Y24.85 I-0.6 J0 F150
X129 Y24.85 I1.2 J0
X125.4 Y24.85 I-1.8 J0
X130.2 Y24.85 I2.4 J0
X124.2 Y24.85 I-3 J0
X130.2 Y24.85 I3 J0
G1 Z-3.375
X127.8
Z-6.854 F30
G3 X126.6 Y24.85 I-0.6 J0 F150
X129 Y24.85 I1.2 J0
X125.4 Y24.85 I-1.8 J0
X130.2 Y24.85 I2.4 J0
X124.2 Y24.85 I-3 J0
X130.2 Y24.85 I3 J0
G1 Z-4.354
X127.8
Z-7.833 F30
G3 X126.6 Y24.85 I-0.6 J0 F150
X129 Y24.85 I1.2 J0
X125.4 Y24.85 I-1.8 J0
X130.2 Y24.85 I2.4 J0
X124.2 Y24.85 I-3 J0
X130.2 Y24.85 I3 J0
G1 Z-5.333
X127.8
Z-8.813 F30
G3 X126.6 Y24.85 I-0.6 J0 F150
X129 Y24.85 I1.2 J0
X125.4 Y24.85 I-1.8 J0
X130.2 Y24.85 I2.4 J0
X124.2 Y24.85 I-3 J0
X130.2 Y24.85 I3 J0
G1 Z-6.313
X127.8
Z-9.792 F30
G3 X126.6 Y24.85 I-0.6 J0 F150
X129 Y24.85 I1.2 J0
X125.4 Y24.85 I-1.8 J0
X130.2 Y24.85 I2.4 J0
X124.2 Y24.85 I-3 J0
X130.2 Y24.85 I3 J0
G1 Z-7.292
X127.8
Z-10.771 F30
G3 X126.6 Y24.85 I-0.6 J0 F150
X129 Y24.85 I1.2 J0
X125.4 Y24.85 I-1.8 J0
X130.2 Y24.85 I2.4 J0
X124.2 Y24.85 I-3 J0
X130.2 Y24.85 I3 J0
G1 Z-8.271
X127.8
Z-11.75 F30
G3 X126.6 Y24.85 I-0.6 J0 F150
X129 Y24.85 I1.2 J0
X125.4 Y24.85 I-1.8 J0
X130.2 Y24.85 I2.4 J0
X124.2 Y24.85 I-3 J0
X130.2 Y24.85 I3 J0
G0 Z5
X96.25 Y27.5
G1 Z2.5 F30
Z-0.979
X96.243 Y27.525 F150
X96.225 Y27.543
X96.2 Y27.55
X96.175 Y27.543
X96.157 Y27.525
X96.15 Y27.5
G3 X97.45 Y27.5 I0.65 J0
X94.95 Y27.5 I-1.25 J0
X97.45 Y27.5 I1.25 J0
X97.209 Y27.696 I-0.2 J0
G1 X96.25 Y27.5
Z-1.958 F30
X96.243 Y27.525 F150
X96.225 Y27.543
X96.2 Y27.55
X96.175 Y27.543
X96.157 Y27.525
X96.15 Y27.5
G3 X97.45 Y27.5 I0.65 J0
X94.95 Y27.5 I-1.25 J0
X97.45 Y27.5 I1.25 J0
X97.209 Y27.696 I-0.2 J0
G1 X96.25 Y27.5
Z-2.938 F30
X96.243 Y27.525 F150
X96.225 Y27.543
X96.2 Y27.55
X96.175 Y27.543
X96.157 Y27.525
X96.15 Y27.5
G3 X97.45 Y27.5 I0.65 J0
X94.95 Y27.5 I-1.25 J0
X97.45 Y27.5 I1.25 J0
X97.209 Y27.696 I-0.2 J0
G1 X96.25 Y27.5
Z-3.917 F30
X96.243 Y27.525 F150
X96.225 Y27.543
X96.2 Y27.55
X96.175 Y27.543
X96.157 Y27.525
X96.15 Y27.5
G3 X97.45 Y27.5 I0.65 J0
X94.95 Y27.5 I-1.25 J0
X97.45 Y27.5 I1.25 J0
X97.209 Y27.696 I-0.2 J0
G1 X96.25 Y27.5
Z-4.896 F30
X96.243 Y27.525 F150
X96.225 Y27.543
X96.2 Y27.55
X96.175 Y27.543
X96.157 Y27.525
X96.15 Y27.5
G3 X97.45 Y27.5 I0.65 J0
X94.95 Y27.5 I-1.25 J0
X97.45 Y27.5 I1.25 J0
X97.209 Y27.696 I-0.2 J0
G1 X96.25 Y27.5
Z-5.875 F30
X96.243 Y27.525 F150
X96.225 Y27.543
X96.2 Y27.55
X96.175 Y27.543
X96.157 Y27.525
X96.15 Y27.5
G3 X97.45 Y27.5 I0.65 J0
X94.95 Y27.5 I-1.25 J0
X97.45 Y27.5 I1.25 J0
X97.209 Y27.696 I-0.2 J0
G1 X96.25 Y27.5
Z-6.854 F30
X96.243 Y27.525 F150
X96.225 Y27.543
X96.2 Y27.55
X96.175 Y27.543
X96.157 Y27.525
X96.15 Y27.5
G3 X97.45 Y27.5 I0.65 J0
X94.95 Y27.5 I-1.25 J0
X97.45 Y27.5 I1.25 J0
X97.209 Y27.696 I-0.2 J0
G1 X96.25 Y27.5
Z-7.833 F30
X96.243 Y27.525 F150
X96.225 Y27.543
X96.2 Y27.55
X96.175 Y27.543
X96.157 Y27.525
X96.15 Y27.5
G3 X97.45 Y27.5 I0.65 J0
X94.95 Y27.5 I-1.25 J0
X97.45 Y27.5 I1.25 J0
X97.209 Y27.696 I-0.2 J0
G1 X96.25 Y27.5
Z-8.813 F30
X96.243 Y27.525 F150
X96.225 Y27.543
X96.2 Y27.55
X96.175 Y27.543
X96.157 Y27.525
X96.15 Y27.5
G3 X97.45 Y27.5 I0.65 J0
X94.95 Y27.5 I-1.25 J0
X97.45 Y27.5 I1.25 J0
X97.209 Y27.696 I-0.2 J0
G1 X96.25 Y27.5
Z-9.792 F30
X96.243 Y27.525 F150
X96.225 Y27.543
X96.2 Y27.55
X96.175 Y27.543
X96.157 Y27.525
X96.15 Y27.5
G3 X97.45 Y27.5 I0.65 J0
X94.95 Y27.5 I-1.25 J0
X97.45 Y27.5 I1.25 J0
X97.209 Y27.696 I-0.2 J0
G1 X96.25 Y27.5
Z-10.771 F30
X96.243 Y27.525 F150
X96.225 Y27.543
X96.2 Y27.55
X96.175 Y27.543
X96.157 Y27.525
X96.15 Y27.5
G3 X97.45 Y27.5 I0.65 J0
X94.95 Y27.5 I-1.25 J0
X97.45 Y27.5 I1.25 J0
X97.209 Y27.696 I-0.2 J0
G1 X96.25 Y27.5
Z-11.75 F30
X96.243 Y27.525 F150
X96.225 Y27.543
X96.2 Y27.55
X96.175 Y27.543
X96.157 Y27.525
X96.15 Y27.5
G3 X97.45 Y27.5 I0.65 J0
X94.95 Y27.5 I-1.25 J0
X97.45 Y27.5 I1.25 J0
G0 Z5
X56.25
G1 Z2.5 F30
Z-0.979
X56.243 Y27.525 F150
X56.225 Y27.543
X56.2 Y27.55
X56.175 Y27.543
X56.157 Y27.525
X56.15 Y27.5
G3 X57.45 Y27.5 I0.65 J0
X54.95 Y27.5 I-1.25 J0
X57.45 Y27.5 I1.25 J0
X57.209 Y27.696 I-0.2 J0
G1 X56.25 Y27.5
Z-1.958 F30
X56.243 Y27.525 F150
X56.225 Y27.543
X56.2 Y27.55
X56.175 Y27.543
X56.157 Y27.525
X56.15 Y27.5
G3 X57.45 Y27.5 I0.65 J0
X54.95 Y27.5 I-1.25 J0
X57.45 Y27.5 I1.25 J0
X57.209 Y27.696 I-0.2 J0
G1 X56.25 Y27.5
Z-2.938 F30
X56.243 Y27.525 F150
X56.225 Y27.543
X56.2 Y27.55
X56.175 Y27.543
X56.157 Y27.525
X56.15 Y27.5
G3 X57.45 Y27.5 I0.65 J0
X54.95 Y27.5 I-1.25 J0
X57.45 Y27.5 I1.25 J0
X57.209 Y27.696 I-0.2 J0
G1 X56.25 Y27.5
Z-3.917 F30
X56.243 Y27.525 F150
X56.225 Y27.543
X56.2 Y27.55
X56.175 Y27.543
X56.157 Y27.525
X56.15 Y27.5
G3 X57.45 Y27.5 I0.65 J0
X54.95 Y27.5 I-1.25 J0
X57.45 Y27.5 I1.25 J0
X57.209 Y27.696 I-0.2 J0
G1 X56.25 Y27.5
Z-4.896 F30
X56.243 Y27.525 F150
X56.225 Y27.543
X56.2 Y27.55
X56.175 Y27.543
X56.157 Y27.525
X56.15 Y27.5
G3 X57.45 Y27.5 I0.65 J0
X54.95 Y27.5 I-1.25 J0
X57.45 Y27.5 I1.25 J0
X57.209 Y27.696 I-0.2 J0
G1 X56.25 Y27.5
Z-5.875 F30
X56.243 Y27.525 F150
X56.225 Y27.543
X56.2 Y27.55
X56.175 Y27.543
X56.157 Y27.525
X56.15 Y27.5
G3 X57.45 Y27.5 I0.65 J0
X54.95 Y27.5 I-1.25 J0
X57.45 Y27.5 I1.25 J0
X57.209 Y27.696 I-0.2 J0
G1 X56.25 Y27.5
Z-6.854 F30
X56.243 Y27.525 F150
X56.225 Y27.543
X56.2 Y27.55
X56.175 Y27.543
X56.157 Y27.525
X56.15 Y27.5
G3 X57.45 Y27.5 I0.65 J0
X54.95 Y27.5 I-1.25 J0
X57.45 Y27.5 I1.25 J0
X57.209 Y27.696 I-0.2 J0
G1 X56.25 Y27.5
Z-7.833 F30
X56.243 Y27.525 F150
X56.225 Y27.543
X56.2 Y27.55
X56.175 Y27.543
X56.157 Y27.525
X56.15 Y27.5
G3 X57.45 Y27.5 I0.65 J0
X54.95 Y27.5 I-1.25 J0
X57.45 Y27.5 I1.25 J0
X57.209 Y27.696 I-0.2 J0
G1 X56.25 Y27.5
Z-8.813 F30
X56.243 Y27.525 F150
X56.225 Y27.543
X56.2 Y27.55
X56.175 Y27.543
X56.157 Y27.525
X56.15 Y27.5
G3 X57.45 Y27.5 I0.65 J0
X54.95 Y27.5 I-1.25 J0
X57.45 Y27.5 I1.25 J0
X57.209 Y27.696 I-0.2 J0
G1 X56.25 Y27.5
Z-9.792 F30
X56.243 Y27.525 F150
X56.225 Y27.543
X56.2 Y27.55
X56.175 Y27.543
X56.157 Y27.525
X56.15 Y27.5
G3 X57.45 Y27.5 I0.65 J0
X54.95 Y27.5 I-1.25 J0
X57.45 Y27.5 I1.25 J0
X57.209 Y27.696 I-0.2 J0
G1 X56.25 Y27.5
Z-10.771 F30
X56.243 Y27.525 F150
X56.225 Y27.543
X56.2 Y27.55
X56.175 Y27.543
X56.157 Y27.525
X56.15 Y27.5
G3 X57.45 Y27.5 I0.65 J0
X54.95 Y27.5 I-1.25 J0
X57.45 Y27.5 I1.25 J0
X57.209 Y27.696 I-0.2 J0
G1 X56.25 Y27.5
Z-11.75 F30
X56.243 Y27.525 F150
X56.225 Y27.543
X56.2 Y27.55
X56.175 Y27.543
X56.157 Y27.525
X56.15 Y27.5
G3 X57.45 Y27.5 I0.65 J0
X54.95 Y27.5 I-1.25 J0
X57.45 Y27.5 I1.25 J0
G0 Z5
X25.8 Y24.85
G1 Z2.5 F30
Z-0.979
G3 X24.6 Y24.85 I-0.6 J0 F150
X27 Y24.85 I1.2 J0
X23.4 Y24.85 I-1.8 J0
X28.2 Y24.85 I2.4 J0
X22.2 Y24.85 I-3 J0
X28.2 Y24.85 I3 J0
G1 Z1.521
X25.8
Z-1.958 F30
G3 X24.6 Y24.85 I-0.6 J0 F150
X27 Y24.85 I1.2 J0
X23.4 Y24.85 I-1.8 J0
X28.2 Y24.85 I2.4 J0
X22.2 Y24.85 I-3 J0
X28.2 Y24.85 I3 J0
G1 Z0.542
X25.8
Z-2.938 F30
G3 X24.6 Y24.85 I-0.6 J0 F150
X27 Y24.85 I1.2 J0
X23.4 Y24.85 I-1.8 J0
X28.2 Y24.85 I2.4 J0
X22.2 Y24.85 I-3 J0
X28.2 Y24.85 I3 J0
G1 Z-0.438
X25.8
Z-3.917 F30
G3 X24.6 Y24.85 I-0.6 J0 F150
X27 Y24.85 I1.2 J0
X23.4 Y24.85 I-1.8 J0
X28.2 Y24.85 I2.4 J0
X22.2 Y24.85 I-3 J0
X28.2 Y24.85 I3 J0
G1 Z-1.417
X25.8
Z-4.896 F30
G3 X24.6 Y24.85 I-0.6 J0 F150
X27 Y24.85 I1.2 J0
X23.4 Y24.85 I-1.8 J0
X28.2 Y24.85 I2.4 J0
X22.2 Y24.85 I-3 J0
X28.2 Y24.85 I3 J0
G1 Z-2.396
X25.8
Z-5.875 F30
G3 X24.6 Y24.85 I-0.6 J0 F150
X27 Y24.85 I1.2 J0
X23.4 Y24.85 I-1.8 J0
X28.2 Y24.85 I2.4 J0
X22.2 Y24.85 I-3 J0
X28.2 Y24.85 I3 J0
G1 Z-3.375
X25.8
Z-6.854 F30
G3 X24.6 Y24.85 I-0.6 J0 F150
X27 Y24.85 I1.2 J0
X23.4 Y24.85 I-1.8 J0
X28.2 Y24.85 I2.4 J0
X22.2 Y24.85 I-3 J0
X28.2 Y24.85 I3 J0
G1 Z-4.354
X25.8
Z-7.833 F30
G3 X24.6 Y24.85 I-0.6 J0 F150
X27 Y24.85 I1.2 J0
X23.4 Y24.85 I-1.8 J0
X28.2 Y24.85 I2.4 J0
X22.2 Y24.85 I-3 J0
X28.2 Y24.85 I3 J0
G1 Z-5.333
X25.8
Z-8.813 F30
G3 X24.6 Y24.85 I-0.6 J0 F150
X27 Y24.85 I1.2 J0
X23.4 Y24.85 I-1.8 J0
X28.2 Y24.85 I2.4 J0
X22.2 Y24.85 I-3 J0
X28.2 Y24.85 I3 J0
G1 Z-6.313
X25.8
Z-9.792 F30
G3 X24.6 Y24.85 I-0.6 J0 F150
X27 Y24.85 I1.2 J0
X23.4 Y24.85 I-1.8 J0
X28.2 Y24.85 I2.4 J0
X22.2 Y24.85 I-3 J0
X28.2 Y24.85 I3 J0
G1 Z-7.292
X25.8
Z-10.771 F30
G3 X24.6 Y24.85 I-0.6 J0 F150
X27 Y24.85 I1.2 J0
X23.4 Y24.85 I-1.8 J0
X28.2 Y24.85 I2.4 J0
X22.2 Y24.85 I-3 J0
X28.2 Y24.85 I3 J0
G1 Z-8.271
X25.8
Z-11.75 F30
G3 X24.6 Y24.85 I-0.6 J0 F150
X27 Y24.85 I1.2 J0
X23.4 Y24.85 I-1.8 J0
X28.2 Y24.85 I2.4 J0
X22.2 Y24.85 I-3 J0
X28.2 Y24.85 I3 J0
G0 Z5
X25.8 Y67.15
G1 Z2.5 F30
Z-0.979
G3 X24.6 Y67.15 I-0.6 J0 F150
X27 Y67.15 I1.2 J0
X23.4 Y67.15 I-1.8 J0
X28.2 Y67.15 I2.4 J0
X22.2 Y67.15 I-3 J0
X28.2 Y67.15 I3 J0
G1 Z1.521
X25.8
Z-1.958 F30
G3 X24.6 Y67.15 I-0.6 J0 F150
X27 Y67.15 I1.2 J0
X23.4 Y67.15 I-1.8 J0
X28.2 Y67.15 I2.4 J0
X22.2 Y67.15 I-3 J0
X28.2 Y67.15 I3 J0
G1 Z0.542
X25.8
Z-2.938 F30
G3 X24.6 Y67.15 I-0.6 J0 F150
X27 Y67.15 I1.2 J0
X23.4 Y67.15 I-1.8 J0
X28.2 Y67.15 I2.4 J0
X22.2 Y67.15 I-3 J0
X28.2 Y67.15 I3 J0
G1 Z-0.438
X25.8
Z-3.917 F30
G3 X24.6 Y67.15 I-0.6 J0 F150
X27 Y67.15 I1.2 J0
X23.4 Y67.15 I-1.8 J0
X28.2 Y67.15 I2.4 J0
X22.2 Y67.15 I-3 J0
X28.2 Y67.15 I3 J0
G1 Z-1.417
X25.8
Z-4.896 F30
G3 X24.6 Y67.15 I-0.6 J0 F150
X27 Y67.15 I1.2 J0
X23.4 Y67.15 I-1.8 J0
X28.2 Y67.15 I2.4 J0
X22.2 Y67.15 I-3 J0
X28.2 Y67.15 I3 J0
G1 Z-2.396
X25.8
Z-5.875 F30
G3 X24.6 Y67.15 I-0.6 J0 F150
X27 Y67.15 I1.2 J0
X23.4 Y67.15 I-1.8 J0
X28.2 Y67.15 I2.4 J0
X22.2 Y67.15 I-3 J0
X28.2 Y67.15 I3 J0
G1 Z-3.375
X25.8
Z-6.854 F30
G3 X24.6 Y67.15 I-0.6 J0 F150
X27 Y67.15 I1.2 J0
X23.4 Y67.15 I-1.8 J0
X28.2 Y67.15 I2.4 J0
X22.2 Y67.15 I-3 J0
X28.2 Y67.15 I3 J0
G1 Z-4.354
X25.8
Z-7.833 F30
G3 X24.6 Y67.15 I-0.6 J0 F150
X27 Y67.15 I1.2 J0
X23.4 Y67.15 I-1.8 J0
X28.2 Y67.15 I2.4 J0
X22.2 Y67.15 I-3 J0
X28.2 Y67.15 I3 J0
G1 Z-5.333
X25.8
Z-8.813 F30
G3 X24.6 Y67.15 I-0.6 J0 F150
X27 Y67.15 I1.2 J0
X23.4 Y67.15 I-1.8 J0
X28.2 Y67.15 I2.4 J0
X22.2 Y67.15 I-3 J0
X28.2 Y67.15 I3 J0
G1 Z-6.313
X25.8
Z-9.792 F30
G3 X24.6 Y67.15 I-0.6 J0 F150
X27 Y67.15 I1.2 J0
X23.4 Y67.15 I-1.8 J0
X28.2 Y67.15 I2.4 J0
X22.2 Y67.15 I-3 J0
X28.2 Y67.15 I3 J0
G1 Z-7.292
X25.8
Z-10.771 F30
G3 X24.6 Y67.15 I-0.6 J0 F150
X27 Y67.15 I1.2 J0
X23.4 Y67.15 I-1.8 J0
X28.2 Y67.15 I2.4 J0
X22.2 Y67.15 I-3 J0
X28.2 Y67.15 I3 J0
G1 Z-8.271
X25.8
Z-11.75 F30
G3 X24.6 Y67.15 I-0.6 J0 F150
X27 Y67.15 I1.2 J0
X23.4 Y67.15 I-1.8 J0
X28.2 Y67.15 I2.4 J0
X22.2 Y67.15 I-3 J0
X28.2 Y67.15 I3 J0
G0 Z15
M9
M5
M30
