(y_front_cutout)
(Machine)
(  vendor: Autodesk)
(  model: Generic 3-axis)
(  description: This machine has XY axis on the Table and Z axis on the Head)
(T1  D=2 CR=0 - ZMIN=-11.75 - flat end mill)
G90 G94
G17
G21

(y_front_cutout)
T1
S12000 M3
G54
M8
G0 X4.2 Y107.269
Z15
Z5
G1 Z2.5 F30
Y127 Z-0.979 F150
Y244
G2 X5.2 Y245 I1 J0
G1 X147.2
G2 X148.2 Y244 I0 J-1
G1 Y10
G2 X147.2 Y9 I-1 J0
G1 X5.2
G2 X4.2 Y10 I0 J1
G1 Y127
Y188.874 Z-1.958
Y244
G2 X5.2 Y245 I1 J0
G1 X147.2
G2 X148.2 Y244 I0 J-1
G1 Y10
G2 X147.2 Y9 I-1 J0
G1 X5.2
G2 X4.2 Y10 I0 J1
G1 Y127
Y188.874
Y244 Z-2.831
G2 X5.2 Y245 Z-2.856 I1 J0
G1 X10.377 Z-2.938
X147.2
G2 X148.2 Y244 I0 J-1
G1 Y10
G2 X147.2 Y9 I-1 J0
G1 X5.2
G2 X4.2 Y10 I0 J1
G1 Y188.874
Y244
G2 X5.2 Y245 I1 J0
G1 X10.377
X72.251 Z-3.917
X147.2
G2 X148.2 Y244 I0 J-1
G1 Y10
G2 X147.2 Y9 I-1 J0
G1 X5.2
G2 X4.2 Y10 I0 J1
G1 Y244
G2 X5.2 Y245 I1 J0
G1 X72.251
X134.124 Z-4.896
X147.2
G2 X148.2 Y244 I0 J-1
G1 Y10
G2 X147.2 Y9 I-1 J0
G1 X5.2
G2 X4.2 Y10 I0 J1
G1 Y244
G2 X5.2 Y245 I1 J0
G1 X72.251
X134.124
X147.2 Z-5.103
G2 X148.2 Y244 Z-5.128 I0 J-1
G1 Y196.773 Z-5.875
Y10
G2 X147.2 Y9 I-1 J0
G1 X5.2
G2 X4.2 Y10 I0 J1
G1 Y244
G2 X5.2 Y245 I1 J0
G1 X134.124
X147.2
G2 X148.2 Y244 I0 J-1
G1 Y196.773
Y134.899 Z-6.854
Y10
G2 X147.2 Y9 I-1 J0
G1 X5.2
G2 X4.2 Y10 I0 J1
G1 Y244
G2 X5.2 Y245 I1 J0
G1 X147.2
G2 X148.2 Y244 I0 J-1
G1 Y134.899
Y73.025 Z-7.833
Y10
G2 X147.2 Y9 I-1 J0
G1 X5.2
G2 X4.2 Y10 I0 J1
G1 Y244
G2 X5.2 Y245 I1 J0
G1 X147.2
G2 X148.2 Y244 I0 J-1
G1 Y134.899
Y73.025
Y11.151 Z-8.813
Y10
G2 X147.2 Y9 I-1 J0
G1 X5.2
G2 X4.2 Y10 I0 J1
G1 Y244
G2 X5.2 Y245 I1 J0
G1 X147.2
G2 X148.2 Y244 I0 J-1
G1 Y73.025
Y11.151
Y10 Z-8.831
G2 X147.2 Y9 Z-8.856 I-1 J0
G1 X88.048 Z-9.792
X5.2
G2 X4.2 Y10 I0 J1
G1 Y244
G2 X5.2 Y245 I1 J0
G1 X147.2
G2 X148.2 Y244 I0 J-1
G1 Y11.151
Y10
G2 X147.2 Y9 I-1 J0
G1 X88.048
X43.2 Z-10.501
Z-10.25
X38.2
Z-10.581 F30
X26.174 Z-10.771 F150
X5.2
G2 X4.2 Y10 I0 J1
G1 Y36.75
Z-10.25
Y41.75
Z-10.771 F30
Y95.25 F150
Z-10.25
Y100.25
Z-10.771 F30
Y153.75 F150
Z-10.25
Y158.75
Z-10.771 F30
Y212.25 F150
Z-10.25
Y217.25
Z-10.771 F30
Y244 F150
G2 X5.2 Y245 I1 J0
G1 X38.2
Z-10.25
X43.2
Z-10.771 F30
X109.2 F150
Z-10.25
X114.2
Z-10.771 F30
X147.2 F150
G2 X148.2 Y244 I0 J-1
G1 Y217.25
Z-10.25
Y212.25
Z-10.771 F30
Y158.75 F150
Z-10.25
Y153.75
Z-10.771 F30
Y100.25 F150
Z-10.25
Y95.25
Z-10.771 F30
Y41.75 F150
Z-10.25
Y36.75
Z-10.771 F30
Y10 F150
G2 X147.2 Y9 I-1 J0
G1 X114.2
Z-10.25
X109.2
Z-10.771 F30
X43.2 F150
Z-10.25
X38.2
Z-10.771 F30
X26.174 F150
X5.2 Z-11.103
G2 X4.2 Y10 Z-11.128 I0 J1
G1 Y36.75 Z-11.551
Z-10.25
Y41.75
Z-11.63 F30
Y49.329 Z-11.75 F150
Y95.25
Z-10.25
Y100.25
Z-11.75 F30
Y153.75 F150
Z-10.25
Y158.75
Z-11.75 F30
Y212.25 F150
Z-10.25
Y217.25
Z-11.75 F30
Y244 F150
G2 X5.2 Y245 I1 J0
G1 X38.2
Z-10.25
X43.2
Z-11.75 F30
X109.2 F150
Z-10.25
X114.2
Z-11.75 F30
X147.2 F150
G2 X148.2 Y244 I0 J-1
G1 Y217.25
Z-10.25
Y212.25
Z-11.75 F30
Y158.75 F150
Z-10.25
Y153.75
Z-11.75 F30
Y100.25 F150
Z-10.25
Y95.25
Z-11.75 F30
Y41.75 F150
Z-10.25
Y36.75
Z-11.75 F30
Y10 F150
G2 X147.2 Y9 I-1 J0
G1 X114.2
Z-10.25
X109.2
Z-11.75 F30
X43.2 F150
Z-10.25
X38.2
Z-11.75 F30
X5.2 F150
G2 X4.2 Y10 I0 J1
G1 Y36.75
Z-10.25
Y41.75
Z-11.75 F30
Y49.329 F150
G0 Z15
M9
M5
M30
