(y_front_cuts)
(Machine)
(  vendor: Autodesk)
(  model: Generic 3-axis)
(  description: This machine has XY axis on the Table and Z axis on the Head)
(T1  D=2 CR=0 - ZMIN=-11.75 - flat end mill)
G90 G94
G17
G21

(y_front_cuts)
T1
S12000 M3
G54
M8
G0 X37.7 Y49.151
Z15
Z5
G1 Z2.5 F30
Y57.5 Z1.028 F150
X26.2 Z-1
X12.7
Y34.5
X37.7
Y57.5
X26.2
X18.2 Z-2
X12.7
Y34.5
X37.7
Y57.5
X26.2
X18.2
X12.7 Z-2.688
Y55 Z-3
Y34.5
X37.7
Y57.5
X18.2
X12.7
Y55
Y47 Z-4
Y34.5
X37.7
Y57.5
X12.7
Y47
Y39 Z-5
Y34.5
X37.7
Y57.5
X12.7
Y47
Y39
Y34.5 Z-5.563
X16.2 Z-6
X37.7
Y57.5
X12.7
Y39
Y34.5
X16.2
X24.2 Z-7
X37.7
Y57.5
X12.7
Y34.5
X24.2
X32.2 Z-8
X37.7
Y57.5
X12.7
Y34.5
X24.2
X32.2
X37.7 Z-8.688
Y37 Z-9
Y57.5
X12.7
Y34.5
X32.2
X37.7
Y37
Y45 Z-10
Y57.5
X12.7
Y34.5
X37.7
Y45
Y47 Z-10.25
Y49.564
Z-10.57 F30
Y53 Z-11 F150
Y57.5
X27.847
Z-10.25
X22.847
Z-11 F30
X12.7 F150
Y48.204
Z-10.25
Y43.204
Z-11 F30
Y34.5 F150
X23.722
Z-10.25
X28.722
Z-11 F30
X37.7 F150
Y44.564
Z-10.25
Y49.564
Z-11 F30
Y53 F150
Y57.5 Z-11.563
X36.2 Z-11.75
X27.847
Z-10.25
X22.847
Z-11.75 F30
X12.7 F150
Y48.204
Z-10.25
Y43.204
Z-11.75 F30
Y34.5 F150
X23.722
Z-10.25
X28.722
Z-11.75 F30
X37.7 F150
Y44.564
Z-10.25
Y49.564
Z-11.75 F30
Y57.5 F150
X36.2
G0 Z5
X114.7 Y42.849
G1 Z2.5 F30
Y34.5 Z1.028 F150
X126.2 Z-1
X139.7
Y57.5
X114.7
Y34.5
X126.2
X134.2 Z-2
X139.7
Y57.5
X114.7
Y34.5
X126.2
X134.2
X139.7 Z-2.688
Y37 Z-3
Y57.5
X114.7
Y34.5
X134.2
X139.7
Y37
Y45 Z-4
Y57.5
X114.7
Y34.5
X139.7
Y45
Y53 Z-5
Y57.5
X114.7
Y34.5
X139.7
Y45
Y53
Y57.5 Z-5.563
X136.2 Z-6
X114.7
Y34.5
X139.7
Y53
Y57.5
X136.2
X128.2 Z-7
X114.7
Y34.5
X139.7
Y57.5
X128.2
X120.2 Z-8
X114.7
Y34.5
X139.7
Y57.5
X128.2
X120.2
X114.7 Z-8.688
Y55 Z-9
Y34.5
X139.7
Y57.5
X120.2
X114.7
Y55
Y47 Z-10
Y34.5
X139.7
Y57.5
X114.7
Y47
Y45 Z-10.25
Y43.658
Z-10.418 F30
Y39 Z-11 F150
Y34.5
X124.437
Z-10.25
X129.437
Z-11 F30
X139.7 F150
Y43.204
Z-10.25
Y48.204
Z-11 F30
Y57.5 F150
X130.605
Z-10.25
X125.605
Z-11 F30
X114.7 F150
Y48.658
Z-10.25
Y43.658
Z-11 F30
Y39 F150
Y34.5 Z-11.563
X116.2 Z-11.75
X124.437
Z-10.25
X129.437
Z-11.75 F30
X139.7 F150
Y43.204
Z-10.25
Y48.204
Z-11.75 F30
Y57.5 F150
X130.605
Z-10.25
X125.605
Z-11.75 F30
X114.7 F150
Y48.658
Z-10.25
Y43.658
Z-11.75 F30
Y34.5 F150
X116.2
G0 Z5
X123.049 Y219.5
G1 Z2.5 F30
X114.7 Z1.028 F150
Y208 Z-1
Y196.5
X139.7
Y219.5
X114.7
Y208
Y200 Z-2
Y196.5
X139.7
Y219.5
X114.7
Y208
Y200
Y196.5 Z-2.438
X119.2 Z-3
X139.7
Y219.5
X114.7
Y200
Y196.5
X119.2
X127.2 Z-4
X139.7
Y219.5
X114.7
Y196.5
X127.2
X135.2 Z-5
X139.7
Y219.5
X114.7
Y196.5
X127.2
X135.2
X139.7 Z-5.563
Y200 Z-6
Y219.5
X114.7
Y196.5
X135.2
X139.7
Y200
Y208 Z-7
Y219.5
X114.7
Y196.5
X139.7
Y208
Y216 Z-8
Y219.5
X114.7
Y196.5
X139.7
Y208
Y216
Y219.5 Z-8.438
X135.2 Z-9
X114.7
Y196.5
X139.7
Y216
Y219.5
X135.2
X127.2 Z-10
X114.7
Y196.5
X139.7
Y219.5
X127.2
X119.2 Z-11
X114.7
Y210.419
Z-10.25
Y205.419
Z-11 F30
Y196.5 F150
X123.561
Z-10.25
X128.561
Z-11 F30
X139.7 F150
Y205.872
Z-10.25
Y210.872
Z-11 F30
Y219.5 F150
X130.313
Z-10.25
X125.313
Z-11 F30
X119.2 F150
X114.7 Z-11.563
Y218 Z-11.75
Y210.419
Z-10.25
Y205.419
Z-11.75 F30
Y196.5 F150
X123.561
Z-10.25
X128.561
Z-11.75 F30
X139.7 F150
Y205.872
Z-10.25
Y210.872
Z-11.75 F30
Y219.5 F150
X130.313
Z-10.25
X125.313
Z-11.75 F30
X114.7 F150
Y218
G0 Z5
X12.7 Y204.849
G1 Z2.5 F30
Y196.5 Z1.028 F150
X24.2 Z-1
X37.7
Y219.5
X12.7
Y196.5
X24.2
X32.2 Z-2
X37.7
Y219.5
X12.7
Y196.5
X24.2
X32.2
X37.7 Z-2.688
Y199 Z-3
Y219.5
X12.7
Y196.5
X32.2
X37.7
Y199
Y207 Z-4
Y219.5
X12.7
Y196.5
X37.7
Y207
Y215 Z-5
Y219.5
X12.7
Y196.5
X37.7
Y207
Y215
Y219.5 Z-5.563
X34.2 Z-6
X12.7
Y196.5
X37.7
Y215
Y219.5
X34.2
X26.2 Z-7
X12.7
Y196.5
X37.7
Y219.5
X26.2
X18.2 Z-8
X12.7
Y196.5
X37.7
Y219.5
X26.2
X18.2
X12.7 Z-8.688
Y217 Z-9
Y196.5
X37.7
Y219.5
X18.2
X12.7
Y217
Y209 Z-10
Y196.5
X37.7
Y219.5
X12.7
Y209
Y207 Z-10.25
Y205.419
Z-10.448 F30
Y201 Z-11 F150
Y196.5
X23.139
Z-10.25
X28.139
Z-11 F30
X37.7 F150
Y205.872
Z-10.25
Y210.872
Z-11 F30
Y219.5 F150
X27.263
Z-10.25
X22.263
Z-11 F30
X12.7 F150
Y210.419
Z-10.25
Y205.419
Z-11 F30
Y201 F150
Y196.5 Z-11.563
X14.2 Z-11.75
X23.139
Z-10.25
X28.139
Z-11.75 F30
X37.7 F150
Y205.872
Z-10.25
Y210.872
Z-11.75 F30
Y219.5 F150
X27.263
Z-10.25
X22.263
Z-11.75 F30
X12.7 F150
Y210.419
Z-10.25
Y205.419
Z-11.75 F30
Y196.5 F150
X14.2
G0 Z15
M9
M5
M30
